.config/mpv/luts/FGCineCold.cube
#Generated with IWLTBAP LUT Generator
#Website: http://luts.iwltbap.com
TITLE "FGCineCold"
#LUT size
LUT_3D_SIZE 9
#LUT data points
0.000000 0.003922 0.000000
0.101961 0.000000 0.003922
0.227451 0.035294 0.007843
0.345098 0.078431 0.027451
0.478431 0.117647 0.066667
0.619608 0.156863 0.109804
0.756863 0.200000 0.160784
0.882353 0.243137 0.192157
0.992157 0.298039 0.239216
0.000000 0.129412 0.015686
0.117647 0.137255 0.011765
0.243137 0.133333 0.039216
0.364706 0.149020 0.066667
0.494118 0.176471 0.094118
0.631373 0.203922 0.137255
0.760784 0.239216 0.172549
0.878431 0.274510 0.211765
0.996078 0.325490 0.258824
0.000000 0.270588 0.082353
0.090196 0.270588 0.078431
0.247059 0.286275 0.090196
0.396078 0.278431 0.129412
0.533333 0.286275 0.164706
0.666667 0.298039 0.188235
0.792157 0.321569 0.219608
0.905882 0.345098 0.250980
1.000000 0.380392 0.298039
0.007843 0.400000 0.156863
0.082353 0.403922 0.152941
0.247059 0.411765 0.164706
0.400000 0.435294 0.188235
0.564706 0.439216 0.215686
0.705882 0.427451 0.247059
0.823529 0.415686 0.270588
0.925490 0.431373 0.301961
1.000000 0.462745 0.329412
0.007843 0.549020 0.211765
0.129412 0.552941 0.215686
0.266667 0.556863 0.223529
0.411765 0.568627 0.231373
0.584314 0.580392 0.254902
0.725490 0.576471 0.282353
0.854902 0.564706 0.325490
0.964706 0.560784 0.368627
0.996078 0.580392 0.396078
0.176471 0.678431 0.274510
0.227451 0.686275 0.278431
0.321569 0.674510 0.282353
0.447059 0.690196 0.294118
0.592157 0.694118 0.305882
0.737255 0.713725 0.329412
0.870588 0.713725 0.372549
0.968627 0.701961 0.407843
1.000000 0.713725 0.454902
0.298039 0.788235 0.325490
0.341176 0.792157 0.325490
0.400000 0.792157 0.337255
0.494118 0.796078 0.349020
0.603922 0.800000 0.364706
0.733333 0.807843 0.388235
0.858824 0.823529 0.419608
0.956863 0.839216 0.470588
0.996078 0.831373 0.501961
0.462745 0.901961 0.407843
0.470588 0.909804 0.415686
0.521569 0.909804 0.415686
0.584314 0.913725 0.427451
0.674510 0.913725 0.447059
0.768627 0.921569 0.462745
0.866667 0.933333 0.486275
0.972549 0.937255 0.525490
1.000000 0.941176 0.576471
0.607843 0.996078 0.490196
0.627451 1.000000 0.509804
0.654902 1.000000 0.521569
0.701961 0.996078 0.529412
0.752941 1.000000 0.541176
0.827451 1.000000 0.564706
0.898039 1.000000 0.580392
0.980392 1.000000 0.627451
1.000000 0.996078 0.654902
0.000000 0.000000 0.133333
0.098039 0.000000 0.149020
0.227451 0.019608 0.137255
0.333333 0.090196 0.149020
0.454902 0.152941 0.176471
0.588235 0.188235 0.200000
0.733333 0.223529 0.223529
0.870588 0.262745 0.254902
0.988235 0.309804 0.278431
0.000000 0.125490 0.145098
0.098039 0.133333 0.152941
0.219608 0.145098 0.168627
0.333333 0.168627 0.176471
0.470588 0.196078 0.196078
0.607843 0.223529 0.211765
0.733333 0.250980 0.223529
0.854902 0.282353 0.254902
0.992157 0.333333 0.290196
0.000000 0.258824 0.188235
0.090196 0.266667 0.188235
0.231373 0.278431 0.200000
0.376471 0.278431 0.207843
0.509804 0.290196 0.231373
0.654902 0.305882 0.243137
0.768627 0.325490 0.262745
0.894118 0.352941 0.282353
0.996078 0.392157 0.313725
0.000000 0.380392 0.203922
0.090196 0.392157 0.219608
0.235294 0.403922 0.235294
0.384314 0.419608 0.243137
0.549020 0.423529 0.262745
0.686275 0.419608 0.282353
0.800000 0.419608 0.305882
0.905882 0.435294 0.309804
1.000000 0.454902 0.341176
0.007843 0.549020 0.254902
0.133333 0.537255 0.266667
0.262745 0.541176 0.266667
0.407843 0.564706 0.278431
0.576471 0.576471 0.286275
0.721569 0.572549 0.325490
0.843137 0.564706 0.345098
0.960784 0.560784 0.380392
1.000000 0.580392 0.407843
0.172549 0.662745 0.294118
0.223529 0.666667 0.298039
0.321569 0.670588 0.309804
0.439216 0.678431 0.313725
0.576471 0.690196 0.329412
0.733333 0.705882 0.349020
0.858824 0.705882 0.396078
0.968627 0.705882 0.427451
0.992157 0.709804 0.478431
0.309804 0.776471 0.345098
0.337255 0.780392 0.356863
0.403922 0.780392 0.356863
0.486275 0.784314 0.360784
0.603922 0.796078 0.376471
0.737255 0.803922 0.403922
0.858824 0.823529 0.427451
0.964706 0.819608 0.470588
0.996078 0.827451 0.521569
0.474510 0.894118 0.439216
0.498039 0.905882 0.431373
0.521569 0.909804 0.443137
0.588235 0.905882 0.435294
0.670588 0.905882 0.450980
0.768627 0.913725 0.470588
0.874510 0.925490 0.501961
0.964706 0.933333 0.537255
0.996078 0.937255 0.580392
0.611765 1.000000 0.505882
0.615686 1.000000 0.517647
0.647059 1.000000 0.517647
0.690196 1.000000 0.533333
0.745098 0.996078 0.549020
0.827451 1.000000 0.564706
0.898039 0.996078 0.600000
0.964706 1.000000 0.627451
1.000000 1.000000 0.647059
0.000000 0.003922 0.266667
0.047059 0.003922 0.278431
0.215686 0.023529 0.278431
0.337255 0.066667 0.282353
0.454902 0.109804 0.274510
0.592157 0.133333 0.270588
0.713725 0.239216 0.305882
0.850980 0.282353 0.309804
0.980392 0.329412 0.352941
0.007843 0.141176 0.278431
0.023529 0.137255 0.262745
0.200000 0.145098 0.282353
0.341176 0.156863 0.282353
0.454902 0.180392 0.282353
0.588235 0.231373 0.298039
0.705882 0.274510 0.309804
0.847059 0.301961 0.337255
0.980392 0.349020 0.349020
0.007843 0.262745 0.286275
0.066667 0.262745 0.290196
0.211765 0.270588 0.282353
0.345098 0.278431 0.301961
0.474510 0.298039 0.309804
0.619608 0.325490 0.313725
0.745098 0.341176 0.325490
0.874510 0.368627 0.345098
0.996078 0.407843 0.372549
0.003922 0.388235 0.298039
0.074510 0.384314 0.309804
0.223529 0.392157 0.313725
0.368627 0.415686 0.321569
0.529412 0.419608 0.337255
0.662745 0.415686 0.349020
0.776471 0.431373 0.356863
0.898039 0.447059 0.372549
1.000000 0.474510 0.392157
0.003922 0.529412 0.329412
0.125490 0.529412 0.321569
0.254902 0.541176 0.325490
0.396078 0.549020 0.341176
0.564706 0.564706 0.352941
0.701961 0.568627 0.380392
0.831373 0.564706 0.411765
0.941176 0.572549 0.435294
0.992157 0.603922 0.450980
0.203922 0.662745 0.356863
0.231373 0.666667 0.356863
0.337255 0.666667 0.364706
0.439216 0.666667 0.368627
0.580392 0.682353 0.396078
0.713725 0.698039 0.407843
0.854902 0.705882 0.450980
0.960784 0.709804 0.470588
1.000000 0.709804 0.513725
0.325490 0.780392 0.392157
0.352941 0.772549 0.396078
0.415686 0.784314 0.400000
0.501961 0.780392 0.411765
0.615686 0.784314 0.431373
0.737255 0.800000 0.450980
0.854902 0.815686 0.474510
0.956863 0.827451 0.517647
1.000000 0.831373 0.552941
0.482353 0.901961 0.454902
0.498039 0.898039 0.466667
0.533333 0.898039 0.478431
0.592157 0.901961 0.474510
0.674510 0.905882 0.482353
0.768627 0.913725 0.498039
0.862745 0.921569 0.517647
0.972549 0.937255 0.564706
1.000000 0.933333 0.623529
0.607843 0.996078 0.529412
0.619608 1.000000 0.545098
0.650980 1.000000 0.545098
0.694118 1.000000 0.560784
0.745098 1.000000 0.564706
0.827451 0.996078 0.576471
0.898039 1.000000 0.619608
0.964706 1.000000 0.643137
1.000000 0.996078 0.670588
0.000000 0.015686 0.376471
0.003922 0.023529 0.380392
0.180392 0.043137 0.372549
0.325490 0.074510 0.384314
0.462745 0.109804 0.384314
0.603922 0.129412 0.400000
0.729412 0.152941 0.388235
0.847059 0.184314 0.360784
0.968627 0.305882 0.396078
0.003922 0.141176 0.392157
0.000000 0.141176 0.384314
0.180392 0.149020 0.380392
0.333333 0.164706 0.384314
0.454902 0.180392 0.384314
0.592157 0.192157 0.388235
0.721569 0.203922 0.368627
0.854902 0.239216 0.384314
0.960784 0.349020 0.403922
0.000000 0.278431 0.396078
0.003922 0.274510 0.388235
0.196078 0.270588 0.388235
0.333333 0.274510 0.396078
0.474510 0.282353 0.396078
0.611765 0.290196 0.388235
0.717647 0.309804 0.376471
0.850980 0.376471 0.403922
0.964706 0.431373 0.415686
0.000000 0.392157 0.392157
0.047059 0.392157 0.388235
0.215686 0.392157 0.403922
0.333333 0.396078 0.396078
0.482353 0.403922 0.407843
0.611765 0.415686 0.411765
0.741176 0.439216 0.415686
0.854902 0.462745 0.431373
0.988235 0.490196 0.454902
0.007843 0.525490 0.403922
0.109804 0.521569 0.403922
0.243137 0.529412 0.411765
0.388235 0.529412 0.411765
0.541176 0.552941 0.431373
0.682353 0.560784 0.450980
0.811765 0.568627 0.478431
0.913725 0.584314 0.474510
1.000000 0.607843 0.498039
0.207843 0.650980 0.431373
0.258824 0.650980 0.431373
0.349020 0.658824 0.435294
0.443137 0.658824 0.443137
0.576471 0.674510 0.458824
0.717647 0.698039 0.482353
0.843137 0.701961 0.505882
0.952941 0.713725 0.541176
1.000000 0.721569 0.564706
0.352941 0.772549 0.466667
0.384314 0.780392 0.474510
0.439216 0.768627 0.466667
0.513725 0.772549 0.474510
0.611765 0.784314 0.482353
0.729412 0.800000 0.501961
0.850980 0.811765 0.529412
0.960784 0.823529 0.564706
1.000000 0.835294 0.600000
0.490196 0.901961 0.501961
0.498039 0.898039 0.498039
0.533333 0.905882 0.498039
0.603922 0.901961 0.517647
0.670588 0.905882 0.529412
0.760784 0.917647 0.541176
0.870588 0.921569 0.568627
0.964706 0.933333 0.600000
0.992157 0.937255 0.650980
0.603922 1.000000 0.572549
0.623529 0.996078 0.580392
0.643137 1.000000 0.576471
0.698039 1.000000 0.592157
0.741176 1.000000 0.600000
0.815686 0.996078 0.611765
0.898039 1.000000 0.643137
0.968627 1.000000 0.666667
0.996078 1.000000 0.694118
0.000000 0.043137 0.474510
0.000000 0.047059 0.478431
0.156863 0.066667 0.474510
0.321569 0.086275 0.478431
0.466667 0.109804 0.490196
0.603922 0.129412 0.494118
0.721569 0.160784 0.490196
0.854902 0.180392 0.478431
0.984314 0.215686 0.466667
0.000000 0.149020 0.474510
0.000000 0.152941 0.494118
0.152941 0.164706 0.482353
0.329412 0.164706 0.486275
0.462745 0.176471 0.486275
0.596078 0.188235 0.482353
0.721569 0.207843 0.490196
0.847059 0.219608 0.478431
0.976471 0.250980 0.474510
0.000000 0.290196 0.474510
0.000000 0.290196 0.482353
0.184314 0.270588 0.494118
0.333333 0.278431 0.486275
0.478431 0.282353 0.490196
0.615686 0.286275 0.486275
0.729412 0.301961 0.494118
0.866667 0.313725 0.482353
0.992157 0.345098 0.482353
0.003922 0.396078 0.490196
0.003922 0.407843 0.474510
0.196078 0.400000 0.482353
0.333333 0.388235 0.490196
0.478431 0.392157 0.490196
0.603922 0.400000 0.490196
0.729412 0.403922 0.482353
0.839216 0.415686 0.470588
0.960784 0.462745 0.490196
0.000000 0.525490 0.501961
0.113725 0.525490 0.505882
0.243137 0.529412 0.501961
0.368627 0.521569 0.494118
0.501961 0.521569 0.494118
0.639216 0.533333 0.505882
0.764706 0.552941 0.513725
0.886275 0.572549 0.529412
0.996078 0.611765 0.537255
0.219608 0.639216 0.505882
0.250980 0.643137 0.501961
0.345098 0.643137 0.501961
0.447059 0.647059 0.509804
0.552941 0.654902 0.517647
0.698039 0.674510 0.541176
0.831373 0.694118 0.576471
0.941176 0.709804 0.596078
1.000000 0.729412 0.600000
0.349020 0.760784 0.529412
0.368627 0.768627 0.521569
0.431373 0.768627 0.529412
0.505882 0.772549 0.533333
0.615686 0.776471 0.549020
0.725490 0.784314 0.552941
0.843137 0.807843 0.584314
0.952941 0.823529 0.615686
1.000000 0.831373 0.662745
0.470588 0.894118 0.560784
0.494118 0.894118 0.568627
0.533333 0.898039 0.580392
0.592157 0.898039 0.568627
0.670588 0.901961 0.580392
0.764706 0.909804 0.600000
0.866667 0.921569 0.619608
0.968627 0.933333 0.662745
1.000000 0.945098 0.698039
0.584314 1.000000 0.607843
0.603922 1.000000 0.631373
0.631373 1.000000 0.623529
0.682353 1.000000 0.631373
0.741176 0.992157 0.643137
0.807843 0.996078 0.650980
0.890196 0.996078 0.678431
0.968627 1.000000 0.705882
1.000000 1.000000 0.741176
0.000000 0.070588 0.572549
0.000000 0.082353 0.560784
0.133333 0.094118 0.576471
0.305882 0.105882 0.572549
0.470588 0.117647 0.572549
0.596078 0.133333 0.572549
0.729412 0.149020 0.580392
0.854902 0.180392 0.572549
0.992157 0.223529 0.576471
0.007843 0.160784 0.564706
0.000000 0.160784 0.576471
0.121569 0.168627 0.568627
0.298039 0.172549 0.568627
0.458824 0.176471 0.564706
0.600000 0.192157 0.572549
0.721569 0.196078 0.568627
0.847059 0.211765 0.568627
0.980392 0.243137 0.580392
0.000000 0.282353 0.572549
0.000000 0.270588 0.572549
0.133333 0.274510 0.572549
0.325490 0.278431 0.576471
0.466667 0.286275 0.572549
0.607843 0.294118 0.580392
0.733333 0.298039 0.576471
0.862745 0.309804 0.584314
0.984314 0.341176 0.580392
0.000000 0.403922 0.564706
0.023529 0.411765 0.572549
0.203922 0.403922 0.580392
0.317647 0.388235 0.568627
0.470588 0.384314 0.564706
0.600000 0.392157 0.572549
0.717647 0.392157 0.564706
0.843137 0.407843 0.572549
0.972549 0.415686 0.572549
0.019608 0.521569 0.564706
0.137255 0.529412 0.568627
0.262745 0.529412 0.580392
0.380392 0.529412 0.580392
0.505882 0.517647 0.576471
0.631373 0.521569 0.580392
0.752941 0.521569 0.592157
0.866667 0.529412 0.588235
1.000000 0.533333 0.580392
0.211765 0.643137 0.592157
0.262745 0.639216 0.584314
0.337255 0.643137 0.580392
0.435294 0.639216 0.592157
0.533333 0.643137 0.596078
0.654902 0.639216 0.596078
0.776471 0.650980 0.600000
0.898039 0.674510 0.615686
0.992157 0.705882 0.639216
0.321569 0.745098 0.584314
0.356863 0.752941 0.588235
0.403922 0.749020 0.592157
0.490196 0.749020 0.600000
0.580392 0.756863 0.603922
0.694118 0.764706 0.607843
0.823529 0.792157 0.639216
0.945098 0.811765 0.666667
1.000000 0.831373 0.713725
0.447059 0.886275 0.619608
0.470588 0.890196 0.623529
0.494118 0.882353 0.627451
0.560784 0.894118 0.631373
0.658824 0.894118 0.643137
0.745098 0.901961 0.654902
0.854902 0.913725 0.682353
0.956863 0.929412 0.717647
1.000000 0.945098 0.768627
0.568627 0.996078 0.670588
0.560784 1.000000 0.670588
0.596078 1.000000 0.674510
0.658824 1.000000 0.690196
0.721569 1.000000 0.694118
0.796078 1.000000 0.705882
0.878431 1.000000 0.733333
0.956863 0.996078 0.749020
1.000000 1.000000 0.780392
0.003922 0.101961 0.666667
0.000000 0.109804 0.682353
0.094118 0.113725 0.674510
0.294118 0.125490 0.678431
0.466667 0.137255 0.682353
0.607843 0.145098 0.678431
0.741176 0.152941 0.674510
0.858824 0.184314 0.678431
0.988235 0.219608 0.674510
0.000000 0.168627 0.670588
0.003922 0.176471 0.658824
0.094118 0.188235 0.674510
0.298039 0.188235 0.670588
0.454902 0.188235 0.662745
0.603922 0.196078 0.670588
0.729412 0.200000 0.670588
0.850980 0.215686 0.662745
0.976471 0.250980 0.690196
0.003922 0.274510 0.686275
0.000000 0.278431 0.670588
0.113725 0.278431 0.670588
0.305882 0.282353 0.674510
0.466667 0.286275 0.674510
0.615686 0.282353 0.678431
0.741176 0.294118 0.670588
0.862745 0.309804 0.678431
0.984314 0.341176 0.682353
0.003922 0.415686 0.662745
0.019608 0.415686 0.674510
0.149020 0.392157 0.674510
0.313725 0.392157 0.670588
0.470588 0.392157 0.670588
0.603922 0.396078 0.670588
0.733333 0.392157 0.662745
0.847059 0.403922 0.678431
0.976471 0.419608 0.678431
0.027451 0.537255 0.670588
0.137255 0.541176 0.666667
0.266667 0.537255 0.666667
0.384314 0.533333 0.678431
0.494118 0.513725 0.670588
0.619608 0.513725 0.682353
0.752941 0.513725 0.674510
0.866667 0.521569 0.686275
1.000000 0.537255 0.694118
0.231373 0.650980 0.674510
0.262745 0.654902 0.678431
0.345098 0.650980 0.690196
0.435294 0.647059 0.686275
0.533333 0.643137 0.686275
0.639216 0.631373 0.682353
0.776471 0.635294 0.690196
0.882353 0.639216 0.690196
1.000000 0.643137 0.694118
0.305882 0.756863 0.674510
0.325490 0.752941 0.678431
0.388235 0.756863 0.686275
0.470588 0.749020 0.686275
0.564706 0.745098 0.694118
0.662745 0.749020 0.690196
0.776471 0.745098 0.694118
0.905882 0.764706 0.701961
1.000000 0.796078 0.749020
0.400000 0.878431 0.694118
0.435294 0.874510 0.709804
0.458824 0.878431 0.713725
0.529412 0.878431 0.705882
0.619608 0.886275 0.717647
0.713725 0.890196 0.721569
0.835294 0.901961 0.737255
0.952941 0.929412 0.796078
1.000000 0.937255 0.835294
0.513725 1.000000 0.756863
0.529412 1.000000 0.749020
0.560784 1.000000 0.749020
0.611765 0.996078 0.756863
0.682353 1.000000 0.760784
0.772549 1.000000 0.772549
0.866667 0.992157 0.796078
0.952941 1.000000 0.819608
1.000000 0.996078 0.858824
0.000000 0.125490 0.803922
0.000000 0.133333 0.796078
0.007843 0.137255 0.784314
0.274510 0.152941 0.803922
0.447059 0.152941 0.800000
0.600000 0.160784 0.803922
0.745098 0.172549 0.800000
0.870588 0.184314 0.792157
1.000000 0.223529 0.807843
0.003922 0.184314 0.792157
0.000000 0.192157 0.803922
0.000000 0.192157 0.788235
0.270588 0.196078 0.792157
0.450980 0.203922 0.796078
0.596078 0.203922 0.792157
0.741176 0.207843 0.796078
0.866667 0.227451 0.796078
0.992157 0.247059 0.811765
0.000000 0.282353 0.796078
0.000000 0.282353 0.815686
0.000000 0.294118 0.800000
0.278431 0.298039 0.807843
0.454902 0.290196 0.792157
0.603922 0.294118 0.796078
0.745098 0.305882 0.807843
0.878431 0.313725 0.800000
0.984314 0.341176 0.792157
0.000000 0.411765 0.780392
0.003922 0.403922 0.796078
0.003922 0.392157 0.796078
0.282353 0.396078 0.803922
0.458824 0.400000 0.796078
0.596078 0.392157 0.788235
0.741176 0.396078 0.788235
0.862745 0.400000 0.800000
0.988235 0.415686 0.803922
0.000000 0.549020 0.807843
0.117647 0.552941 0.803922
0.239216 0.552941 0.800000
0.341176 0.525490 0.800000
0.470588 0.517647 0.807843
0.619608 0.517647 0.811765
0.760784 0.517647 0.811765
0.882353 0.517647 0.803922
1.000000 0.529412 0.815686
0.180392 0.666667 0.807843
0.231373 0.670588 0.815686
0.317647 0.666667 0.823529
0.407843 0.662745 0.811765
0.517647 0.654902 0.819608
0.627451 0.627451 0.823529
0.772549 0.631373 0.811765
0.894118 0.635294 0.823529
0.992157 0.643137 0.831373
0.262745 0.772549 0.811765
0.290196 0.784314 0.819608
0.368627 0.772549 0.827451
0.450980 0.780392 0.819608
0.541176 0.768627 0.815686
0.654902 0.764706 0.819608
0.764706 0.745098 0.823529
0.890196 0.756863 0.819608
1.000000 0.756863 0.847059
0.360784 0.898039 0.827451
0.384314 0.890196 0.843137
0.431373 0.894118 0.831373
0.505882 0.890196 0.839216
0.592157 0.890196 0.843137
0.690196 0.886275 0.843137
0.788235 0.890196 0.847059
0.913725 0.886275 0.847059
1.000000 0.917647 0.874510
0.474510 0.992157 0.866667
0.486275 1.000000 0.874510
0.513725 1.000000 0.866667
0.564706 1.000000 0.874510
0.635294 1.000000 0.870588
0.725490 0.996078 0.866667
0.839216 1.000000 0.882353
0.945098 1.000000 0.894118
1.000000 1.000000 0.933333
0.007843 0.152941 0.976471
0.000000 0.164706 0.980392
0.000000 0.160784 0.968627
0.211765 0.164706 0.972549
0.419608 0.172549 0.968627
0.588235 0.180392 0.976471
0.745098 0.180392 0.968627
0.886275 0.196078 0.968627
0.996078 0.243137 0.976471
0.000000 0.203922 0.964706
0.003922 0.200000 0.964706
0.000000 0.203922 0.968627
0.200000 0.207843 0.976471
0.419608 0.211765 0.972549
0.592157 0.211765 0.968627
0.741176 0.223529 0.968627
0.878431 0.235294 0.968627
0.996078 0.270588 0.984314
0.007843 0.286275 0.984314
0.000000 0.294118 0.972549
0.000000 0.298039 0.976471
0.192157 0.294118 0.972549
0.427451 0.301961 0.972549
0.592157 0.305882 0.972549
0.752941 0.309804 0.976471
0.894118 0.317647 0.976471
1.000000 0.352941 0.980392
0.000000 0.392157 0.968627
0.000000 0.396078 0.972549
0.000000 0.396078 0.984314
0.176471 0.388235 0.976471
0.415686 0.392157 0.980392
0.588235 0.392157 0.968627
0.745098 0.400000 0.972549
0.890196 0.407843 0.976471
1.000000 0.423529 0.980392
0.000000 0.560784 0.968627
0.003922 0.560784 0.984314
0.000000 0.533333 0.980392
0.164706 0.513725 0.976471
0.423529 0.509804 0.988235
0.592157 0.513725 0.988235
0.749020 0.513725 0.992157
0.901961 0.517647 0.984314
0.996078 0.537255 0.988235
0.000000 0.698039 0.988235
0.000000 0.694118 0.996078
0.172549 0.686275 0.992157
0.337255 0.670588 0.992157
0.443137 0.643137 1.000000
0.584314 0.623529 0.996078
0.745098 0.631373 0.996078
0.894118 0.639216 1.000000
1.000000 0.639216 1.000000
0.109804 0.815686 0.992157
0.184314 0.807843 0.996078
0.270588 0.803922 1.000000
0.372549 0.803922 0.996078
0.486275 0.800000 1.000000
0.607843 0.772549 1.000000
0.733333 0.749020 1.000000
0.890196 0.749020 1.000000
1.000000 0.760784 1.000000
0.337255 0.913725 1.000000
0.360784 0.917647 0.996078
0.400000 0.917647 1.000000
0.466667 0.905882 0.984314
0.556863 0.909804 0.996078
0.666667 0.909804 1.000000
0.776471 0.898039 1.000000
0.890196 0.886275 1.000000
0.996078 0.894118 0.992157
0.450980 1.000000 0.996078
0.470588 1.000000 0.996078
0.509804 0.996078 0.996078
0.552941 1.000000 1.000000
0.631373 1.000000 1.000000
0.713725 0.996078 0.988235
0.819608 1.000000 0.992157
0.937255 1.000000 1.000000
1.000000 1.000000 1.000000
