.config/mpv/luts/FGCineTealOrange1.cube
#Generated with IWLTBAP LUT Generator
#Website: http://luts.iwltbap.com
TITLE "FGCineTealOrange1"
#LUT size
LUT_3D_SIZE 9
#LUT data points
0.050980 0.109804 0.129412
0.094118 0.105882 0.125490
0.211765 0.129412 0.117647
0.372549 0.164706 0.109804
0.607843 0.200000 0.054902
0.858824 0.258824 0.000000
0.996078 0.294118 0.003922
1.000000 0.333333 0.007843
0.992157 0.364706 0.000000
0.054902 0.117647 0.117647
0.113725 0.129412 0.125490
0.211765 0.137255 0.113725
0.356863 0.164706 0.098039
0.580392 0.203922 0.070588
0.823529 0.262745 0.000000
0.976471 0.298039 0.007843
0.996078 0.321569 0.000000
0.996078 0.356863 0.007843
0.043137 0.168627 0.149020
0.098039 0.180392 0.145098
0.227451 0.200000 0.121569
0.396078 0.211765 0.094118
0.639216 0.243137 0.031373
0.866667 0.286275 0.000000
0.996078 0.329412 0.003922
1.000000 0.349020 0.000000
1.000000 0.376471 0.000000
0.058824 0.239216 0.188235
0.094118 0.258824 0.180392
0.231373 0.290196 0.176471
0.435294 0.305882 0.137255
0.647059 0.337255 0.074510
0.831373 0.341176 0.000000
0.960784 0.325490 0.000000
1.000000 0.356863 0.003922
1.000000 0.380392 0.000000
0.043137 0.376471 0.243137
0.125490 0.388235 0.247059
0.270588 0.427451 0.231373
0.494118 0.458824 0.188235
0.717647 0.458824 0.121569
0.882353 0.462745 0.023529
0.992157 0.439216 0.000000
0.996078 0.407843 0.000000
0.996078 0.411765 0.003922
0.188235 0.572549 0.364706
0.235294 0.580392 0.345098
0.368627 0.592157 0.321569
0.556863 0.615686 0.282353
0.776471 0.623529 0.219608
0.929412 0.584314 0.160784
1.000000 0.549020 0.054902
1.000000 0.517647 0.000000
1.000000 0.490196 0.000000
0.250980 0.654902 0.384314
0.305882 0.670588 0.392157
0.396078 0.678431 0.380392
0.556863 0.694118 0.364706
0.737255 0.717647 0.317647
0.909804 0.705882 0.239216
1.000000 0.650980 0.196078
1.000000 0.603922 0.101961
1.000000 0.580392 0.000000
0.501961 0.788235 0.509804
0.545098 0.811765 0.525490
0.600000 0.803922 0.521569
0.662745 0.823529 0.509804
0.796078 0.831373 0.474510
0.929412 0.847059 0.427451
1.000000 0.800000 0.360784
1.000000 0.733333 0.290196
1.000000 0.690196 0.223529
0.682353 0.898039 0.635294
0.721569 0.894118 0.647059
0.733333 0.898039 0.639216
0.764706 0.901961 0.635294
0.843137 0.917647 0.607843
0.921569 0.917647 0.556863
1.000000 0.925490 0.498039
0.996078 0.843137 0.431373
1.000000 0.788235 0.372549
0.031373 0.121569 0.152941
0.086275 0.113725 0.152941
0.180392 0.133333 0.141176
0.325490 0.156863 0.121569
0.556863 0.203922 0.078431
0.811765 0.262745 0.000000
0.972549 0.294118 0.000000
0.992157 0.325490 0.000000
0.996078 0.356863 0.007843
0.035294 0.133333 0.152941
0.094118 0.137255 0.160784
0.180392 0.149020 0.149020
0.313725 0.160784 0.133333
0.525490 0.215686 0.098039
0.764706 0.258824 0.003922
0.949020 0.290196 0.011765
1.000000 0.321569 0.003922
1.000000 0.352941 0.000000
0.070588 0.188235 0.188235
0.098039 0.180392 0.184314
0.200000 0.200000 0.168627
0.349020 0.207843 0.145098
0.580392 0.243137 0.113725
0.815686 0.282353 0.023529
0.976471 0.313725 0.011765
0.996078 0.341176 0.000000
1.000000 0.372549 0.000000
0.066667 0.243137 0.215686
0.094118 0.247059 0.219608
0.196078 0.270588 0.196078
0.364706 0.290196 0.172549
0.576471 0.313725 0.137255
0.784314 0.321569 0.078431
0.956863 0.329412 0.000000
1.000000 0.352941 0.000000
1.000000 0.380392 0.000000
0.047059 0.368627 0.270588
0.121569 0.368627 0.262745
0.239216 0.396078 0.250980
0.443137 0.431373 0.223529
0.666667 0.443137 0.172549
0.839216 0.439216 0.117647
0.972549 0.419608 0.027451
1.000000 0.403922 0.000000
1.000000 0.411765 0.003922
0.160784 0.545098 0.352941
0.200000 0.545098 0.341176
0.321569 0.552941 0.325490
0.505882 0.584314 0.298039
0.737255 0.603922 0.250980
0.901961 0.572549 0.196078
1.000000 0.537255 0.145098
1.000000 0.517647 0.011765
1.000000 0.486275 0.007843
0.227451 0.635294 0.396078
0.282353 0.643137 0.396078
0.360784 0.654902 0.384314
0.509804 0.670588 0.364706
0.713725 0.698039 0.317647
0.886275 0.686275 0.274510
0.992157 0.647059 0.227451
0.992157 0.615686 0.152941
1.000000 0.576471 0.007843
0.505882 0.792157 0.505882
0.529412 0.803922 0.521569
0.576471 0.800000 0.529412
0.647059 0.807843 0.509804
0.768627 0.823529 0.478431
0.913725 0.839216 0.431373
1.000000 0.796078 0.364706
1.000000 0.733333 0.313725
0.992157 0.690196 0.250980
0.682353 0.878431 0.631373
0.686275 0.886275 0.623529
0.709804 0.886275 0.623529
0.749020 0.894118 0.631373
0.819608 0.901961 0.600000
0.925490 0.917647 0.576471
1.000000 0.925490 0.513725
1.000000 0.847059 0.443137
1.000000 0.780392 0.368627
0.003922 0.145098 0.239216
0.003922 0.145098 0.231373
0.172549 0.160784 0.243137
0.305882 0.184314 0.215686
0.525490 0.239216 0.184314
0.780392 0.274510 0.160784
0.972549 0.305882 0.082353
0.996078 0.329412 0.000000
1.000000 0.368627 0.000000
0.000000 0.172549 0.223529
0.019608 0.168627 0.219608
0.152941 0.176471 0.223529
0.282353 0.203922 0.211765
0.498039 0.235294 0.203922
0.725490 0.274510 0.160784
0.925490 0.305882 0.098039
0.988235 0.341176 0.000000
1.000000 0.356863 0.000000
0.007843 0.203922 0.247059
0.062745 0.207843 0.239216
0.160784 0.223529 0.223529
0.325490 0.231373 0.223529
0.533333 0.266667 0.215686
0.784314 0.294118 0.176471
0.945098 0.325490 0.117647
0.996078 0.349020 0.000000
1.000000 0.380392 0.000000
0.058824 0.278431 0.274510
0.117647 0.282353 0.274510
0.176471 0.282353 0.262745
0.333333 0.294118 0.247059
0.537255 0.309804 0.231373
0.745098 0.309804 0.192157
0.937255 0.345098 0.137255
1.000000 0.364706 0.043137
0.996078 0.388235 0.003922
0.137255 0.396078 0.341176
0.172549 0.403922 0.333333
0.211765 0.396078 0.317647
0.392157 0.431373 0.298039
0.627451 0.435294 0.266667
0.807843 0.431373 0.235294
0.960784 0.423529 0.188235
0.992157 0.403922 0.125490
0.996078 0.407843 0.000000
0.250980 0.572549 0.423529
0.247059 0.564706 0.403922
0.305882 0.545098 0.384314
0.466667 0.572549 0.372549
0.713725 0.607843 0.337255
0.874510 0.572549 0.305882
0.988235 0.541176 0.258824
0.996078 0.517647 0.192157
0.996078 0.486275 0.078431
0.278431 0.643137 0.431373
0.325490 0.654902 0.450980
0.376471 0.643137 0.435294
0.494118 0.658824 0.411765
0.670588 0.690196 0.376471
0.870588 0.698039 0.349020
0.992157 0.654902 0.321569
1.000000 0.619608 0.270588
0.996078 0.584314 0.184314
0.513725 0.796078 0.537255
0.545098 0.800000 0.533333
0.576471 0.792157 0.537255
0.631373 0.800000 0.521569
0.749020 0.815686 0.509804
0.890196 0.823529 0.470588
0.996078 0.800000 0.427451
1.000000 0.745098 0.384314
0.992157 0.701961 0.321569
0.694118 0.886275 0.658824
0.701961 0.890196 0.647059
0.713725 0.886275 0.647059
0.745098 0.886275 0.643137
0.815686 0.901961 0.619608
0.901961 0.921569 0.600000
1.000000 0.925490 0.560784
0.996078 0.858824 0.498039
1.000000 0.796078 0.419608
0.000000 0.239216 0.368627
0.007843 0.223529 0.372549
0.078431 0.200000 0.372549
0.360784 0.219608 0.376471
0.588235 0.250980 0.364706
0.756863 0.329412 0.309804
0.941176 0.345098 0.270588
1.000000 0.372549 0.231373
1.000000 0.388235 0.149020
0.000000 0.243137 0.341176
0.011765 0.235294 0.349020
0.074510 0.215686 0.349020
0.333333 0.235294 0.360784
0.545098 0.250980 0.341176
0.709804 0.313725 0.298039
0.905882 0.341176 0.266667
0.992157 0.368627 0.215686
1.000000 0.372549 0.129412
0.000000 0.286275 0.349020
0.000000 0.274510 0.352941
0.094118 0.278431 0.349020
0.345098 0.298039 0.384314
0.521569 0.329412 0.352941
0.741176 0.352941 0.329412
0.925490 0.376471 0.294118
1.000000 0.392157 0.250980
1.000000 0.396078 0.160784
0.000000 0.333333 0.368627
0.003922 0.333333 0.372549
0.160784 0.337255 0.364706
0.298039 0.337255 0.345098
0.498039 0.333333 0.337255
0.709804 0.364706 0.325490
0.901961 0.384314 0.298039
1.000000 0.396078 0.262745
0.996078 0.407843 0.168627
0.047059 0.447059 0.431373
0.160784 0.462745 0.439216
0.278431 0.462745 0.431373
0.349020 0.443137 0.392157
0.584314 0.454902 0.380392
0.780392 0.450980 0.349020
0.937255 0.427451 0.325490
1.000000 0.439216 0.282353
1.000000 0.439216 0.215686
0.356863 0.615686 0.509804
0.380392 0.607843 0.509804
0.435294 0.592157 0.498039
0.431373 0.576471 0.447059
0.654902 0.603922 0.427451
0.839216 0.584314 0.419608
0.964706 0.564706 0.376471
1.000000 0.537255 0.349020
1.000000 0.498039 0.274510
0.454902 0.678431 0.549020
0.498039 0.682353 0.541176
0.462745 0.678431 0.513725
0.482353 0.666667 0.494118
0.635294 0.694118 0.470588
0.843137 0.705882 0.439216
0.968627 0.674510 0.419608
1.000000 0.643137 0.396078
1.000000 0.600000 0.337255
0.615686 0.800000 0.619608
0.635294 0.803922 0.623529
0.635294 0.807843 0.607843
0.643137 0.800000 0.592157
0.733333 0.811765 0.572549
0.854902 0.827451 0.545098
0.992157 0.815686 0.505882
0.992157 0.764706 0.478431
1.000000 0.721569 0.435294
0.741176 0.890196 0.698039
0.741176 0.890196 0.698039
0.749020 0.894118 0.682353
0.756863 0.890196 0.690196
0.803922 0.898039 0.670588
0.894118 0.913725 0.647059
1.000000 0.925490 0.623529
1.000000 0.874510 0.572549
1.000000 0.827451 0.517647
0.003922 0.345098 0.513725
0.000000 0.329412 0.509804
0.000000 0.301961 0.513725
0.325490 0.282353 0.556863
0.658824 0.329412 0.564706
0.839216 0.400000 0.556863
0.921569 0.411765 0.450980
1.000000 0.470588 0.423529
0.996078 0.482353 0.403922
0.007843 0.337255 0.478431
0.000000 0.337255 0.482353
0.000000 0.317647 0.501961
0.298039 0.301961 0.525490
0.603922 0.329412 0.533333
0.788235 0.380392 0.517647
0.874510 0.419608 0.431373
1.000000 0.458824 0.419608
0.992157 0.474510 0.396078
0.007843 0.380392 0.505882
0.003922 0.384314 0.498039
0.003922 0.368627 0.498039
0.298039 0.368627 0.525490
0.611765 0.400000 0.549020
0.772549 0.427451 0.490196
0.878431 0.474510 0.454902
1.000000 0.486275 0.435294
1.000000 0.494118 0.415686
0.003922 0.415686 0.498039
0.003922 0.419608 0.501961
0.007843 0.403922 0.474510
0.262745 0.400000 0.474510
0.521569 0.423529 0.498039
0.682353 0.450980 0.466667
0.862745 0.478431 0.443137
1.000000 0.486275 0.423529
1.000000 0.478431 0.372549
0.000000 0.505882 0.517647
0.007843 0.513725 0.533333
0.219608 0.509804 0.513725
0.376471 0.498039 0.509804
0.529412 0.490196 0.486275
0.717647 0.494118 0.466667
0.890196 0.505882 0.454902
1.000000 0.521569 0.431373
1.000000 0.521569 0.400000
0.329412 0.650980 0.592157
0.368627 0.643137 0.592157
0.439216 0.643137 0.584314
0.533333 0.627451 0.572549
0.576471 0.607843 0.525490
0.788235 0.615686 0.517647
0.929412 0.592157 0.494118
1.000000 0.568627 0.470588
0.996078 0.564706 0.427451
0.470588 0.729412 0.623529
0.517647 0.729412 0.627451
0.556863 0.725490 0.619608
0.607843 0.701961 0.600000
0.607843 0.682353 0.556863
0.784314 0.713725 0.525490
0.945098 0.690196 0.525490
1.000000 0.670588 0.498039
1.000000 0.643137 0.470588
0.662745 0.823529 0.698039
0.694118 0.831373 0.698039
0.721569 0.827451 0.698039
0.721569 0.819608 0.662745
0.709804 0.800000 0.627451
0.823529 0.823529 0.619608
0.964706 0.831373 0.592157
1.000000 0.796078 0.572549
0.996078 0.764706 0.545098
0.800000 0.901961 0.764706
0.823529 0.905882 0.784314
0.811765 0.894118 0.764706
0.800000 0.905882 0.737255
0.800000 0.890196 0.709804
0.874510 0.909804 0.701961
0.992157 0.929412 0.690196
1.000000 0.901961 0.643137
0.996078 0.854902 0.619608
0.007843 0.439216 0.631373
0.000000 0.439216 0.627451
0.000000 0.419608 0.654902
0.039216 0.380392 0.650980
0.588235 0.407843 0.690196
0.843137 0.470588 0.690196
0.937255 0.549020 0.662745
1.000000 0.564706 0.600000
1.000000 0.643137 0.592157
0.000000 0.435294 0.611765
0.000000 0.431373 0.603922
0.003922 0.407843 0.600000
0.074510 0.396078 0.631373
0.545098 0.411765 0.658824
0.819608 0.474510 0.670588
0.921569 0.552941 0.654902
0.996078 0.552941 0.584314
0.988235 0.639216 0.584314
0.000000 0.466667 0.600000
0.000000 0.462745 0.600000
0.000000 0.454902 0.615686
0.176471 0.443137 0.627451
0.552941 0.458824 0.654902
0.800000 0.517647 0.662745
0.921569 0.592157 0.654902
0.996078 0.600000 0.600000
0.996078 0.647059 0.600000
0.003922 0.498039 0.596078
0.000000 0.498039 0.611765
0.000000 0.494118 0.592157
0.164706 0.482353 0.596078
0.509804 0.490196 0.619608
0.772549 0.537255 0.639216
0.886275 0.588235 0.627451
0.972549 0.607843 0.588235
1.000000 0.635294 0.576471
0.000000 0.552941 0.619608
0.000000 0.564706 0.615686
0.000000 0.564706 0.607843
0.290196 0.549020 0.603922
0.482353 0.545098 0.596078
0.729412 0.584314 0.623529
0.862745 0.611765 0.603922
0.988235 0.643137 0.596078
1.000000 0.647059 0.564706
0.231373 0.666667 0.670588
0.278431 0.662745 0.666667
0.376471 0.658824 0.650980
0.474510 0.650980 0.639216
0.588235 0.635294 0.627451
0.698039 0.615686 0.596078
0.882353 0.631373 0.596078
0.992157 0.658824 0.588235
1.000000 0.658824 0.572549
0.400000 0.713725 0.662745
0.435294 0.725490 0.674510
0.486275 0.737255 0.670588
0.588235 0.729412 0.674510
0.678431 0.729412 0.650980
0.725490 0.701961 0.615686
0.898039 0.717647 0.615686
0.996078 0.705882 0.600000
1.000000 0.690196 0.592157
0.650980 0.854902 0.756863
0.682353 0.847059 0.768627
0.701961 0.850980 0.752941
0.733333 0.847059 0.737255
0.776471 0.823529 0.729412
0.776471 0.796078 0.670588
0.921569 0.839216 0.670588
1.000000 0.823529 0.670588
1.000000 0.800000 0.654902
0.772549 0.925490 0.811765
0.788235 0.921569 0.815686
0.800000 0.917647 0.815686
0.827451 0.917647 0.807843
0.850980 0.909804 0.788235
0.850980 0.894118 0.760784
0.941176 0.933333 0.745098
1.000000 0.917647 0.725490
1.000000 0.890196 0.705882
0.003922 0.537255 0.772549
0.003922 0.529412 0.760784
0.003922 0.517647 0.768627
0.003922 0.517647 0.776471
0.486275 0.513725 0.788235
0.792157 0.584314 0.803922
0.956863 0.650980 0.807843
0.996078 0.701961 0.780392
0.992157 0.745098 0.776471
0.007843 0.525490 0.745098
0.007843 0.529412 0.737255
0.007843 0.517647 0.752941
0.000000 0.513725 0.756863
0.478431 0.505882 0.772549
0.788235 0.592157 0.792157
0.949020 0.650980 0.800000
0.988235 0.701961 0.768627
1.000000 0.749020 0.764706
0.003922 0.549020 0.733333
0.007843 0.552941 0.737255
0.007843 0.549020 0.729412
0.000000 0.556863 0.745098
0.505882 0.549020 0.760784
0.780392 0.611765 0.780392
0.945098 0.674510 0.796078
0.996078 0.737255 0.784314
1.000000 0.760784 0.764706
0.007843 0.588235 0.729412
0.003922 0.584314 0.733333
0.000000 0.584314 0.733333
0.003922 0.584314 0.717647
0.513725 0.588235 0.745098
0.768627 0.635294 0.768627
0.917647 0.690196 0.776471
0.984314 0.741176 0.784314
1.000000 0.752941 0.749020
0.003922 0.627451 0.745098
0.000000 0.643137 0.737255
0.007843 0.635294 0.737255
0.223529 0.631373 0.721569
0.486275 0.627451 0.721569
0.733333 0.666667 0.741176
0.905882 0.717647 0.772549
0.968627 0.772549 0.784314
1.000000 0.780392 0.752941
0.101961 0.709804 0.764706
0.188235 0.709804 0.768627
0.305882 0.705882 0.752941
0.427451 0.701961 0.741176
0.552941 0.686275 0.721569
0.694118 0.682353 0.717647
0.890196 0.737255 0.749020
0.960784 0.764706 0.737255
1.000000 0.784314 0.737255
0.388235 0.764706 0.760784
0.419608 0.752941 0.764706
0.470588 0.749020 0.749020
0.564706 0.752941 0.752941
0.654902 0.752941 0.741176
0.745098 0.749020 0.729412
0.835294 0.741176 0.701961
0.968627 0.760784 0.705882
1.000000 0.784314 0.713725
0.576471 0.850980 0.800000
0.600000 0.847059 0.811765
0.639216 0.843137 0.796078
0.690196 0.847059 0.803922
0.768627 0.847059 0.803922
0.843137 0.843137 0.796078
0.847059 0.815686 0.737255
0.988235 0.847059 0.752941
1.000000 0.843137 0.745098
0.756863 0.945098 0.882353
0.772549 0.937255 0.882353
0.780392 0.949020 0.882353
0.835294 0.937255 0.886275
0.850980 0.933333 0.866667
0.890196 0.925490 0.850980
0.901961 0.921569 0.803922
0.996078 0.945098 0.811765
0.996078 0.929412 0.819608
0.003922 0.611765 0.870588
0.003922 0.603922 0.866667
0.000000 0.603922 0.870588
0.098039 0.623529 0.862745
0.568627 0.650980 0.874510
0.776471 0.682353 0.878431
0.925490 0.752941 0.898039
0.996078 0.800000 0.898039
0.996078 0.827451 0.894118
0.000000 0.607843 0.866667
0.000000 0.607843 0.858824
0.000000 0.615686 0.862745
0.101961 0.627451 0.858824
0.576471 0.658824 0.866667
0.764706 0.690196 0.878431
0.917647 0.756863 0.890196
1.000000 0.803922 0.901961
1.000000 0.831373 0.882353
0.000000 0.639216 0.854902
0.000000 0.647059 0.858824
0.000000 0.635294 0.854902
0.188235 0.643137 0.866667
0.588235 0.670588 0.854902
0.772549 0.713725 0.874510
0.913725 0.772549 0.890196
0.996078 0.819608 0.898039
1.000000 0.847059 0.882353
0.000000 0.658824 0.835294
0.003922 0.650980 0.858824
0.000000 0.658824 0.835294
0.145098 0.662745 0.843137
0.560784 0.686275 0.847059
0.752941 0.713725 0.850980
0.917647 0.776471 0.894118
0.992157 0.815686 0.894118
1.000000 0.847059 0.882353
0.000000 0.698039 0.858824
0.003922 0.698039 0.858824
0.011765 0.698039 0.850980
0.200000 0.701961 0.847059
0.517647 0.709804 0.839216
0.756863 0.745098 0.858824
0.909804 0.796078 0.882353
0.984314 0.843137 0.890196
0.992157 0.870588 0.890196
0.003922 0.752941 0.854902
0.007843 0.749020 0.862745
0.235294 0.756863 0.854902
0.396078 0.756863 0.847059
0.541176 0.760784 0.850980
0.713725 0.764706 0.839216
0.878431 0.807843 0.862745
0.984314 0.862745 0.894118
1.000000 0.886275 0.894118
0.349020 0.800000 0.870588
0.403922 0.807843 0.862745
0.466667 0.803922 0.862745
0.549020 0.807843 0.862745
0.639216 0.811765 0.854902
0.733333 0.807843 0.835294
0.831373 0.803922 0.831373
0.964706 0.870588 0.878431
1.000000 0.890196 0.874510
0.588235 0.866667 0.882353
0.596078 0.858824 0.890196
0.627451 0.862745 0.870588
0.674510 0.870588 0.874510
0.745098 0.862745 0.854902
0.796078 0.870588 0.862745
0.870588 0.866667 0.850980
0.941176 0.862745 0.835294
1.000000 0.894118 0.850980
0.709804 0.929412 0.917647
0.717647 0.941176 0.917647
0.741176 0.941176 0.921569
0.780392 0.933333 0.913725
0.819608 0.941176 0.917647
0.874510 0.949020 0.933333
0.925490 0.952941 0.921569
0.968627 0.952941 0.905882
1.000000 0.964706 0.905882
0.003922 0.686275 0.960784
0.000000 0.694118 0.960784
0.000000 0.701961 0.949020
0.427451 0.725490 0.952941
0.682353 0.764706 0.941176
0.823529 0.788235 0.956863
0.917647 0.823529 0.956863
0.984314 0.874510 0.964706
1.000000 0.917647 0.984314
0.000000 0.686275 0.964706
0.000000 0.690196 0.952941
0.000000 0.709804 0.968627
0.419608 0.733333 0.941176
0.682353 0.764706 0.949020
0.819608 0.792157 0.952941
0.909804 0.827451 0.964706
0.988235 0.874510 0.960784
1.000000 0.909804 0.980392
0.000000 0.705882 0.945098
0.003922 0.709804 0.949020
0.000000 0.717647 0.945098
0.427451 0.741176 0.949020
0.678431 0.772549 0.945098
0.827451 0.811765 0.949020
0.913725 0.839216 0.956863
0.980392 0.882353 0.968627
1.000000 0.913725 0.984314
0.007843 0.717647 0.956863
0.007843 0.721569 0.945098
0.003922 0.737255 0.945098
0.352941 0.749020 0.952941
0.650980 0.772549 0.945098
0.811765 0.815686 0.937255
0.905882 0.843137 0.952941
0.976471 0.882353 0.968627
1.000000 0.921569 0.968627
0.000000 0.745098 0.956863
0.000000 0.741176 0.952941
0.011765 0.752941 0.937255
0.262745 0.772549 0.952941
0.588235 0.792157 0.937255
0.792157 0.827451 0.949020
0.905882 0.850980 0.956863
0.968627 0.901961 0.964706
0.984314 0.933333 0.968627
0.003922 0.788235 0.960784
0.007843 0.792157 0.964706
0.003922 0.788235 0.960784
0.254902 0.796078 0.968627
0.513725 0.803922 0.949020
0.733333 0.831373 0.949020
0.886275 0.866667 0.952941
0.976471 0.909804 0.972549
0.992157 0.956863 0.968627
0.176471 0.839216 0.952941
0.258824 0.843137 0.968627
0.372549 0.839216 0.964706
0.478431 0.843137 0.964706
0.596078 0.850980 0.960784
0.705882 0.854902 0.945098
0.843137 0.874510 0.952941
0.964706 0.917647 0.964706
1.000000 0.956863 0.980392
0.517647 0.890196 0.968627
0.537255 0.894118 0.968627
0.572549 0.894118 0.976471
0.643137 0.898039 0.968627
0.709804 0.909804 0.984314
0.780392 0.913725 0.960784
0.854902 0.921569 0.952941
0.929412 0.925490 0.956863
0.996078 0.972549 0.980392
0.678431 0.952941 0.980392
0.698039 0.949020 0.984314
0.725490 0.956863 0.988235
0.764706 0.949020 0.980392
0.803922 0.964706 0.980392
0.858824 0.968627 0.984314
0.917647 0.972549 0.976471
0.968627 0.984314 0.996078
1.000000 1.000000 1.000000
