.config/mpv/luts/FGCineBright.cube
#Generated with IWLTBAP LUT Generator
#Website: http://luts.iwltbap.com
TITLE "FGCineBright"
#LUT size
LUT_3D_SIZE 25
#LUT data points
0.074510 0.113725 0.117647
0.074510 0.113725 0.117647
0.082353 0.117647 0.113725
0.098039 0.117647 0.101961
0.141176 0.129412 0.109804
0.196078 0.125490 0.125490
0.258824 0.125490 0.117647
0.313725 0.141176 0.098039
0.419608 0.149020 0.098039
0.537255 0.164706 0.094118
0.643137 0.184314 0.078431
0.717647 0.203922 0.062745
0.780392 0.211765 0.050980
0.839216 0.235294 0.062745
0.886275 0.243137 0.074510
0.929412 0.254902 0.074510
0.968627 0.278431 0.094118
1.000000 0.286275 0.101961
1.000000 0.301961 0.129412
1.000000 0.317647 0.164706
0.996078 0.341176 0.176471
0.996078 0.364706 0.223529
1.000000 0.388235 0.250980
0.996078 0.423529 0.294118
1.000000 0.447059 0.337255
0.062745 0.121569 0.109804
0.066667 0.125490 0.113725
0.082353 0.117647 0.105882
0.121569 0.129412 0.125490
0.164706 0.125490 0.117647
0.203922 0.133333 0.117647
0.258824 0.141176 0.109804
0.333333 0.152941 0.101961
0.427451 0.164706 0.098039
0.545098 0.184314 0.094118
0.647059 0.203922 0.078431
0.725490 0.219608 0.062745
0.792157 0.223529 0.062745
0.843137 0.239216 0.058824
0.890196 0.254902 0.074510
0.929412 0.274510 0.078431
0.972549 0.282353 0.098039
0.992157 0.294118 0.121569
0.992157 0.309804 0.133333
0.996078 0.329412 0.156863
1.000000 0.349020 0.184314
0.996078 0.364706 0.215686
0.996078 0.396078 0.243137
0.992157 0.427451 0.294118
1.000000 0.454902 0.341176
0.066667 0.125490 0.113725
0.070588 0.117647 0.101961
0.101961 0.125490 0.117647
0.121569 0.129412 0.109804
0.152941 0.141176 0.113725
0.207843 0.141176 0.113725
0.262745 0.152941 0.098039
0.345098 0.168627 0.094118
0.439216 0.188235 0.090196
0.556863 0.200000 0.086275
0.662745 0.215686 0.074510
0.737255 0.239216 0.062745
0.796078 0.250980 0.050980
0.850980 0.258824 0.058824
0.898039 0.266667 0.054902
0.921569 0.282353 0.082353
0.968627 0.290196 0.094118
1.000000 0.305882 0.101961
0.996078 0.325490 0.125490
0.996078 0.337255 0.164706
1.000000 0.356863 0.188235
0.996078 0.380392 0.223529
0.992157 0.403922 0.266667
1.000000 0.431373 0.301961
0.996078 0.462745 0.345098
0.054902 0.137255 0.109804
0.054902 0.137255 0.117647
0.078431 0.141176 0.101961
0.113725 0.152941 0.109804
0.164706 0.149020 0.105882
0.211765 0.168627 0.094118
0.290196 0.168627 0.090196
0.352941 0.196078 0.098039
0.462745 0.207843 0.090196
0.564706 0.239216 0.074510
0.670588 0.254902 0.066667
0.745098 0.266667 0.043137
0.796078 0.278431 0.047059
0.854902 0.282353 0.043137
0.898039 0.294118 0.058824
0.929412 0.298039 0.078431
0.968627 0.309804 0.086275
1.000000 0.325490 0.105882
1.000000 0.337255 0.137255
1.000000 0.352941 0.156863
0.996078 0.368627 0.188235
0.996078 0.388235 0.231373
1.000000 0.415686 0.266667
1.000000 0.439216 0.305882
0.996078 0.478431 0.349020
0.035294 0.152941 0.121569
0.043137 0.160784 0.113725
0.070588 0.152941 0.117647
0.101961 0.168627 0.098039
0.152941 0.168627 0.101961
0.227451 0.184314 0.109804
0.290196 0.196078 0.086275
0.388235 0.223529 0.082353
0.490196 0.243137 0.074510
0.588235 0.278431 0.054902
0.686275 0.290196 0.047059
0.760784 0.294118 0.027451
0.803922 0.313725 0.031373
0.862745 0.313725 0.050980
0.905882 0.317647 0.050980
0.937255 0.329412 0.078431
0.980392 0.337255 0.090196
0.996078 0.345098 0.109804
0.996078 0.360784 0.141176
0.996078 0.372549 0.176471
1.000000 0.388235 0.207843
0.996078 0.407843 0.231373
0.996078 0.427451 0.266667
1.000000 0.458824 0.317647
0.996078 0.486275 0.352941
0.031373 0.180392 0.129412
0.031373 0.180392 0.129412
0.050980 0.172549 0.141176
0.086275 0.180392 0.125490
0.149020 0.196078 0.101961
0.211765 0.207843 0.086275
0.290196 0.239216 0.066667
0.396078 0.266667 0.066667
0.509804 0.298039 0.062745
0.627451 0.325490 0.027451
0.709804 0.329412 0.019608
0.760784 0.337255 0.023529
0.819608 0.341176 0.015686
0.870588 0.345098 0.027451
0.909804 0.349020 0.050980
0.945098 0.356863 0.078431
0.984314 0.360784 0.101961
1.000000 0.372549 0.129412
1.000000 0.384314 0.145098
1.000000 0.392157 0.172549
0.996078 0.411765 0.211765
0.996078 0.431373 0.254902
1.000000 0.450980 0.290196
1.000000 0.470588 0.321569
1.000000 0.498039 0.364706
0.019608 0.203922 0.141176
0.023529 0.196078 0.137255
0.035294 0.207843 0.141176
0.054902 0.200000 0.129412
0.105882 0.223529 0.113725
0.196078 0.243137 0.101961
0.290196 0.266667 0.062745
0.403922 0.309804 0.035294
0.517647 0.337255 0.000000
0.639216 0.364706 0.000000
0.729412 0.372549 0.015686
0.792157 0.376471 0.000000
0.823529 0.384314 0.000000
0.858824 0.388235 0.011765
0.917647 0.380392 0.035294
0.952941 0.388235 0.078431
0.992157 0.392157 0.094118
1.000000 0.400000 0.117647
1.000000 0.407843 0.152941
0.996078 0.419608 0.180392
0.996078 0.439216 0.211765
0.996078 0.450980 0.250980
1.000000 0.474510 0.298039
1.000000 0.494118 0.337255
1.000000 0.521569 0.380392
0.000000 0.231373 0.168627
0.000000 0.239216 0.156863
0.000000 0.239216 0.149020
0.027451 0.239216 0.137255
0.086275 0.247059 0.129412
0.172549 0.270588 0.113725
0.266667 0.301961 0.086275
0.396078 0.333333 0.027451
0.529412 0.392157 0.000000
0.639216 0.415686 0.003922
0.713725 0.423529 0.000000
0.784314 0.423529 0.000000
0.831373 0.423529 0.000000
0.886275 0.423529 0.007843
0.913725 0.431373 0.035294
0.960784 0.431373 0.082353
0.996078 0.431373 0.113725
1.000000 0.435294 0.149020
1.000000 0.443137 0.164706
1.000000 0.454902 0.200000
1.000000 0.462745 0.250980
1.000000 0.486275 0.266667
1.000000 0.498039 0.313725
1.000000 0.517647 0.352941
0.996078 0.549020 0.403922
0.000000 0.282353 0.176471
0.000000 0.282353 0.176471
0.003922 0.278431 0.164706
0.000000 0.278431 0.152941
0.007843 0.286275 0.160784
0.121569 0.301961 0.149020
0.231373 0.341176 0.109804
0.368627 0.376471 0.047059
0.509804 0.423529 0.000000
0.635294 0.462745 0.000000
0.709804 0.466667 0.000000
0.788235 0.462745 0.007843
0.847059 0.458824 0.000000
0.894118 0.466667 0.003922
0.933333 0.462745 0.054902
0.976471 0.466667 0.090196
0.996078 0.462745 0.125490
0.996078 0.466667 0.168627
0.988235 0.482353 0.188235
0.996078 0.486275 0.211765
0.996078 0.494118 0.266667
0.996078 0.517647 0.294118
1.000000 0.529412 0.325490
1.000000 0.552941 0.376471
0.996078 0.576471 0.419608
0.007843 0.337255 0.196078
0.000000 0.333333 0.180392
0.000000 0.329412 0.184314
0.000000 0.333333 0.168627
0.000000 0.337255 0.168627
0.047059 0.345098 0.156863
0.188235 0.380392 0.125490
0.325490 0.427451 0.078431
0.486275 0.466667 0.003922
0.615686 0.501961 0.000000
0.701961 0.517647 0.007843
0.768627 0.517647 0.003922
0.839216 0.505882 0.000000
0.878431 0.509804 0.000000
0.929412 0.501961 0.003922
0.976471 0.505882 0.094118
1.000000 0.498039 0.133333
1.000000 0.501961 0.176471
0.996078 0.513725 0.207843
0.996078 0.525490 0.247059
1.000000 0.541176 0.278431
0.996078 0.549020 0.313725
1.000000 0.564706 0.356863
1.000000 0.584314 0.388235
1.000000 0.600000 0.431373
0.000000 0.396078 0.223529
0.003922 0.392157 0.211765
0.000000 0.396078 0.207843
0.000000 0.392157 0.196078
0.000000 0.392157 0.188235
0.007843 0.396078 0.176471
0.121569 0.423529 0.141176
0.286275 0.466667 0.113725
0.443137 0.505882 0.015686
0.584314 0.537255 0.000000
0.698039 0.545098 0.000000
0.768627 0.552941 0.000000
0.831373 0.552941 0.003922
0.874510 0.549020 0.007843
0.925490 0.545098 0.003922
0.972549 0.545098 0.050980
0.996078 0.545098 0.149020
1.000000 0.545098 0.180392
0.996078 0.556863 0.235294
1.000000 0.560784 0.262745
1.000000 0.564706 0.305882
1.000000 0.580392 0.337255
1.000000 0.600000 0.372549
0.996078 0.623529 0.411765
0.992157 0.631373 0.454902
0.000000 0.462745 0.258824
0.000000 0.466667 0.239216
0.007843 0.450980 0.231373
0.000000 0.462745 0.219608
0.007843 0.462745 0.207843
0.000000 0.458824 0.207843
0.000000 0.466667 0.188235
0.219608 0.505882 0.149020
0.388235 0.541176 0.090196
0.529412 0.576471 0.000000
0.650980 0.600000 0.000000
0.752941 0.588235 0.007843
0.827451 0.588235 0.000000
0.878431 0.588235 0.003922
0.917647 0.580392 0.003922
0.972549 0.580392 0.000000
1.000000 0.580392 0.101961
0.992157 0.584314 0.196078
0.996078 0.600000 0.254902
1.000000 0.607843 0.301961
1.000000 0.611765 0.345098
1.000000 0.619608 0.380392
1.000000 0.623529 0.407843
1.000000 0.650980 0.439216
1.000000 0.647059 0.470588
0.000000 0.529412 0.278431
0.000000 0.529412 0.270588
0.000000 0.521569 0.274510
0.007843 0.525490 0.258824
0.000000 0.521569 0.223529
0.003922 0.521569 0.223529
0.000000 0.525490 0.203922
0.105882 0.549020 0.196078
0.325490 0.572549 0.152941
0.474510 0.603922 0.090196
0.600000 0.623529 0.000000
0.705882 0.635294 0.007843
0.811765 0.623529 0.003922
0.870588 0.627451 0.000000
0.913725 0.615686 0.003922
0.968627 0.615686 0.000000
0.992157 0.615686 0.003922
0.996078 0.619608 0.156863
1.000000 0.631373 0.254902
1.000000 0.643137 0.325490
1.000000 0.654902 0.376471
1.000000 0.658824 0.400000
1.000000 0.666667 0.427451
0.992157 0.682353 0.458824
0.996078 0.682353 0.490196
0.003922 0.576471 0.313725
0.003922 0.584314 0.309804
0.007843 0.580392 0.325490
0.003922 0.580392 0.305882
0.003922 0.576471 0.274510
0.000000 0.580392 0.262745
0.000000 0.576471 0.262745
0.000000 0.572549 0.254902
0.235294 0.603922 0.215686
0.403922 0.631373 0.188235
0.545098 0.647059 0.125490
0.650980 0.666667 0.000000
0.756863 0.666667 0.007843
0.843137 0.662745 0.000000
0.901961 0.654902 0.007843
0.956863 0.647059 0.000000
1.000000 0.654902 0.000000
1.000000 0.654902 0.105882
1.000000 0.662745 0.227451
1.000000 0.670588 0.305882
0.996078 0.690196 0.376471
0.996078 0.705882 0.435294
1.000000 0.701961 0.458824
1.000000 0.705882 0.482353
1.000000 0.713725 0.517647
0.000000 0.627451 0.352941
0.003922 0.623529 0.360784
0.000000 0.623529 0.364706
0.007843 0.623529 0.352941
0.000000 0.623529 0.333333
0.000000 0.623529 0.301961
0.007843 0.611765 0.298039
0.000000 0.619608 0.286275
0.168627 0.619608 0.286275
0.349020 0.647059 0.254902
0.478431 0.670588 0.219608
0.603922 0.690196 0.164706
0.713725 0.709804 0.043137
0.800000 0.701961 0.000000
0.898039 0.698039 0.011765
0.956863 0.698039 0.000000
0.992157 0.698039 0.003922
0.996078 0.694118 0.011765
1.000000 0.690196 0.184314
1.000000 0.701961 0.278431
1.000000 0.717647 0.356863
1.000000 0.729412 0.435294
1.000000 0.737255 0.490196
1.000000 0.741176 0.513725
0.996078 0.737255 0.533333
0.007843 0.650980 0.403922
0.000000 0.662745 0.407843
0.007843 0.658824 0.407843
0.007843 0.658824 0.400000
0.003922 0.650980 0.380392
0.000000 0.654902 0.372549
0.007843 0.658824 0.360784
0.094118 0.658824 0.356863
0.160784 0.658824 0.337255
0.298039 0.674510 0.313725
0.435294 0.694118 0.301961
0.545098 0.709804 0.270588
0.662745 0.729412 0.219608
0.776471 0.745098 0.117647
0.858824 0.737255 0.000000
0.949020 0.729412 0.003922
1.000000 0.733333 0.000000
1.000000 0.733333 0.000000
0.996078 0.733333 0.145098
0.996078 0.741176 0.254902
1.000000 0.752941 0.356863
1.000000 0.756863 0.431373
1.000000 0.756863 0.486275
0.996078 0.760784 0.533333
1.000000 0.764706 0.560784
0.125490 0.690196 0.447059
0.180392 0.686275 0.462745
0.192157 0.694118 0.462745
0.235294 0.686275 0.462745
0.235294 0.686275 0.454902
0.203922 0.694118 0.427451
0.231373 0.686275 0.423529
0.235294 0.694118 0.415686
0.262745 0.694118 0.415686
0.305882 0.690196 0.388235
0.403922 0.709804 0.372549
0.517647 0.729412 0.352941
0.607843 0.756863 0.329412
0.713725 0.772549 0.274510
0.823529 0.780392 0.188235
0.905882 0.780392 0.000000
0.992157 0.772549 0.003922
1.000000 0.772549 0.000000
0.992157 0.776471 0.078431
1.000000 0.760784 0.223529
1.000000 0.776471 0.337255
0.996078 0.788235 0.411765
1.000000 0.780392 0.486275
1.000000 0.784314 0.521569
1.000000 0.780392 0.580392
0.286275 0.713725 0.490196
0.298039 0.729412 0.513725
0.317647 0.729412 0.509804
0.333333 0.717647 0.509804
0.352941 0.721569 0.509804
0.329412 0.717647 0.494118
0.333333 0.725490 0.482353
0.333333 0.717647 0.470588
0.356863 0.717647 0.462745
0.368627 0.717647 0.466667
0.423529 0.729412 0.435294
0.505882 0.749020 0.447059
0.596078 0.772549 0.415686
0.674510 0.784314 0.380392
0.776471 0.807843 0.329412
0.870588 0.827451 0.235294
0.968627 0.823529 0.078431
0.996078 0.807843 0.000000
0.992157 0.807843 0.007843
1.000000 0.800000 0.200000
1.000000 0.811765 0.317647
0.996078 0.811765 0.403922
0.992157 0.803922 0.482353
1.000000 0.796078 0.521569
0.992157 0.800000 0.568627
0.364706 0.756863 0.545098
0.372549 0.752941 0.537255
0.388235 0.752941 0.537255
0.403922 0.756863 0.556863
0.411765 0.752941 0.545098
0.411765 0.752941 0.537255
0.400000 0.756863 0.525490
0.407843 0.752941 0.513725
0.419608 0.756863 0.517647
0.435294 0.749020 0.501961
0.427451 0.760784 0.494118
0.498039 0.772549 0.490196
0.580392 0.788235 0.474510
0.658824 0.811765 0.454902
0.749020 0.831373 0.427451
0.831373 0.850980 0.396078
0.933333 0.870588 0.286275
1.000000 0.858824 0.152941
0.992157 0.850980 0.000000
1.000000 0.839216 0.184314
1.000000 0.839216 0.298039
0.988235 0.843137 0.396078
1.000000 0.827451 0.462745
1.000000 0.823529 0.521569
1.000000 0.823529 0.576471
0.423529 0.792157 0.588235
0.427451 0.792157 0.580392
0.427451 0.792157 0.580392
0.443137 0.792157 0.580392
0.458824 0.784314 0.596078
0.462745 0.792157 0.592157
0.458824 0.788235 0.576471
0.443137 0.800000 0.568627
0.474510 0.796078 0.545098
0.474510 0.796078 0.545098
0.478431 0.792157 0.545098
0.501961 0.796078 0.533333
0.564706 0.815686 0.517647
0.643137 0.835294 0.509804
0.717647 0.854902 0.494118
0.796078 0.878431 0.466667
0.890196 0.894118 0.423529
0.976471 0.909804 0.352941
1.000000 0.905882 0.207843
1.000000 0.886275 0.188235
1.000000 0.874510 0.309804
1.000000 0.870588 0.400000
1.000000 0.858824 0.474510
0.996078 0.847059 0.521569
0.996078 0.839216 0.564706
0.447059 0.831373 0.623529
0.454902 0.835294 0.615686
0.458824 0.831373 0.611765
0.474510 0.827451 0.619608
0.482353 0.831373 0.619608
0.505882 0.835294 0.623529
0.498039 0.827451 0.615686
0.490196 0.835294 0.600000
0.494118 0.827451 0.596078
0.513725 0.831373 0.592157
0.513725 0.835294 0.584314
0.517647 0.835294 0.572549
0.564706 0.843137 0.568627
0.631373 0.870588 0.564706
0.698039 0.886275 0.541176
0.772549 0.905882 0.525490
0.854902 0.925490 0.501961
0.941176 0.941176 0.454902
1.000000 0.956863 0.392157
1.000000 0.937255 0.278431
0.996078 0.921569 0.325490
0.992157 0.898039 0.411765
1.000000 0.882353 0.458824
1.000000 0.866667 0.517647
1.000000 0.854902 0.560784
0.474510 0.878431 0.654902
0.482353 0.874510 0.662745
0.494118 0.878431 0.647059
0.494118 0.882353 0.658824
0.509804 0.874510 0.658824
0.521569 0.870588 0.643137
0.525490 0.874510 0.647059
0.521569 0.878431 0.639216
0.521569 0.874510 0.623529
0.525490 0.878431 0.627451
0.541176 0.878431 0.623529
0.556863 0.874510 0.611765
0.576471 0.878431 0.611765
0.619608 0.898039 0.600000
0.686275 0.917647 0.588235
0.772549 0.929412 0.580392
0.831373 0.952941 0.545098
0.917647 0.968627 0.517647
1.000000 0.984314 0.490196
1.000000 0.996078 0.411765
0.996078 0.964706 0.388235
1.000000 0.917647 0.447059
1.000000 0.905882 0.482353
0.996078 0.890196 0.533333
0.996078 0.890196 0.580392
0.501961 0.925490 0.682353
0.501961 0.925490 0.690196
0.505882 0.937255 0.690196
0.521569 0.929412 0.690196
0.533333 0.929412 0.694118
0.541176 0.933333 0.682353
0.556863 0.933333 0.686275
0.568627 0.929412 0.682353
0.545098 0.933333 0.670588
0.552941 0.929412 0.670588
0.568627 0.933333 0.658824
0.576471 0.929412 0.647059
0.592157 0.929412 0.635294
0.623529 0.925490 0.643137
0.678431 0.949020 0.635294
0.752941 0.968627 0.611765
0.811765 0.984314 0.600000
0.886275 1.000000 0.584314
0.976471 0.996078 0.525490
1.000000 0.996078 0.513725
0.996078 1.000000 0.458824
1.000000 0.960784 0.486275
0.996078 0.929412 0.517647
0.992157 0.917647 0.556863
1.000000 0.898039 0.580392
0.509804 0.980392 0.733333
0.525490 0.980392 0.733333
0.525490 0.992157 0.733333
0.549020 0.980392 0.741176
0.549020 0.980392 0.725490
0.568627 0.984314 0.741176
0.580392 0.980392 0.733333
0.607843 0.984314 0.733333
0.584314 0.980392 0.713725
0.588235 0.984314 0.717647
0.584314 0.984314 0.694118
0.596078 0.992157 0.694118
0.627451 0.984314 0.682353
0.631373 0.976471 0.670588
0.678431 0.996078 0.678431
0.737255 0.992157 0.662745
0.815686 0.996078 0.643137
0.866667 1.000000 0.623529
0.929412 1.000000 0.592157
0.996078 1.000000 0.568627
0.996078 1.000000 0.533333
0.996078 0.988235 0.545098
1.000000 0.952941 0.576471
1.000000 0.929412 0.592157
1.000000 0.925490 0.623529
0.552941 0.996078 0.776471
0.549020 1.000000 0.768627
0.560784 1.000000 0.776471
0.580392 1.000000 0.780392
0.580392 1.000000 0.768627
0.607843 1.000000 0.788235
0.627451 0.996078 0.784314
0.650980 0.996078 0.792157
0.654902 1.000000 0.772549
0.643137 1.000000 0.760784
0.647059 1.000000 0.760784
0.654902 1.000000 0.752941
0.666667 0.996078 0.752941
0.674510 1.000000 0.725490
0.705882 1.000000 0.729412
0.760784 0.996078 0.721569
0.827451 0.996078 0.713725
0.858824 1.000000 0.682353
0.913725 1.000000 0.654902
0.972549 1.000000 0.635294
0.996078 1.000000 0.603922
0.996078 0.992157 0.631373
1.000000 0.964706 0.654902
1.000000 0.941176 0.666667
1.000000 0.941176 0.666667
0.074510 0.121569 0.121569
0.062745 0.125490 0.113725
0.086275 0.121569 0.109804
0.117647 0.125490 0.105882
0.145098 0.125490 0.101961
0.203922 0.137255 0.109804
0.258824 0.141176 0.109804
0.337255 0.149020 0.101961
0.435294 0.172549 0.105882
0.545098 0.192157 0.090196
0.654902 0.207843 0.074510
0.733333 0.219608 0.066667
0.796078 0.231373 0.054902
0.835294 0.250980 0.054902
0.886275 0.262745 0.066667
0.937255 0.262745 0.074510
0.972549 0.294118 0.098039
0.996078 0.294118 0.098039
1.000000 0.305882 0.133333
0.996078 0.329412 0.160784
1.000000 0.352941 0.188235
1.000000 0.368627 0.215686
1.000000 0.388235 0.258824
0.996078 0.427451 0.305882
1.000000 0.454902 0.333333
0.058824 0.117647 0.105882
0.078431 0.117647 0.113725
0.082353 0.129412 0.113725
0.117647 0.125490 0.113725
0.168627 0.133333 0.105882
0.211765 0.137255 0.109804
0.262745 0.152941 0.109804
0.352941 0.160784 0.101961
0.439216 0.180392 0.094118
0.560784 0.203922 0.090196
0.658824 0.219608 0.062745
0.733333 0.231373 0.054902
0.800000 0.254902 0.070588
0.850980 0.270588 0.058824
0.890196 0.274510 0.074510
0.921569 0.282353 0.082353
0.972549 0.298039 0.086275
0.988235 0.313725 0.101961
1.000000 0.325490 0.137255
1.000000 0.333333 0.160784
1.000000 0.352941 0.188235
1.000000 0.380392 0.227451
0.992157 0.407843 0.258824
0.992157 0.423529 0.301961
1.000000 0.458824 0.345098
0.062745 0.125490 0.121569
0.070588 0.137255 0.113725
0.101961 0.125490 0.117647
0.121569 0.141176 0.113725
0.160784 0.145098 0.109804
0.223529 0.149020 0.121569
0.274510 0.156863 0.109804
0.360784 0.176471 0.105882
0.454902 0.203922 0.094118
0.568627 0.223529 0.074510
0.666667 0.243137 0.070588
0.733333 0.258824 0.054902
0.803922 0.266667 0.054902
0.843137 0.274510 0.050980
0.898039 0.286275 0.058824
0.933333 0.298039 0.074510
0.972549 0.305882 0.082353
1.000000 0.321569 0.094118
1.000000 0.329412 0.129412
1.000000 0.349020 0.168627
0.992157 0.364706 0.184314
1.000000 0.384314 0.227451
1.000000 0.403922 0.262745
1.000000 0.435294 0.301961
1.000000 0.466667 0.333333
0.054902 0.141176 0.121569
0.058824 0.141176 0.113725
0.074510 0.152941 0.117647
0.125490 0.149020 0.109804
0.172549 0.164706 0.113725
0.231373 0.168627 0.101961
0.290196 0.184314 0.101961
0.372549 0.203922 0.086275
0.470588 0.223529 0.086275
0.588235 0.247059 0.070588
0.670588 0.270588 0.039216
0.749020 0.278431 0.050980
0.800000 0.286275 0.035294
0.843137 0.305882 0.054902
0.890196 0.305882 0.047059
0.929412 0.313725 0.066667
0.972549 0.321569 0.094118
1.000000 0.329412 0.117647
1.000000 0.337255 0.137255
1.000000 0.360784 0.168627
0.996078 0.380392 0.188235
0.996078 0.396078 0.231373
1.000000 0.419608 0.270588
1.000000 0.454902 0.309804
0.996078 0.478431 0.356863
0.054902 0.160784 0.133333
0.058824 0.160784 0.125490
0.074510 0.156863 0.121569
0.105882 0.168627 0.117647
0.164706 0.176471 0.094118
0.227451 0.184314 0.098039
0.301961 0.211765 0.090196
0.388235 0.239216 0.086275
0.498039 0.258824 0.078431
0.603922 0.290196 0.050980
0.690196 0.301961 0.039216
0.768627 0.305882 0.023529
0.807843 0.317647 0.027451
0.854902 0.325490 0.035294
0.898039 0.329412 0.043137
0.949020 0.345098 0.078431
0.984314 0.337255 0.086275
1.000000 0.349020 0.125490
0.996078 0.360784 0.137255
0.996078 0.376471 0.168627
0.996078 0.396078 0.203922
1.000000 0.415686 0.227451
1.000000 0.431373 0.270588
1.000000 0.458824 0.321569
0.996078 0.486275 0.352941
0.043137 0.184314 0.145098
0.050980 0.180392 0.137255
0.062745 0.180392 0.141176
0.086275 0.188235 0.137255
0.141176 0.200000 0.117647
0.215686 0.211765 0.101961
0.309804 0.239216 0.082353
0.400000 0.274510 0.074510
0.517647 0.305882 0.031373
0.631373 0.329412 0.031373
0.717647 0.333333 0.007843
0.772549 0.345098 0.000000
0.827451 0.345098 0.007843
0.870588 0.352941 0.031373
0.905882 0.364706 0.050980
0.945098 0.364706 0.074510
0.980392 0.368627 0.098039
1.000000 0.376471 0.117647
1.000000 0.388235 0.141176
1.000000 0.400000 0.188235
0.996078 0.411765 0.211765
0.996078 0.431373 0.247059
1.000000 0.458824 0.286275
0.992157 0.478431 0.325490
0.996078 0.513725 0.360784
0.031373 0.203922 0.152941
0.043137 0.207843 0.152941
0.050980 0.211765 0.156863
0.066667 0.200000 0.137255
0.125490 0.219608 0.133333
0.188235 0.239216 0.121569
0.294118 0.266667 0.086275
0.407843 0.313725 0.039216
0.525490 0.345098 0.007843
0.643137 0.376471 0.000000
0.721569 0.384314 0.003922
0.784314 0.384314 0.000000
0.827451 0.388235 0.000000
0.870588 0.392157 0.019608
0.921569 0.392157 0.035294
0.952941 0.396078 0.074510
1.000000 0.400000 0.105882
1.000000 0.403922 0.137255
0.992157 0.415686 0.164706
0.996078 0.423529 0.192157
0.992157 0.443137 0.219608
1.000000 0.462745 0.258824
1.000000 0.478431 0.294118
1.000000 0.498039 0.341176
1.000000 0.529412 0.376471
0.007843 0.235294 0.180392
0.007843 0.239216 0.168627
0.000000 0.243137 0.160784
0.031373 0.243137 0.149020
0.082353 0.258824 0.145098
0.172549 0.274510 0.121569
0.262745 0.301961 0.098039
0.400000 0.337255 0.035294
0.529412 0.400000 0.000000
0.643137 0.419608 0.000000
0.725490 0.427451 0.000000
0.800000 0.423529 0.000000
0.843137 0.427451 0.000000
0.886275 0.427451 0.011765
0.925490 0.423529 0.050980
0.960784 0.431373 0.082353
0.996078 0.431373 0.113725
1.000000 0.435294 0.141176
0.992157 0.443137 0.164706
0.996078 0.462745 0.188235
1.000000 0.466667 0.239216
1.000000 0.486275 0.274510
0.996078 0.501961 0.313725
1.000000 0.521569 0.345098
1.000000 0.552941 0.400000
0.003922 0.274510 0.184314
0.003922 0.286275 0.192157
0.000000 0.286275 0.168627
0.003922 0.294118 0.164706
0.011765 0.282353 0.168627
0.125490 0.301961 0.149020
0.231373 0.345098 0.117647
0.364706 0.384314 0.062745
0.517647 0.419608 0.015686
0.643137 0.462745 0.000000
0.721569 0.470588 0.000000
0.784314 0.478431 0.000000
0.831373 0.470588 0.000000
0.894118 0.466667 0.000000
0.933333 0.462745 0.054902
0.976471 0.466667 0.090196
1.000000 0.466667 0.129412
1.000000 0.466667 0.152941
0.996078 0.482353 0.176471
0.996078 0.486275 0.219608
1.000000 0.498039 0.262745
1.000000 0.509804 0.290196
1.000000 0.529412 0.325490
0.992157 0.552941 0.372549
1.000000 0.572549 0.423529
0.000000 0.345098 0.207843
0.007843 0.341176 0.207843
0.003922 0.337255 0.203922
0.000000 0.341176 0.176471
0.003922 0.337255 0.176471
0.050980 0.345098 0.176471
0.188235 0.384314 0.137255
0.333333 0.427451 0.090196
0.486275 0.466667 0.007843
0.619608 0.498039 0.000000
0.713725 0.517647 0.003922
0.784314 0.521569 0.003922
0.835294 0.509804 0.000000
0.886275 0.505882 0.000000
0.933333 0.505882 0.000000
0.972549 0.501961 0.094118
1.000000 0.513725 0.152941
1.000000 0.513725 0.168627
0.992157 0.517647 0.211765
0.996078 0.525490 0.250980
0.996078 0.537255 0.274510
0.996078 0.549020 0.313725
0.996078 0.568627 0.349020
1.000000 0.584314 0.396078
1.000000 0.603922 0.431373
0.000000 0.403922 0.227451
0.000000 0.400000 0.223529
0.011765 0.400000 0.215686
0.003922 0.396078 0.192157
0.000000 0.403922 0.196078
0.007843 0.400000 0.188235
0.113725 0.431373 0.160784
0.286275 0.466667 0.121569
