.config/mpv/luts/FGCineTealOrange1.cube
#Generated with IWLTBAP LUT Generator
#Website: http://luts.iwltbap.com
TITLE "FGCineTealOrange1"
#LUT size
LUT_3D_SIZE 25
#LUT data points
0.050980 0.109804 0.129412
0.054902 0.109804 0.121569
0.066667 0.109804 0.125490
0.094118 0.105882 0.125490
0.137255 0.113725 0.121569
0.180392 0.125490 0.125490
0.211765 0.129412 0.117647
0.254902 0.133333 0.113725
0.313725 0.149020 0.101961
0.372549 0.164706 0.109804
0.443137 0.176471 0.094118
0.525490 0.192157 0.078431
0.607843 0.200000 0.054902
0.701961 0.223529 0.031373
0.784314 0.247059 0.003922
0.858824 0.258824 0.000000
0.917647 0.274510 0.000000
0.968627 0.286275 0.007843
0.996078 0.294118 0.003922
0.992157 0.309804 0.000000
0.996078 0.321569 0.000000
1.000000 0.333333 0.007843
1.000000 0.345098 0.000000
1.000000 0.352941 0.000000
0.992157 0.364706 0.000000
0.058824 0.113725 0.125490
0.054902 0.105882 0.129412
0.066667 0.109804 0.125490
0.098039 0.109804 0.129412
0.141176 0.125490 0.129412
0.176471 0.121569 0.121569
0.215686 0.133333 0.129412
0.254902 0.133333 0.113725
0.305882 0.149020 0.113725
0.364706 0.160784 0.105882
0.443137 0.176471 0.094118
0.509804 0.192157 0.078431
0.596078 0.203922 0.062745
0.682353 0.227451 0.035294
0.768627 0.243137 0.000000
0.847059 0.262745 0.000000
0.901961 0.274510 0.000000
0.960784 0.286275 0.003922
0.992157 0.294118 0.003922
1.000000 0.309804 0.003922
1.000000 0.325490 0.000000
1.000000 0.333333 0.000000
0.996078 0.341176 0.003922
1.000000 0.352941 0.000000
1.000000 0.364706 0.007843
0.050980 0.109804 0.121569
0.058824 0.113725 0.125490
0.078431 0.117647 0.125490
0.090196 0.121569 0.129412
0.141176 0.117647 0.117647
0.176471 0.121569 0.121569
0.215686 0.133333 0.121569
0.254902 0.141176 0.117647
0.309804 0.152941 0.117647
0.364706 0.160784 0.109804
0.431373 0.176471 0.105882
0.494118 0.192157 0.082353
0.584314 0.211765 0.054902
0.670588 0.227451 0.031373
0.768627 0.243137 0.000000
0.827451 0.258824 0.000000
0.894118 0.274510 0.003922
0.941176 0.282353 0.003922
0.988235 0.294118 0.000000
1.000000 0.305882 0.000000
1.000000 0.321569 0.000000
1.000000 0.329412 0.000000
0.992157 0.337255 0.000000
1.000000 0.352941 0.000000
1.000000 0.372549 0.011765
0.054902 0.117647 0.117647
0.062745 0.125490 0.125490
0.070588 0.129412 0.117647
0.113725 0.129412 0.125490
0.145098 0.129412 0.125490
0.172549 0.137255 0.117647
0.211765 0.137255 0.113725
0.254902 0.141176 0.117647
0.301961 0.152941 0.109804
0.356863 0.164706 0.098039
0.423529 0.180392 0.098039
0.509804 0.196078 0.090196
0.580392 0.203922 0.070588
0.674510 0.231373 0.035294
0.752941 0.243137 0.007843
0.823529 0.262745 0.000000
0.878431 0.274510 0.000000
0.929412 0.282353 0.000000
0.976471 0.298039 0.007843
1.000000 0.305882 0.000000
0.996078 0.313725 0.003922
0.996078 0.321569 0.000000
1.000000 0.329412 0.000000
1.000000 0.352941 0.000000
0.996078 0.356863 0.007843
0.035294 0.141176 0.121569
0.054902 0.133333 0.125490
0.078431 0.145098 0.113725
0.109804 0.145098 0.125490
0.141176 0.145098 0.121569
0.184314 0.149020 0.121569
0.223529 0.152941 0.113725
0.258824 0.152941 0.117647
0.301961 0.160784 0.113725
0.352941 0.172549 0.109804
0.419608 0.184314 0.090196
0.494118 0.200000 0.078431
0.584314 0.215686 0.066667
0.654902 0.235294 0.039216
0.737255 0.250980 0.015686
0.807843 0.262745 0.000000
0.866667 0.266667 0.000000
0.909804 0.286275 0.000000
0.960784 0.298039 0.003922
1.000000 0.305882 0.000000
0.992157 0.317647 0.000000
1.000000 0.325490 0.003922
1.000000 0.333333 0.000000
0.996078 0.349020 0.000000
0.996078 0.360784 0.003922
0.054902 0.156863 0.145098
0.062745 0.160784 0.137255
0.078431 0.168627 0.137255
0.109804 0.172549 0.133333
0.149020 0.172549 0.125490
0.188235 0.176471 0.117647
0.239216 0.176471 0.109804
0.290196 0.184314 0.101961
0.345098 0.184314 0.105882
0.407843 0.192157 0.109804
0.474510 0.203922 0.090196
0.560784 0.215686 0.078431
0.654902 0.239216 0.050980
0.737255 0.262745 0.015686
0.803922 0.274510 0.000000
0.870588 0.282353 0.003922
0.921569 0.301961 0.000000
0.968627 0.305882 0.003922
0.996078 0.313725 0.003922
1.000000 0.325490 0.000000
1.000000 0.333333 0.000000
0.996078 0.341176 0.000000
1.000000 0.352941 0.000000
1.000000 0.360784 0.000000
1.000000 0.376471 0.007843
0.043137 0.168627 0.149020
0.066667 0.184314 0.137255
0.070588 0.188235 0.156863
0.098039 0.180392 0.145098
0.129412 0.196078 0.133333
0.188235 0.192157 0.137255
0.227451 0.200000 0.121569
0.286275 0.207843 0.109804
0.337255 0.215686 0.105882
0.396078 0.211765 0.094118
0.478431 0.227451 0.086275
0.560784 0.235294 0.062745
0.639216 0.243137 0.031373
0.729412 0.258824 0.019608
0.803922 0.270588 0.000000
0.866667 0.286275 0.000000
0.913725 0.298039 0.003922
0.964706 0.309804 0.003922
0.996078 0.329412 0.003922
1.000000 0.333333 0.000000
1.000000 0.337255 0.000000
1.000000 0.349020 0.000000
1.000000 0.360784 0.000000
1.000000 0.364706 0.000000
1.000000 0.376471 0.000000
0.050980 0.196078 0.168627
0.062745 0.200000 0.172549
0.078431 0.196078 0.164706
0.105882 0.207843 0.164706
0.133333 0.215686 0.156863
0.172549 0.215686 0.149020
0.227451 0.215686 0.141176
0.274510 0.227451 0.125490
0.341176 0.243137 0.121569
0.411765 0.258824 0.105882
0.486275 0.258824 0.082353
0.572549 0.270588 0.066667
0.658824 0.270588 0.039216
0.717647 0.274510 0.007843
0.792157 0.282353 0.007843
0.850980 0.294118 0.011765
0.905882 0.298039 0.003922
0.952941 0.309804 0.000000
0.996078 0.329412 0.003922
1.000000 0.333333 0.007843
0.992157 0.341176 0.011765
0.992157 0.352941 0.003922
0.996078 0.368627 0.000000
1.000000 0.376471 0.000000
1.000000 0.376471 0.007843
0.054902 0.219608 0.172549
0.058824 0.223529 0.176471
0.082353 0.223529 0.168627
0.101961 0.219608 0.172549
0.129412 0.243137 0.164706
0.184314 0.243137 0.160784
0.231373 0.250980 0.156863
0.294118 0.258824 0.145098
0.352941 0.262745 0.129412
0.427451 0.282353 0.117647
0.494118 0.298039 0.101961
0.568627 0.298039 0.074510
0.639216 0.313725 0.054902
0.717647 0.313725 0.011765
0.792157 0.309804 0.003922
0.843137 0.305882 0.000000
0.890196 0.313725 0.000000
0.937255 0.317647 0.000000
0.980392 0.329412 0.000000
1.000000 0.333333 0.000000
0.992157 0.345098 0.000000
0.992157 0.352941 0.011765
0.996078 0.360784 0.000000
0.996078 0.368627 0.000000
1.000000 0.384314 0.000000
0.058824 0.239216 0.188235
0.070588 0.239216 0.200000
0.082353 0.247059 0.200000
0.094118 0.258824 0.180392
0.133333 0.262745 0.180392
0.176471 0.278431 0.180392
0.231373 0.290196 0.176471
0.290196 0.294118 0.160784
0.360784 0.301961 0.149020
0.435294 0.305882 0.137255
0.501961 0.313725 0.117647
0.568627 0.325490 0.101961
0.647059 0.337255 0.074510
0.713725 0.337255 0.039216
0.772549 0.337255 0.000000
0.831373 0.341176 0.000000
0.878431 0.329412 0.003922
0.921569 0.325490 0.007843
0.960784 0.325490 0.000000
1.000000 0.345098 0.000000
1.000000 0.349020 0.000000
1.000000 0.356863 0.003922
1.000000 0.364706 0.007843
1.000000 0.372549 0.003922
1.000000 0.380392 0.000000
0.047059 0.313725 0.223529
0.066667 0.317647 0.215686
0.086275 0.321569 0.219608
0.121569 0.325490 0.227451
0.164706 0.333333 0.215686
0.211765 0.345098 0.207843
0.286275 0.356863 0.192157
0.352941 0.380392 0.180392
0.431373 0.380392 0.172549
0.509804 0.392157 0.156863
0.592157 0.396078 0.125490
0.666667 0.400000 0.105882
0.741176 0.411765 0.074510
0.784314 0.407843 0.035294
0.847059 0.396078 0.000000
0.909804 0.396078 0.003922
0.937255 0.392157 0.003922
0.976471 0.384314 0.003922
1.000000 0.372549 0.003922
0.992157 0.364706 0.000000
0.996078 0.368627 0.000000
1.000000 0.380392 0.007843
0.996078 0.388235 0.000000
0.996078 0.396078 0.000000
0.992157 0.403922 0.000000
0.054902 0.341176 0.227451
0.054902 0.337255 0.243137
0.086275 0.341176 0.223529
0.125490 0.360784 0.227451
0.164706 0.364706 0.227451
0.219608 0.380392 0.223529
0.286275 0.396078 0.207843
0.349020 0.403922 0.196078
0.419608 0.419608 0.184314
0.494118 0.423529 0.164706
0.588235 0.419608 0.149020
0.658824 0.435294 0.125490
0.737255 0.431373 0.101961
0.792157 0.439216 0.070588
0.843137 0.431373 0.035294
0.901961 0.423529 0.003922
0.937255 0.419608 0.000000
0.984314 0.411765 0.000000
1.000000 0.403922 0.000000
0.996078 0.396078 0.000000
0.996078 0.388235 0.003922
0.996078 0.388235 0.000000
1.000000 0.392157 0.000000
1.000000 0.400000 0.000000
0.988235 0.411765 0.007843
0.043137 0.376471 0.243137
0.058824 0.376471 0.250980
0.090196 0.384314 0.254902
0.125490 0.388235 0.247059
0.176471 0.400000 0.231373
0.215686 0.415686 0.239216
0.270588 0.427451 0.231373
0.341176 0.439216 0.215686
0.423529 0.447059 0.203922
0.494118 0.458824 0.188235
0.556863 0.450980 0.149020
0.643137 0.458824 0.145098
0.717647 0.458824 0.121569
0.780392 0.466667 0.101961
0.831373 0.458824 0.058824
0.882353 0.462745 0.023529
0.933333 0.454902 0.000000
0.972549 0.443137 0.000000
0.992157 0.439216 0.000000
1.000000 0.431373 0.003922
1.000000 0.419608 0.003922
0.996078 0.407843 0.000000
1.000000 0.392157 0.000000
1.000000 0.407843 0.011765
0.996078 0.411765 0.003922
0.050980 0.411765 0.266667
0.074510 0.419608 0.262745
0.086275 0.415686 0.274510
0.129412 0.435294 0.270588
0.176471 0.431373 0.258824
0.231373 0.443137 0.250980
0.278431 0.450980 0.250980
0.341176 0.462745 0.239216
0.411765 0.474510 0.219608
0.490196 0.490196 0.200000
0.572549 0.498039 0.188235
0.639216 0.478431 0.156863
0.713725 0.490196 0.149020
0.780392 0.494118 0.121569
0.843137 0.494118 0.094118
0.886275 0.482353 0.070588
0.925490 0.486275 0.027451
0.968627 0.478431 0.000000
0.992157 0.462745 0.000000
1.000000 0.450980 0.000000
1.000000 0.443137 0.011765
0.992157 0.439216 0.000000
1.000000 0.427451 0.000000
0.996078 0.415686 0.000000
1.000000 0.419608 0.003922
0.062745 0.439216 0.290196
0.078431 0.450980 0.294118
0.105882 0.454902 0.282353
0.141176 0.466667 0.286275
0.184314 0.466667 0.270588
0.231373 0.474510 0.274510
0.290196 0.486275 0.270588
0.345098 0.494118 0.262745
0.415686 0.505882 0.239216
0.478431 0.521569 0.215686
0.560784 0.529412 0.196078
0.631373 0.541176 0.176471
0.698039 0.529412 0.168627
0.768627 0.525490 0.141176
0.827451 0.517647 0.113725
0.870588 0.513725 0.098039
0.913725 0.517647 0.070588
0.956863 0.505882 0.015686
0.988235 0.494118 0.000000
1.000000 0.482353 0.000000
0.992157 0.486275 0.000000
1.000000 0.474510 0.000000
1.000000 0.466667 0.000000
1.000000 0.447059 0.000000
0.996078 0.435294 0.003922
0.188235 0.572549 0.364706
0.196078 0.576471 0.356863
0.211765 0.576471 0.352941
0.235294 0.580392 0.345098
0.270588 0.576471 0.333333
0.309804 0.588235 0.329412
0.368627 0.592157 0.321569
0.423529 0.603922 0.317647
0.486275 0.611765 0.286275
0.556863 0.615686 0.282353
0.639216 0.627451 0.262745
0.709804 0.631373 0.243137
0.776471 0.623529 0.219608
0.835294 0.611765 0.200000
0.886275 0.596078 0.176471
0.929412 0.584314 0.160784
0.968627 0.572549 0.125490
1.000000 0.560784 0.101961
1.000000 0.549020 0.054902
0.996078 0.545098 0.019608
1.000000 0.529412 0.007843
1.000000 0.517647 0.000000
1.000000 0.505882 0.003922
1.000000 0.498039 0.000000
1.000000 0.490196 0.000000
0.164706 0.572549 0.341176
0.188235 0.576471 0.345098
0.207843 0.592157 0.360784
0.231373 0.584314 0.341176
0.278431 0.596078 0.368627
0.317647 0.611765 0.349020
0.356863 0.623529 0.337255
0.427451 0.623529 0.333333
0.486275 0.631373 0.321569
0.552941 0.639216 0.313725
0.623529 0.650980 0.286275
0.694118 0.658824 0.262745
0.760784 0.666667 0.243137
0.819608 0.647059 0.219608
0.878431 0.635294 0.200000
0.933333 0.615686 0.196078
0.964706 0.611765 0.172549
0.992157 0.596078 0.141176
0.996078 0.584314 0.117647
0.996078 0.572549 0.078431
1.000000 0.560784 0.027451
1.000000 0.552941 0.003922
1.000000 0.541176 0.007843
0.992157 0.529412 0.000000
1.000000 0.521569 0.000000
0.203922 0.611765 0.364706
0.231373 0.615686 0.376471
0.239216 0.627451 0.372549
0.270588 0.623529 0.372549
0.298039 0.639216 0.372549
0.337255 0.639216 0.372549
0.384314 0.650980 0.364706
0.431373 0.654902 0.352941
0.490196 0.658824 0.341176
0.545098 0.670588 0.333333
0.607843 0.670588 0.313725
0.682353 0.690196 0.301961
0.764706 0.694118 0.270588
0.827451 0.701961 0.243137
0.874510 0.674510 0.247059
0.921569 0.658824 0.211765
0.976471 0.639216 0.196078
1.000000 0.623529 0.184314
1.000000 0.611765 0.164706
1.000000 0.600000 0.129412
1.000000 0.596078 0.094118
1.000000 0.580392 0.047059
0.992157 0.580392 0.000000
1.000000 0.556863 0.007843
0.992157 0.552941 0.000000
0.250980 0.654902 0.384314
0.270588 0.654902 0.407843
0.294118 0.654902 0.400000
0.305882 0.670588 0.392157
0.329412 0.662745 0.396078
0.360784 0.674510 0.396078
0.396078 0.678431 0.380392
0.447059 0.686275 0.380392
0.501961 0.694118 0.376471
0.556863 0.694118 0.364706
0.615686 0.705882 0.360784
0.678431 0.705882 0.333333
0.737255 0.717647 0.317647
0.815686 0.721569 0.290196
0.870588 0.725490 0.266667
0.909804 0.705882 0.239216
0.960784 0.682353 0.227451
0.988235 0.662745 0.207843
1.000000 0.650980 0.196078
0.996078 0.635294 0.160784
0.996078 0.619608 0.141176
1.000000 0.603922 0.101961
1.000000 0.596078 0.050980
1.000000 0.584314 0.015686
1.000000 0.580392 0.000000
0.298039 0.690196 0.407843
0.317647 0.698039 0.415686
0.337255 0.694118 0.419608
0.356863 0.701961 0.411765
0.376471 0.701961 0.419608
0.403922 0.709804 0.415686
0.435294 0.713725 0.415686
0.474510 0.721569 0.411765
0.529412 0.721569 0.396078
0.572549 0.729412 0.384314
0.627451 0.729412 0.372549
0.674510 0.741176 0.364706
0.733333 0.745098 0.341176
0.800000 0.752941 0.329412
0.858824 0.752941 0.294118
0.917647 0.752941 0.282353
0.952941 0.713725 0.254902
0.996078 0.701961 0.235294
1.000000 0.690196 0.227451
0.992157 0.674510 0.215686
1.000000 0.654902 0.200000
0.996078 0.643137 0.156863
1.000000 0.635294 0.121569
1.000000 0.619608 0.066667
1.000000 0.611765 0.011765
0.533333 0.796078 0.517647
0.529412 0.792157 0.513725
0.521569 0.796078 0.521569
0.529412 0.792157 0.513725
0.541176 0.788235 0.509804
0.549020 0.792157 0.505882
0.568627 0.788235 0.501961
0.603922 0.792157 0.501961
0.623529 0.796078 0.486275
0.650980 0.800000 0.474510
0.690196 0.800000 0.458824
0.733333 0.807843 0.447059
0.784314 0.807843 0.431373
0.839216 0.807843 0.419608
0.890196 0.819608 0.396078
0.937255 0.819608 0.372549
0.980392 0.803922 0.345098
1.000000 0.776471 0.325490
1.000000 0.749020 0.309804
0.996078 0.733333 0.286275
0.992157 0.709804 0.270588
1.000000 0.698039 0.250980
1.000000 0.682353 0.223529
1.000000 0.666667 0.200000
0.992157 0.658824 0.160784
0.501961 0.788235 0.509804
0.521569 0.800000 0.525490
0.529412 0.803922 0.521569
0.545098 0.811765 0.525490
0.545098 0.811765 0.525490
0.572549 0.807843 0.533333
0.600000 0.803922 0.521569
0.611765 0.819608 0.513725
0.643137 0.815686 0.513725
0.662745 0.823529 0.509804
0.713725 0.823529 0.494118
0.737255 0.827451 0.474510
0.796078 0.831373 0.474510
0.819608 0.835294 0.454902
0.874510 0.839216 0.435294
0.929412 0.847059 0.427451
0.968627 0.847059 0.392157
1.000000 0.827451 0.360784
1.000000 0.800000 0.360784
1.000000 0.776471 0.352941
1.000000 0.752941 0.317647
1.000000 0.733333 0.290196
0.996078 0.721569 0.274510
1.000000 0.701961 0.247059
1.000000 0.690196 0.223529
0.572549 0.827451 0.552941
0.588235 0.827451 0.556863
0.588235 0.835294 0.549020
0.600000 0.839216 0.576471
0.611765 0.835294 0.556863
0.631373 0.839216 0.572549
0.639216 0.839216 0.568627
0.654902 0.843137 0.552941
0.678431 0.847059 0.537255
0.701961 0.847059 0.537255
0.729412 0.850980 0.537255
0.756863 0.854902 0.529412
0.792157 0.854902 0.509804
0.839216 0.858824 0.490196
0.862745 0.862745 0.486275
0.913725 0.870588 0.458824
0.968627 0.874510 0.443137
0.996078 0.874510 0.419608
1.000000 0.850980 0.392157
1.000000 0.819608 0.380392
0.996078 0.792157 0.360784
1.000000 0.768627 0.337255
1.000000 0.756863 0.321569
1.000000 0.733333 0.286275
1.000000 0.729412 0.270588
0.623529 0.858824 0.584314
0.639216 0.854902 0.592157
0.654902 0.862745 0.596078
0.662745 0.862745 0.600000
0.662745 0.870588 0.596078
0.674510 0.866667 0.600000
0.686275 0.862745 0.592157
0.698039 0.866667 0.588235
0.709804 0.874510 0.584314
0.729412 0.878431 0.576471
0.749020 0.886275 0.572549
0.780392 0.886275 0.568627
0.815686 0.886275 0.556863
0.835294 0.882353 0.545098
0.878431 0.894118 0.521569
0.909804 0.894118 0.505882
0.956863 0.898039 0.494118
0.988235 0.894118 0.462745
1.000000 0.886275 0.439216
1.000000 0.858824 0.407843
1.000000 0.831373 0.392157
1.000000 0.803922 0.376471
0.996078 0.788235 0.341176
1.000000 0.768627 0.313725
1.000000 0.741176 0.294118
0.682353 0.898039 0.635294
0.698039 0.890196 0.631373
0.717647 0.890196 0.643137
0.721569 0.894118 0.647059
0.725490 0.901961 0.647059
0.733333 0.898039 0.639216
0.733333 0.898039 0.639216
0.741176 0.901961 0.643137
0.756863 0.901961 0.631373
0.764706 0.901961 0.635294
0.788235 0.905882 0.631373
0.823529 0.909804 0.615686
0.843137 0.917647 0.607843
0.866667 0.909804 0.600000
0.898039 0.913725 0.580392
0.921569 0.917647 0.556863
0.964706 0.925490 0.541176
0.996078 0.929412 0.517647
1.000000 0.925490 0.498039
0.996078 0.905882 0.466667
1.000000 0.866667 0.447059
0.996078 0.843137 0.431373
0.992157 0.819608 0.392157
1.000000 0.803922 0.368627
1.000000 0.788235 0.372549
0.054902 0.113725 0.125490
0.058824 0.113725 0.125490
0.066667 0.109804 0.125490
0.090196 0.109804 0.125490
0.129412 0.113725 0.117647
0.164706 0.125490 0.121569
0.203922 0.133333 0.125490
0.250980 0.141176 0.125490
0.305882 0.149020 0.113725
0.364706 0.160784 0.105882
0.431373 0.176471 0.090196
0.505882 0.192157 0.086275
0.592157 0.207843 0.062745
0.682353 0.227451 0.035294
0.768627 0.243137 0.003922
0.843137 0.258824 0.000000
0.905882 0.282353 0.000000
0.952941 0.278431 0.000000
0.988235 0.294118 0.000000
1.000000 0.305882 0.000000
1.000000 0.313725 0.000000
1.000000 0.325490 0.000000
0.996078 0.341176 0.000000
1.000000 0.352941 0.000000
1.000000 0.368627 0.000000
0.054902 0.105882 0.129412
0.062745 0.117647 0.121569
0.054902 0.105882 0.129412
0.098039 0.113725 0.125490
0.121569 0.121569 0.121569
0.164706 0.125490 0.121569
0.207843 0.133333 0.109804
0.247059 0.141176 0.113725
0.298039 0.149020 0.109804
0.360784 0.156863 0.105882
0.423529 0.180392 0.098039
0.494118 0.192157 0.082353
0.572549 0.211765 0.066667
0.678431 0.231373 0.047059
0.760784 0.243137 0.011765
0.831373 0.262745 0.000000
0.890196 0.278431 0.007843
0.952941 0.286275 0.011765
0.988235 0.290196 0.000000
1.000000 0.305882 0.000000
1.000000 0.317647 0.000000
1.000000 0.333333 0.000000
0.992157 0.345098 0.000000
1.000000 0.345098 0.000000
0.996078 0.368627 0.000000
0.050980 0.109804 0.129412
0.066667 0.109804 0.125490
0.066667 0.121569 0.121569
0.094118 0.117647 0.117647
0.137255 0.113725 0.113725
0.168627 0.121569 0.129412
0.207843 0.129412 0.125490
0.239216 0.141176 0.121569
0.290196 0.156863 0.121569
0.349020 0.160784 0.113725
0.419608 0.180392 0.105882
0.486275 0.196078 0.090196
0.572549 0.211765 0.058824
0.662745 0.231373 0.039216
0.756863 0.239216 0.007843
0.819608 0.258824 0.000000
0.878431 0.274510 0.000000
0.933333 0.282353 0.015686
0.980392 0.294118 0.007843
0.996078 0.301961 0.000000
0.996078 0.321569 0.000000
1.000000 0.333333 0.000000
0.992157 0.341176 0.003922
0.992157 0.345098 0.000000
1.000000 0.352941 0.000000
0.058824 0.117647 0.137255
0.050980 0.129412 0.133333
0.074510 0.133333 0.121569
0.109804 0.125490 0.121569
0.133333 0.133333 0.133333
0.168627 0.129412 0.125490
0.207843 0.137255 0.121569
0.243137 0.149020 0.117647
0.294118 0.149020 0.109804
0.352941 0.164706 0.109804
0.411765 0.172549 0.098039
0.498039 0.196078 0.086275
0.568627 0.207843 0.062745
0.654902 0.235294 0.039216
0.737255 0.247059 0.003922
0.803922 0.258824 0.000000
0.870588 0.270588 0.003922
0.925490 0.282353 0.003922
0.964706 0.290196 0.000000
0.996078 0.301961 0.000000
0.996078 0.313725 0.000000
0.996078 0.329412 0.003922
1.000000 0.329412 0.000000
0.996078 0.349020 0.000000
0.988235 0.364706 0.003922
0.039216 0.137255 0.113725
0.054902 0.141176 0.133333
0.066667 0.141176 0.133333
0.109804 0.145098 0.133333
0.141176 0.145098 0.121569
0.172549 0.145098 0.113725
0.211765 0.145098 0.117647
0.254902 0.149020 0.121569
0.298039 0.156863 0.109804
0.349020 0.168627 0.105882
0.419608 0.180392 0.098039
0.486275 0.192157 0.078431
0.564706 0.215686 0.066667
0.643137 0.235294 0.050980
0.721569 0.250980 0.015686
0.792157 0.262745 0.007843
0.847059 0.262745 0.000000
0.905882 0.286275 0.000000
0.952941 0.298039 0.000000
1.000000 0.301961 0.003922
1.000000 0.317647 0.000000
0.996078 0.321569 0.000000
0.992157 0.337255 0.000000
0.996078 0.349020 0.000000
0.992157 0.356863 0.000000
0.054902 0.156863 0.152941
0.062745 0.160784 0.149020
0.082353 0.168627 0.149020
0.109804 0.168627 0.141176
0.149020 0.168627 0.141176
0.184314 0.172549 0.137255
0.223529 0.176471 0.129412
0.270588 0.180392 0.121569
0.325490 0.180392 0.117647
0.380392 0.192157 0.105882
0.450980 0.200000 0.090196
0.537255 0.215686 0.070588
0.631373 0.239216 0.047059
0.721569 0.258824 0.015686
0.796078 0.270588 0.000000
0.858824 0.278431 0.003922
0.905882 0.286275 0.000000
0.956863 0.294118 0.007843
0.992157 0.309804 0.003922
0.996078 0.321569 0.000000
1.000000 0.333333 0.000000
0.996078 0.341176 0.003922
0.996078 0.349020 0.000000
0.996078 0.356863 0.007843
1.000000 0.372549 0.000000
0.062745 0.176471 0.160784
0.062745 0.176471 0.156863
0.078431 0.184314 0.156863
0.098039 0.184314 0.172549
0.141176 0.188235 0.149020
0.176471 0.192157 0.137255
0.219608 0.196078 0.133333
0.262745 0.203922 0.129412
0.317647 0.207843 0.125490
0.372549 0.215686 0.117647
0.470588 0.223529 0.101961
0.545098 0.235294 0.074510
0.631373 0.239216 0.047059
0.709804 0.262745 0.019608
0.780392 0.278431 0.000000
0.847059 0.286275 0.000000
0.898039 0.298039 0.000000
0.952941 0.309804 0.000000
0.988235 0.321569 0.000000
0.996078 0.329412 0.000000
1.000000 0.333333 0.007843
1.000000 0.345098 0.007843
1.000000 0.352941 0.003922
0.996078 0.364706 0.011765
0.996078 0.376471 0.000000
0.058824 0.196078 0.172549
0.066667 0.192157 0.172549
0.074510 0.196078 0.176471
0.101961 0.200000 0.176471
0.133333 0.211765 0.164706
0.176471 0.219608 0.152941
0.207843 0.227451 0.149020
0.262745 0.231373 0.141176
0.333333 0.239216 0.137255
0.403922 0.250980 0.129412
0.470588 0.254902 0.105882
0.545098 0.266667 0.094118
0.627451 0.270588 0.062745
0.705882 0.274510 0.035294
0.764706 0.278431 0.000000
0.823529 0.294118 0.003922
0.886275 0.301961 0.000000
0.941176 0.309804 0.000000
0.992157 0.325490 0.000000
1.000000 0.329412 0.000000
0.992157 0.337255 0.000000
0.996078 0.349020 0.000000
0.992157 0.352941 0.003922
1.000000 0.364706 0.000000
0.992157 0.384314 0.000000
0.054902 0.219608 0.172549
0.058824 0.223529 0.184314
0.070588 0.227451 0.192157
0.101961 0.231373 0.203922
0.137255 0.231373 0.168627
0.168627 0.243137 0.168627
0.219608 0.250980 0.168627
0.278431 0.254902 0.160784
0.337255 0.262745 0.145098
0.411765 0.278431 0.129412
0.474510 0.290196 0.117647
0.552941 0.294118 0.105882
0.623529 0.305882 0.090196
0.698039 0.309804 0.047059
0.764706 0.301961 0.011765
0.819608 0.298039 0.003922
0.870588 0.301961 0.000000
0.925490 0.309804 0.000000
0.972549 0.317647 0.003922
1.000000 0.333333 0.007843
0.992157 0.341176 0.003922
1.000000 0.352941 0.003922
1.000000 0.352941 0.000000
0.992157 0.368627 0.007843
0.992157 0.380392 0.007843
0.062745 0.243137 0.200000
0.074510 0.243137 0.203922
0.078431 0.243137 0.196078
0.094118 0.254902 0.184314
0.133333 0.262745 0.188235
0.172549 0.270588 0.184314
0.219608 0.282353 0.172549
0.278431 0.294118 0.164706
0.341176 0.294118 0.145098
0.403922 0.305882 0.145098
0.482353 0.317647 0.129412
0.545098 0.329412 0.109804
0.619608 0.329412 0.098039
0.682353 0.329412 0.062745
0.752941 0.333333 0.027451
0.811765 0.337255 0.000000
0.870588 0.333333 0.000000
0.913725 0.325490 0.000000
0.964706 0.329412 0.003922
1.000000 0.341176 0.007843
0.996078 0.345098 0.007843
1.000000 0.352941 0.003922
1.000000 0.364706 0.007843
1.000000 0.376471 0.000000
1.000000 0.376471 0.007843
0.054902 0.309804 0.231373
0.062745 0.309804 0.227451
0.082353 0.313725 0.227451
0.109804 0.321569 0.227451
0.152941 0.325490 0.219608
0.200000 0.337255 0.211765
0.262745 0.349020 0.200000
0.337255 0.364706 0.192157
