.config/mpv/luts/FGCineWarm.cube
#Generated with IWLTBAP LUT Generator
#Website: http://luts.iwltbap.com
TITLE "FGCineWarm"
#LUT size
LUT_3D_SIZE 9
#LUT data points
0.066667 0.090196 0.090196
0.090196 0.094118 0.074510
0.250980 0.105882 0.082353
0.521569 0.141176 0.027451
0.745098 0.200000 0.000000
0.870588 0.239216 0.000000
0.988235 0.286275 0.000000
1.000000 0.317647 0.078431
0.996078 0.368627 0.196078
0.050980 0.109804 0.090196
0.113725 0.109804 0.090196
0.298039 0.160784 0.074510
0.568627 0.231373 0.000000
0.756863 0.270588 0.000000
0.878431 0.294118 0.000000
0.992157 0.317647 0.003922
0.992157 0.345098 0.054902
0.996078 0.396078 0.203922
0.000000 0.200000 0.109804
0.015686 0.203922 0.050980
0.290196 0.239216 0.031373
0.615686 0.356863 0.000000
0.796078 0.368627 0.003922
0.913725 0.372549 0.000000
1.000000 0.380392 0.000000
1.000000 0.396078 0.031373
0.992157 0.435294 0.207843
0.000000 0.352941 0.160784
0.000000 0.364706 0.086275
0.219608 0.411765 0.000000
0.584314 0.466667 0.000000
0.803922 0.482353 0.011765
0.945098 0.494118 0.003922
1.000000 0.486275 0.000000
0.992157 0.482353 0.003922
1.000000 0.501961 0.223529
0.000000 0.549020 0.270588
0.000000 0.560784 0.180392
0.003922 0.572549 0.003922
0.466667 0.596078 0.000000
0.756863 0.580392 0.011765
0.921569 0.584314 0.007843
1.000000 0.592157 0.000000
1.000000 0.580392 0.101961
1.000000 0.580392 0.258824
0.003922 0.666667 0.380392
0.003922 0.674510 0.345098
0.000000 0.678431 0.211765
0.172549 0.690196 0.117647
0.650980 0.713725 0.000000
0.894118 0.674510 0.000000
1.000000 0.686275 0.007843
1.000000 0.682353 0.219608
1.000000 0.686275 0.400000
0.003922 0.768627 0.533333
0.000000 0.756863 0.525490
0.000000 0.768627 0.447059
0.007843 0.788235 0.368627
0.486275 0.807843 0.305882
0.819608 0.823529 0.172549
0.992157 0.768627 0.011765
0.996078 0.768627 0.286275
0.992157 0.772549 0.470588
0.035294 0.878431 0.643137
0.172549 0.882353 0.650980
0.192157 0.882353 0.619608
0.062745 0.901961 0.556863
0.337255 0.909804 0.505882
0.705882 0.917647 0.470588
0.956863 0.925490 0.349020
1.000000 0.862745 0.392157
1.000000 0.850980 0.517647
0.278431 0.996078 0.772549
0.329412 1.000000 0.756863
0.427451 0.996078 0.756863
0.388235 1.000000 0.717647
0.403922 0.996078 0.662745
0.627451 1.000000 0.603922
0.886275 0.996078 0.552941
1.000000 0.976471 0.560784
1.000000 0.913725 0.647059
0.058824 0.098039 0.101961
0.109804 0.086275 0.094118
0.290196 0.141176 0.066667
0.572549 0.215686 0.007843
0.760784 0.266667 0.000000
0.890196 0.294118 0.000000
0.996078 0.321569 0.007843
0.996078 0.349020 0.050980
0.996078 0.384314 0.192157
0.035294 0.121569 0.109804
0.125490 0.129412 0.098039
0.301961 0.188235 0.054902
0.600000 0.286275 0.007843
0.776471 0.309804 0.011765
0.905882 0.325490 0.003922
0.996078 0.341176 0.000000
1.000000 0.360784 0.050980
1.000000 0.407843 0.207843
0.000000 0.203922 0.152941
0.007843 0.211765 0.121569
0.290196 0.247059 0.078431
0.623529 0.380392 0.000000
0.803922 0.400000 0.000000
0.909804 0.403922 0.003922
0.992157 0.403922 0.000000
1.000000 0.407843 0.019608
1.000000 0.439216 0.203922
0.003922 0.364706 0.219608
0.003922 0.372549 0.160784
0.211765 0.407843 0.066667
0.588235 0.462745 0.003922
0.792157 0.498039 0.000000
0.941176 0.509804 0.003922
1.000000 0.494118 0.000000
1.000000 0.494118 0.003922
1.000000 0.501961 0.215686
0.000000 0.552941 0.313725
0.007843 0.556863 0.250980
0.000000 0.576471 0.098039
0.470588 0.600000 0.000000
0.749020 0.588235 0.000000
0.921569 0.584314 0.000000
1.000000 0.596078 0.003922
1.000000 0.592157 0.101961
1.000000 0.588235 0.278431
0.000000 0.662745 0.407843
0.003922 0.662745 0.400000
0.000000 0.678431 0.286275
0.180392 0.690196 0.203922
0.650980 0.705882 0.137255
0.882353 0.678431 0.003922
1.000000 0.686275 0.000000
0.996078 0.690196 0.211765
1.000000 0.705882 0.396078
0.007843 0.760784 0.556863
0.000000 0.760784 0.545098
0.003922 0.768627 0.494118
0.000000 0.780392 0.415686
0.501961 0.807843 0.368627
0.815686 0.831373 0.286275
1.000000 0.784314 0.003922
0.996078 0.768627 0.278431
1.000000 0.772549 0.466667
0.078431 0.882353 0.658824
0.176471 0.878431 0.650980
0.266667 0.882353 0.635294
0.137255 0.898039 0.580392
0.341176 0.901961 0.517647
0.701961 0.921569 0.486275
0.952941 0.925490 0.400000
0.992157 0.866667 0.407843
1.000000 0.850980 0.525490
0.274510 1.000000 0.776471
0.329412 0.992157 0.760784
0.411765 1.000000 0.756863
0.427451 0.996078 0.733333
0.423529 1.000000 0.674510
0.623529 1.000000 0.611765
0.890196 1.000000 0.568627
0.996078 0.976471 0.584314
1.000000 0.913725 0.639216
0.000000 0.121569 0.180392
0.090196 0.098039 0.184314
0.250980 0.109804 0.156863
0.580392 0.219608 0.074510
0.788235 0.305882 0.000000
0.909804 0.337255 0.003922
0.992157 0.364706 0.003922
0.996078 0.380392 0.047059
1.000000 0.403922 0.211765
0.027451 0.164706 0.172549
0.101961 0.141176 0.176471
0.247059 0.168627 0.164706
0.596078 0.282353 0.090196
0.796078 0.360784 0.007843
0.905882 0.376471 0.000000
1.000000 0.384314 0.003922
0.996078 0.400000 0.043137
0.996078 0.431373 0.196078
0.000000 0.215686 0.211765
0.098039 0.215686 0.207843
0.278431 0.250980 0.188235
0.607843 0.372549 0.129412
0.811765 0.427451 0.000000
0.937255 0.439216 0.000000
1.000000 0.439216 0.007843
0.996078 0.439216 0.015686
1.000000 0.454902 0.215686
0.003922 0.368627 0.298039
0.000000 0.384314 0.282353
0.137255 0.411765 0.200000
0.572549 0.462745 0.176471
0.784314 0.501961 0.039216
0.952941 0.521569 0.000000
0.992157 0.521569 0.003922
1.000000 0.509804 0.007843
1.000000 0.513725 0.231373
0.003922 0.556863 0.388235
0.007843 0.552941 0.360784
0.003922 0.568627 0.266667
0.443137 0.600000 0.223529
0.737255 0.588235 0.200000
0.913725 0.603922 0.000000
0.996078 0.607843 0.000000
0.996078 0.607843 0.141176
0.996078 0.596078 0.298039
0.000000 0.666667 0.478431
0.007843 0.662745 0.482353
0.003922 0.670588 0.427451
0.176471 0.686275 0.325490
0.627451 0.713725 0.321569
0.870588 0.690196 0.262745
1.000000 0.686275 0.000000
0.996078 0.698039 0.219608
1.000000 0.698039 0.407843
0.011765 0.768627 0.592157
0.137255 0.768627 0.588235
0.266667 0.760784 0.572549
0.184314 0.780392 0.486275
0.505882 0.796078 0.447059
0.800000 0.819608 0.427451
1.000000 0.784314 0.325490
0.992157 0.780392 0.294118
1.000000 0.764706 0.478431
0.141176 0.878431 0.678431
0.196078 0.886275 0.674510
0.313725 0.886275 0.670588
0.294118 0.894118 0.619608
0.364706 0.905882 0.560784
0.686275 0.921569 0.545098
0.937255 0.921569 0.490196
1.000000 0.862745 0.411765
0.988235 0.847059 0.509804
0.254902 1.000000 0.780392
0.298039 1.000000 0.780392
0.407843 1.000000 0.768627
0.486275 1.000000 0.764706
0.458824 1.000000 0.698039
0.607843 1.000000 0.643137
0.886275 0.996078 0.596078
0.992157 0.984314 0.552941
1.000000 0.913725 0.639216
0.007843 0.180392 0.294118
0.011765 0.149020 0.305882
0.247059 0.137255 0.294118
0.466667 0.133333 0.262745
0.749020 0.298039 0.215686
0.921569 0.364706 0.000000
1.000000 0.392157 0.000000
1.000000 0.419608 0.043137
1.000000 0.435294 0.227451
0.000000 0.227451 0.305882
0.015686 0.196078 0.290196
0.250980 0.172549 0.309804
0.474510 0.184314 0.274510
0.749020 0.341176 0.243137
0.921569 0.392157 0.031373
0.996078 0.423529 0.000000
1.000000 0.423529 0.023529
1.000000 0.447059 0.235294
0.000000 0.282353 0.321569
0.003922 0.278431 0.317647
0.231373 0.258824 0.321569
0.498039 0.325490 0.321569
0.756863 0.431373 0.313725
0.921569 0.458824 0.168627
1.000000 0.478431 0.003922
0.996078 0.478431 0.015686
0.996078 0.474510 0.215686
0.000000 0.400000 0.388235
0.003922 0.396078 0.388235
0.243137 0.396078 0.376471
0.521569 0.462745 0.372549
0.741176 0.545098 0.415686
0.917647 0.564706 0.337255
1.000000 0.552941 0.000000
0.996078 0.537255 0.054902
1.000000 0.537255 0.247059
0.000000 0.549020 0.482353
0.000000 0.560784 0.478431
0.207843 0.560784 0.462745
0.411765 0.584314 0.392157
0.694118 0.603922 0.439216
0.882353 0.650980 0.431373
1.000000 0.635294 0.250980
0.988235 0.627451 0.168627
1.000000 0.607843 0.309804
0.133333 0.658824 0.560784
0.192157 0.654902 0.552941
0.286275 0.666667 0.537255
0.309804 0.678431 0.474510
0.615686 0.709804 0.482353
0.839216 0.717647 0.494118
0.996078 0.725490 0.419608
0.996078 0.698039 0.262745
1.000000 0.701961 0.427451
0.219608 0.764706 0.635294
0.266667 0.760784 0.643137
0.329412 0.764706 0.627451
0.356863 0.772549 0.580392
0.498039 0.796078 0.541176
0.788235 0.831373 0.533333
0.980392 0.811765 0.513725
1.000000 0.784314 0.329412
1.000000 0.776471 0.490196
0.219608 0.878431 0.717647
0.247059 0.886275 0.701961
0.329412 0.890196 0.709804
0.439216 0.882353 0.701961
0.411765 0.901961 0.627451
0.662745 0.929412 0.596078
0.929412 0.937255 0.556863
1.000000 0.874510 0.494118
1.000000 0.847059 0.545098
0.227451 0.984314 0.792157
0.262745 1.000000 0.800000
0.364706 1.000000 0.803922
0.513725 1.000000 0.803922
0.517647 0.992157 0.752941
0.576471 0.996078 0.682353
0.870588 0.996078 0.662745
1.000000 0.980392 0.572549
0.996078 0.917647 0.639216
0.000000 0.266667 0.443137
0.000000 0.231373 0.458824
0.168627 0.184314 0.462745
0.447059 0.172549 0.447059
0.658824 0.215686 0.388235
0.811765 0.439216 0.431373
0.996078 0.454902 0.309804
0.992157 0.443137 0.062745
0.996078 0.462745 0.227451
0.000000 0.298039 0.462745
0.000000 0.278431 0.450980
0.152941 0.223529 0.466667
0.454902 0.219608 0.462745
0.658824 0.286275 0.411765
0.815686 0.474510 0.454902
0.996078 0.490196 0.337255
0.992157 0.466667 0.047059
0.992157 0.474510 0.243137
0.000000 0.360784 0.458824
0.003922 0.352941 0.462745
0.137255 0.325490 0.474510
0.454902 0.317647 0.482353
0.627451 0.407843 0.450980
0.811765 0.521569 0.486275
1.000000 0.545098 0.407843
1.000000 0.501961 0.043137
1.000000 0.501961 0.247059
0.000000 0.450980 0.494118
0.000000 0.450980 0.494118
0.180392 0.439216 0.486275
0.431373 0.439216 0.490196
0.635294 0.545098 0.521569
0.827451 0.607843 0.549020
1.000000 0.623529 0.498039
1.000000 0.564706 0.145098
1.000000 0.549020 0.262745
0.000000 0.552941 0.556863
0.003922 0.560784 0.545098
0.278431 0.552941 0.541176
0.435294 0.564706 0.537255
0.658824 0.611765 0.564706
0.835294 0.686275 0.596078
1.000000 0.709804 0.572549
1.000000 0.654902 0.325490
1.000000 0.619608 0.333333
0.286275 0.643137 0.615686
0.325490 0.647059 0.600000
0.384314 0.658824 0.615686
0.447059 0.658824 0.588235
0.584314 0.686275 0.572549
0.815686 0.725490 0.603922
0.984314 0.768627 0.615686
1.000000 0.745098 0.486275
1.000000 0.709804 0.447059
0.349020 0.760784 0.674510
0.368627 0.752941 0.686275
0.396078 0.760784 0.686275
0.454902 0.768627 0.662745
0.486275 0.788235 0.615686
0.752941 0.819608 0.615686
0.964706 0.823529 0.619608
0.992157 0.819608 0.572549
1.000000 0.784314 0.505882
0.254902 0.866667 0.752941
0.278431 0.866667 0.749020
0.352941 0.870588 0.745098
0.435294 0.890196 0.745098
0.505882 0.894118 0.713725
0.623529 0.921569 0.670588
0.913725 0.937255 0.654902
1.000000 0.886275 0.619608
1.000000 0.854902 0.541176
0.019608 0.984314 0.823529
0.152941 0.992157 0.827451
0.301961 0.996078 0.815686
0.439216 1.000000 0.827451
0.615686 1.000000 0.831373
0.607843 1.000000 0.756863
0.843137 1.000000 0.721569
0.992157 0.992157 0.654902
1.000000 0.913725 0.639216
0.000000 0.349020 0.576471
0.000000 0.325490 0.576471
0.000000 0.278431 0.580392
0.392157 0.266667 0.600000
0.611765 0.274510 0.568627
0.745098 0.388235 0.525490
0.882353 0.564706 0.560784
1.000000 0.592157 0.537255
1.000000 0.509804 0.258824
0.003922 0.376471 0.588235
0.003922 0.364706 0.580392
0.003922 0.309804 0.584314
0.384314 0.301961 0.572549
0.607843 0.305882 0.572549
0.741176 0.427451 0.533333
0.874510 0.568627 0.568627
0.996078 0.607843 0.549020
1.000000 0.525490 0.286275
0.000000 0.431373 0.576471
0.000000 0.431373 0.576471
0.121569 0.403922 0.592157
0.372549 0.384314 0.592157
0.607843 0.400000 0.580392
0.733333 0.494118 0.564706
0.890196 0.611765 0.611765
1.000000 0.631373 0.568627
1.000000 0.552941 0.317647
0.007843 0.490196 0.588235
0.000000 0.498039 0.580392
0.192157 0.482353 0.580392
0.380392 0.478431 0.600000
0.584314 0.498039 0.596078
0.701961 0.580392 0.600000
0.909804 0.654902 0.639216
1.000000 0.678431 0.596078
1.000000 0.592157 0.345098
0.000000 0.580392 0.615686
0.133333 0.576471 0.607843
0.301961 0.576471 0.615686
0.423529 0.576471 0.603922
0.560784 0.576471 0.611765
0.741176 0.662745 0.658824
0.949020 0.729412 0.682353
0.996078 0.733333 0.627451
0.996078 0.631373 0.360784
0.254902 0.662745 0.658824
0.305882 0.650980 0.654902
0.384314 0.654902 0.666667
0.466667 0.658824 0.647059
0.556863 0.662745 0.635294
0.764706 0.725490 0.686275
0.972549 0.796078 0.721569
1.000000 0.792157 0.666667
1.000000 0.709804 0.470588
0.360784 0.737255 0.721569
0.376471 0.741176 0.705882
0.431373 0.749020 0.713725
0.513725 0.760784 0.729412
0.568627 0.772549 0.713725
0.686275 0.807843 0.678431
0.925490 0.843137 0.729412
1.000000 0.850980 0.713725
1.000000 0.792157 0.556863
0.349020 0.866667 0.803922
0.376471 0.874510 0.807843
0.431373 0.874510 0.803922
0.490196 0.878431 0.800000
0.560784 0.890196 0.796078
0.611765 0.913725 0.733333
0.870588 0.937255 0.733333
0.996078 0.905882 0.741176
0.996078 0.870588 0.639216
0.129412 0.988235 0.870588
0.160784 0.984314 0.862745
0.211765 0.992157 0.862745
0.368627 1.000000 0.874510
0.549020 1.000000 0.866667
0.705882 0.996078 0.858824
0.792157 1.000000 0.792157
0.996078 0.992157 0.768627
0.992157 0.913725 0.635294
0.000000 0.443137 0.678431
0.007843 0.427451 0.686275
0.000000 0.400000 0.682353
0.313725 0.384314 0.682353
0.564706 0.407843 0.694118
0.729412 0.423529 0.658824
0.847059 0.521569 0.631373
0.960784 0.650980 0.674510
1.000000 0.678431 0.654902
0.007843 0.466667 0.666667
0.000000 0.458824 0.670588
0.043137 0.427451 0.682353
0.333333 0.411765 0.682353
0.568627 0.431373 0.690196
0.721569 0.454902 0.662745
0.835294 0.525490 0.639216
0.968627 0.654902 0.666667
1.000000 0.690196 0.662745
0.000000 0.498039 0.674510
0.003922 0.501961 0.670588
0.211765 0.498039 0.666667
0.356863 0.462745 0.678431
0.556863 0.494118 0.686275
0.709804 0.494118 0.658824
0.831373 0.576471 0.654902
0.980392 0.670588 0.686275
1.000000 0.698039 0.670588
0.007843 0.541176 0.658824
0.000000 0.545098 0.658824
0.258824 0.552941 0.674510
0.400000 0.549020 0.690196
0.545098 0.545098 0.686275
0.698039 0.556863 0.674510
0.843137 0.623529 0.674510
0.992157 0.709804 0.717647
0.996078 0.729412 0.686275
0.121569 0.619608 0.694118
0.184314 0.623529 0.678431
0.278431 0.611765 0.682353
0.400000 0.607843 0.670588
0.529412 0.600000 0.694118
0.670588 0.611765 0.686275
0.831373 0.690196 0.705882
1.000000 0.760784 0.749020
0.992157 0.760784 0.698039
0.258824 0.682353 0.729412
0.294118 0.686275 0.725490
0.341176 0.690196 0.713725
0.431373 0.678431 0.705882
0.525490 0.670588 0.701961
0.658824 0.674510 0.709804
0.886275 0.776471 0.764706
0.996078 0.823529 0.788235
0.996078 0.792157 0.709804
0.313725 0.760784 0.752941
0.345098 0.756863 0.768627
0.392157 0.760784 0.768627
0.474510 0.764706 0.768627
0.560784 0.764706 0.756863
0.666667 0.780392 0.760784
0.898039 0.847059 0.811765
1.000000 0.898039 0.843137
0.996078 0.850980 0.749020
0.290196 0.866667 0.827451
0.341176 0.862745 0.819608
0.403922 0.858824 0.839216
0.486275 0.866667 0.831373
0.600000 0.886275 0.850980
0.682353 0.901961 0.850980
0.796078 0.925490 0.811765
1.000000 0.937255 0.858824
0.996078 0.913725 0.807843
0.117647 0.992157 0.917647
0.188235 0.988235 0.921569
0.294118 0.988235 0.909804
0.415686 0.992157 0.917647
0.568627 0.996078 0.913725
0.662745 0.996078 0.905882
0.807843 1.000000 0.886275
0.992157 0.988235 0.870588
1.000000 0.937255 0.788235
0.149020 0.576471 0.788235
0.188235 0.568627 0.784314
0.250980 0.549020 0.784314
0.352941 0.521569 0.788235
0.549020 0.529412 0.788235
0.737255 0.537255 0.800000
0.854902 0.545098 0.768627
0.980392 0.600000 0.737255
0.996078 0.705882 0.756863
0.172549 0.588235 0.776471
0.227451 0.580392 0.784314
0.282353 0.564706 0.784314
0.372549 0.533333 0.784314
0.545098 0.545098 0.796078
0.729412 0.549020 0.800000
0.850980 0.549020 0.760784
0.984314 0.607843 0.752941
1.000000 0.721569 0.760784
0.180392 0.607843 0.768627
0.247059 0.611765 0.780392
0.329412 0.607843 0.780392
0.392157 0.568627 0.784314
0.541176 0.564706 0.800000
0.729412 0.580392 0.811765
0.850980 0.580392 0.764706
0.976471 0.639216 0.752941
1.000000 0.741176 0.776471
0.176471 0.639216 0.780392
0.227451 0.639216 0.792157
0.325490 0.639216 0.784314
0.423529 0.631373 0.796078
0.525490 0.611765 0.796078
0.713725 0.607843 0.807843
0.843137 0.615686 0.780392
0.968627 0.674510 0.756863
1.000000 0.776471 0.800000
0.176471 0.682353 0.796078
0.211765 0.686275 0.792157
0.278431 0.674510 0.784314
0.400000 0.670588 0.784314
0.509804 0.658824 0.800000
0.674510 0.647059 0.807843
0.843137 0.658824 0.800000
0.976471 0.725490 0.792157
0.996078 0.823529 0.819608
0.207843 0.749020 0.827451
0.247059 0.749020 0.831373
0.305882 0.749020 0.819608
0.380392 0.737255 0.811765
0.470588 0.717647 0.788235
0.627451 0.705882 0.811765
0.823529 0.713725 0.803922
0.976471 0.792157 0.823529
1.000000 0.858824 0.866667
0.239216 0.815686 0.874510
0.262745 0.827451 0.870588
0.321569 0.811765 0.858824
0.396078 0.811765 0.854902
0.505882 0.807843 0.847059
0.607843 0.792157 0.831373
0.780392 0.788235 0.835294
0.980392 0.886275 0.878431
0.992157 0.917647 0.894118
0.270588 0.901961 0.909804
0.294118 0.894118 0.905882
0.352941 0.898039 0.917647
0.435294 0.894118 0.913725
0.533333 0.901961 0.901961
0.662745 0.898039 0.898039
0.807843 0.905882 0.894118
0.992157 0.964706 0.941176
1.000000 0.964706 0.945098
0.152941 1.000000 0.976471
0.207843 0.992157 0.980392
0.286275 1.000000 0.980392
0.392157 1.000000 0.976471
0.525490 1.000000 0.972549
0.678431 1.000000 0.964706
0.854902 0.996078 0.980392
0.956863 1.000000 0.956863
1.000000 0.988235 0.960784
0.376471 0.729412 0.956863
0.388235 0.717647 0.952941
0.419608 0.709804 0.956863
0.462745 0.674510 0.956863
0.588235 0.654902 0.960784
0.760784 0.658824 0.952941
0.929412 0.654902 0.941176
0.996078 0.658824 0.905882
1.000000 0.717647 0.862745
0.368627 0.737255 0.976471
0.396078 0.737255 0.949020
0.427451 0.717647 0.956863
0.474510 0.690196 0.952941
0.580392 0.666667 0.960784
0.756863 0.662745 0.956863
0.925490 0.662745 0.941176
0.996078 0.666667 0.901961
1.000000 0.721569 0.870588
0.352941 0.756863 0.956863
0.388235 0.752941 0.956863
0.435294 0.749020 0.956863
0.482353 0.709804 0.956863
0.572549 0.694118 0.956863
0.749020 0.682353 0.949020
0.925490 0.678431 0.952941
1.000000 0.682353 0.913725
1.000000 0.749020 0.874510
0.321569 0.784314 0.964706
0.341176 0.788235 0.960784
0.411765 0.780392 0.968627
0.490196 0.764706 0.964706
0.560784 0.713725 0.968627
0.721569 0.701961 0.960784
0.913725 0.709804 0.960784
1.000000 0.705882 0.925490
1.000000 0.768627 0.890196
0.211765 0.831373 0.976471
0.243137 0.823529 0.972549
0.329412 0.819608 0.976471
0.443137 0.807843 0.968627
0.564706 0.784314 0.972549
0.678431 0.745098 0.964706
0.886275 0.737255 0.960784
1.000000 0.741176 0.941176
1.000000 0.807843 0.890196
0.223529 0.870588 0.988235
0.243137 0.874510 0.988235
0.298039 0.870588 0.992157
0.368627 0.862745 0.992157
0.486275 0.847059 0.988235
0.654902 0.815686 0.984314
0.831373 0.792157 0.988235
1.000000 0.796078 0.956863
1.000000 0.854902 0.929412
0.243137 0.898039 0.992157
0.258824 0.913725 0.984314
0.325490 0.905882 0.992157
0.396078 0.905882 0.996078
0.486275 0.909804 0.988235
0.588235 0.890196 0.992157
0.772549 0.862745 0.988235
0.988235 0.866667 0.988235
1.000000 0.921569 0.949020
0.262745 0.949020 1.000000
0.278431 0.937255 0.980392
0.337255 0.949020 0.984314
0.415686 0.945098 0.988235
0.517647 0.949020 0.992157
0.635294 0.945098 0.996078
0.760784 0.956863 1.000000
0.933333 0.945098 1.000000
1.000000 0.980392 0.980392
0.184314 0.980392 0.988235
0.223529 0.984314 0.980392
0.301961 0.984314 0.980392
0.400000 0.988235 0.984314
0.533333 0.984314 0.988235
0.670588 0.984314 0.988235
0.839216 0.996078 0.996078
0.984314 1.000000 1.000000
1.000000 1.000000 0.992157
