.config/mpv/luts/FGCineBright.cube
#Generated with IWLTBAP LUT Generator
#Website: http://luts.iwltbap.com
TITLE "FGCineBright"
#LUT size
LUT_3D_SIZE 9
#LUT data points
0.074510 0.113725 0.117647
0.098039 0.117647 0.101961
0.258824 0.125490 0.117647
0.537255 0.164706 0.094118
0.780392 0.211765 0.050980
0.929412 0.254902 0.074510
1.000000 0.301961 0.129412
0.996078 0.364706 0.223529
1.000000 0.447059 0.337255
0.054902 0.137255 0.109804
0.113725 0.152941 0.109804
0.290196 0.168627 0.090196
0.564706 0.239216 0.074510
0.796078 0.278431 0.047059
0.929412 0.298039 0.078431
1.000000 0.337255 0.137255
0.996078 0.388235 0.231373
0.996078 0.478431 0.349020
0.019608 0.203922 0.141176
0.054902 0.200000 0.129412
0.290196 0.266667 0.062745
0.639216 0.364706 0.000000
0.823529 0.384314 0.000000
0.952941 0.388235 0.078431
1.000000 0.407843 0.152941
0.996078 0.450980 0.250980
1.000000 0.521569 0.380392
0.007843 0.337255 0.196078
0.000000 0.333333 0.168627
0.188235 0.380392 0.125490
0.615686 0.501961 0.000000
0.839216 0.505882 0.000000
0.976471 0.505882 0.094118
0.996078 0.513725 0.207843
0.996078 0.549020 0.313725
1.000000 0.600000 0.431373
0.000000 0.529412 0.278431
0.007843 0.525490 0.258824
0.000000 0.525490 0.203922
0.474510 0.603922 0.090196
0.811765 0.623529 0.003922
0.968627 0.615686 0.000000
1.000000 0.631373 0.254902
1.000000 0.658824 0.400000
0.996078 0.682353 0.490196
0.007843 0.650980 0.403922
0.007843 0.658824 0.400000
0.007843 0.658824 0.360784
0.298039 0.674510 0.313725
0.662745 0.729412 0.219608
0.949020 0.729412 0.003922
0.996078 0.733333 0.145098
1.000000 0.756863 0.431373
1.000000 0.764706 0.560784
0.364706 0.756863 0.545098
0.403922 0.756863 0.556863
0.400000 0.756863 0.525490
0.435294 0.749020 0.501961
0.580392 0.788235 0.474510
0.831373 0.850980 0.396078
0.992157 0.850980 0.000000
0.988235 0.843137 0.396078
1.000000 0.823529 0.576471
0.474510 0.878431 0.654902
0.494118 0.882353 0.658824
0.525490 0.874510 0.647059
0.525490 0.878431 0.627451
0.576471 0.878431 0.611765
0.772549 0.929412 0.580392
1.000000 0.984314 0.490196
1.000000 0.917647 0.447059
0.996078 0.890196 0.580392
0.552941 0.996078 0.776471
0.580392 1.000000 0.780392
0.627451 0.996078 0.784314
0.643137 1.000000 0.760784
0.666667 0.996078 0.752941
0.760784 0.996078 0.721569
0.913725 1.000000 0.654902
0.996078 0.992157 0.631373
1.000000 0.941176 0.666667
0.078431 0.113725 0.141176
0.137255 0.113725 0.129412
0.286275 0.160784 0.109804
0.576471 0.235294 0.074510
0.807843 0.274510 0.039216
0.937255 0.301961 0.070588
1.000000 0.337255 0.137255
0.996078 0.392157 0.227451
1.000000 0.462745 0.349020
0.062745 0.149020 0.141176
0.117647 0.160784 0.137255
0.290196 0.192157 0.113725
0.619608 0.290196 0.054902
0.819608 0.321569 0.023529
0.956863 0.333333 0.078431
1.000000 0.364706 0.133333
0.996078 0.415686 0.243137
0.996078 0.490196 0.364706
0.039216 0.219608 0.180392
0.086275 0.219608 0.164706
0.290196 0.270588 0.121569
0.635294 0.384314 0.000000
0.847059 0.403922 0.000000
0.956863 0.407843 0.066667
1.000000 0.427451 0.164706
1.000000 0.466667 0.270588
0.996078 0.533333 0.384314
0.000000 0.360784 0.235294
0.007843 0.349020 0.211765
0.192157 0.380392 0.176471
0.623529 0.486275 0.015686
0.831373 0.517647 0.000000
0.980392 0.517647 0.101961
0.996078 0.533333 0.219608
1.000000 0.556863 0.321569
1.000000 0.607843 0.435294
0.003922 0.533333 0.305882
0.000000 0.537255 0.301961
0.000000 0.533333 0.262745
0.470588 0.611765 0.188235
0.800000 0.631373 0.000000
0.960784 0.623529 0.007843
1.000000 0.639216 0.243137
1.000000 0.670588 0.419608
0.992157 0.694118 0.501961
0.000000 0.662745 0.419608
0.152941 0.658824 0.435294
0.176471 0.654902 0.392157
0.325490 0.666667 0.360784
0.654902 0.725490 0.294118
0.937255 0.737255 0.003922
1.000000 0.741176 0.137255
0.996078 0.756863 0.439216
1.000000 0.760784 0.560784
0.380392 0.756863 0.560784
0.411765 0.756863 0.552941
0.443137 0.756863 0.549020
0.447059 0.752941 0.517647
0.588235 0.792157 0.498039
0.839216 0.850980 0.431373
0.996078 0.858824 0.152941
1.000000 0.839216 0.400000
0.992157 0.819608 0.572549
0.474510 0.878431 0.654902
0.494118 0.882353 0.662745
0.545098 0.874510 0.670588
0.541176 0.870588 0.627451
0.576471 0.878431 0.603922
0.756863 0.937255 0.584314
0.996078 0.976471 0.505882
1.000000 0.921569 0.439216
0.992157 0.886275 0.576471
0.552941 0.996078 0.784314
0.572549 1.000000 0.768627
0.631373 1.000000 0.796078
0.662745 0.996078 0.772549
0.678431 0.996078 0.756863
0.764706 0.996078 0.737255
0.921569 0.996078 0.674510
1.000000 0.992157 0.635294
1.000000 0.933333 0.674510
0.090196 0.141176 0.215686
0.168627 0.133333 0.207843
0.270588 0.149020 0.180392
0.584314 0.231373 0.129412
0.823529 0.325490 0.027451
0.956863 0.345098 0.074510
1.000000 0.388235 0.141176
1.000000 0.423529 0.254902
0.988235 0.494118 0.356863
0.066667 0.172549 0.215686
0.137255 0.176471 0.211765
0.258824 0.184314 0.192157
0.592157 0.278431 0.149020
0.839216 0.364706 0.015686
0.964706 0.388235 0.074510
1.000000 0.415686 0.164706
1.000000 0.454902 0.262745
0.992157 0.513725 0.360784
0.003922 0.243137 0.250980
0.094118 0.247059 0.227451
0.270588 0.274510 0.219608
0.623529 0.380392 0.219608
0.835294 0.431373 0.121569
0.980392 0.450980 0.090196
1.000000 0.458824 0.196078
1.000000 0.501961 0.294118
1.000000 0.552941 0.407843
0.000000 0.392157 0.290196
0.000000 0.392157 0.290196
0.188235 0.384314 0.270588
0.603922 0.501961 0.211765
0.827451 0.529412 0.192157
0.976471 0.537255 0.078431
0.996078 0.560784 0.243137
1.000000 0.580392 0.337255
1.000000 0.623529 0.454902
0.000000 0.572549 0.368627
0.000000 0.560784 0.372549
0.149020 0.556863 0.349020
0.458824 0.600000 0.317647
0.776471 0.635294 0.258824
0.960784 0.643137 0.200000
1.000000 0.650980 0.235294
0.996078 0.686275 0.427451
0.996078 0.690196 0.501961
0.196078 0.674510 0.490196
0.278431 0.666667 0.482353
0.352941 0.654902 0.474510
0.392157 0.662745 0.447059
0.666667 0.721569 0.427451
0.925490 0.741176 0.337255
1.000000 0.749020 0.196078
1.000000 0.768627 0.431373
1.000000 0.760784 0.576471
0.415686 0.764706 0.592157
0.427451 0.772549 0.576471
0.498039 0.760784 0.584314
0.498039 0.756863 0.560784
0.584314 0.784314 0.552941
0.827451 0.850980 0.513725
1.000000 0.866667 0.411765
1.000000 0.843137 0.419608
1.000000 0.831373 0.572549
0.478431 0.886275 0.678431
0.501961 0.890196 0.670588
0.552941 0.878431 0.690196
0.560784 0.886275 0.658824
0.592157 0.886275 0.631373
0.749020 0.933333 0.619608
0.984314 0.984314 0.549020
1.000000 0.921569 0.439216
1.000000 0.890196 0.572549
0.533333 1.000000 0.796078
0.556863 1.000000 0.800000
0.611765 0.996078 0.796078
0.694118 1.000000 0.819608
0.705882 1.000000 0.780392
0.760784 1.000000 0.749020
0.917647 1.000000 0.690196
1.000000 1.000000 0.623529
1.000000 0.933333 0.662745
0.137255 0.164706 0.345098
0.211765 0.160784 0.341176
0.384314 0.149020 0.352941
0.564706 0.164706 0.317647
0.780392 0.321569 0.262745
0.956863 0.384314 0.192157
0.996078 0.423529 0.160784
1.000000 0.470588 0.286275
1.000000 0.533333 0.384314
0.101961 0.188235 0.341176
0.203922 0.203922 0.345098
0.360784 0.203922 0.349020
0.549020 0.227451 0.313725
0.784314 0.372549 0.305882
0.949020 0.427451 0.235294
0.996078 0.454902 0.168627
1.000000 0.494118 0.290196
1.000000 0.541176 0.400000
0.000000 0.266667 0.364706
0.090196 0.274510 0.352941
0.290196 0.294118 0.364706
0.498039 0.345098 0.333333
0.784314 0.462745 0.368627
0.941176 0.498039 0.333333
0.996078 0.513725 0.211765
0.996078 0.541176 0.317647
1.000000 0.576471 0.415686
0.000000 0.419608 0.419608
0.003922 0.419608 0.411765
0.247059 0.423529 0.396078
0.556863 0.494118 0.396078
0.772549 0.576471 0.470588
0.933333 0.611765 0.454902
0.996078 0.603922 0.337255
1.000000 0.611765 0.368627
1.000000 0.635294 0.462745
0.000000 0.588235 0.474510
0.098039 0.592157 0.474510
0.325490 0.584314 0.474510
0.450980 0.584314 0.439216
0.733333 0.650980 0.474510
0.917647 0.690196 0.501961
1.000000 0.701961 0.450980
1.000000 0.701961 0.458824
0.992157 0.709804 0.513725
0.317647 0.686275 0.545098
0.364706 0.682353 0.545098
0.439216 0.678431 0.545098
0.486275 0.670588 0.529412
0.650980 0.721569 0.533333
0.886275 0.768627 0.525490
1.000000 0.788235 0.505882
0.996078 0.776471 0.450980
1.000000 0.768627 0.564706
0.439216 0.780392 0.611765
0.462745 0.780392 0.619608
0.513725 0.772549 0.623529
0.560784 0.764706 0.615686
0.596078 0.780392 0.600000
0.815686 0.854902 0.580392
1.000000 0.886275 0.549020
0.996078 0.854902 0.478431
1.000000 0.827451 0.580392
0.474510 0.905882 0.698039
0.482353 0.901961 0.698039
0.545098 0.894118 0.705882
0.611765 0.901961 0.709804
0.627451 0.898039 0.674510
0.745098 0.929412 0.662745
0.968627 0.988235 0.619608
0.996078 0.933333 0.556863
0.996078 0.878431 0.603922
0.498039 1.000000 0.800000
0.533333 0.992157 0.807843
0.592157 1.000000 0.807843
0.690196 0.996078 0.831373
0.733333 0.996078 0.819608
0.764706 1.000000 0.788235
0.901961 1.000000 0.745098
1.000000 0.996078 0.654902
0.996078 0.941176 0.662745
0.219608 0.203922 0.505882
0.290196 0.196078 0.501961
0.447059 0.200000 0.525490
0.615686 0.207843 0.501961
0.772549 0.313725 0.450980
0.862745 0.466667 0.450980
0.996078 0.525490 0.439216
1.000000 0.517647 0.321569
1.000000 0.572549 0.419608
0.192157 0.231373 0.501961
0.274510 0.250980 0.501961
0.431373 0.247059 0.529412
0.607843 0.270588 0.517647
0.768627 0.368627 0.462745
0.858824 0.513725 0.478431
1.000000 0.560784 0.466667
1.000000 0.537255 0.317647
0.996078 0.584314 0.427451
0.000000 0.278431 0.486275
0.149020 0.298039 0.490196
0.364706 0.337255 0.501961
0.592157 0.364706 0.521569
0.717647 0.454902 0.482353
0.858824 0.568627 0.525490
0.996078 0.615686 0.509804
1.000000 0.584314 0.388235
1.000000 0.611765 0.458824
0.007843 0.427451 0.529412
0.011765 0.423529 0.529412
0.278431 0.427451 0.509804
0.521569 0.482353 0.525490
0.670588 0.564706 0.521569
0.870588 0.643137 0.596078
1.000000 0.682353 0.568627
0.996078 0.658824 0.466667
1.000000 0.650980 0.478431
0.003922 0.580392 0.576471
0.141176 0.592157 0.572549
0.349020 0.588235 0.556863
0.505882 0.600000 0.549020
0.694118 0.643137 0.572549
0.882353 0.725490 0.635294
1.000000 0.760784 0.623529
1.000000 0.741176 0.537255
1.000000 0.709804 0.525490
0.349020 0.690196 0.607843
0.400000 0.686275 0.607843
0.478431 0.694118 0.611765
0.549020 0.686275 0.600000
0.631373 0.694118 0.584314
0.870588 0.768627 0.631373
1.000000 0.819608 0.654902
0.996078 0.811765 0.592157
1.000000 0.772549 0.584314
0.470588 0.796078 0.678431
0.490196 0.792157 0.658824
0.521569 0.792157 0.670588
0.584314 0.784314 0.662745
0.639216 0.776471 0.650980
0.792157 0.843137 0.662745
0.996078 0.898039 0.647059
1.000000 0.874510 0.627451
0.992157 0.827451 0.600000
0.431373 0.913725 0.733333
0.458824 0.917647 0.733333
0.513725 0.909804 0.737255
0.596078 0.913725 0.737255
0.674510 0.901961 0.737255
0.725490 0.913725 0.709804
0.960784 0.992157 0.698039
0.996078 0.949020 0.666667
1.000000 0.890196 0.611765
0.411765 0.996078 0.815686
0.454902 1.000000 0.823529
0.525490 1.000000 0.831373
0.643137 1.000000 0.843137
0.772549 0.996078 0.858824
0.800000 1.000000 0.831373
0.905882 1.000000 0.803922
0.996078 1.000000 0.733333
1.000000 0.933333 0.674510
0.313725 0.274510 0.623529
0.356863 0.278431 0.627451
0.486275 0.290196 0.639216
0.658824 0.313725 0.643137
0.752941 0.388235 0.603922
0.862745 0.513725 0.592157
0.945098 0.596078 0.588235
1.000000 0.650980 0.588235
0.996078 0.643137 0.501961
0.294118 0.305882 0.615686
0.360784 0.317647 0.623529
0.466667 0.341176 0.635294
0.635294 0.360784 0.647059
0.733333 0.431373 0.611765
0.858824 0.537255 0.596078
0.941176 0.607843 0.596078
1.000000 0.658824 0.611765
1.000000 0.650980 0.525490
0.211765 0.341176 0.611765
0.286275 0.364706 0.603922
0.435294 0.407843 0.611765
0.596078 0.439216 0.635294
0.721569 0.501961 0.615686
0.819608 0.572549 0.607843
0.941176 0.650980 0.615686
1.000000 0.698039 0.627451
1.000000 0.670588 0.529412
0.137255 0.423529 0.619608
0.203922 0.431373 0.607843
0.356863 0.454902 0.603922
0.560784 0.529412 0.627451
0.690196 0.572549 0.619608
0.803922 0.627451 0.615686
0.964706 0.698039 0.654902
1.000000 0.741176 0.647059
0.992157 0.701961 0.556863
0.258824 0.564706 0.650980
0.290196 0.568627 0.639216
0.407843 0.580392 0.623529
0.505882 0.584314 0.619608
0.650980 0.627451 0.627451
0.788235 0.694118 0.654902
0.988235 0.764706 0.705882
1.000000 0.792157 0.690196
0.996078 0.725490 0.556863
0.376471 0.682353 0.690196
0.403922 0.678431 0.674510
0.458824 0.690196 0.666667
0.541176 0.694118 0.666667
0.639216 0.701961 0.658824
0.827451 0.768627 0.694118
0.996078 0.847059 0.756863
0.996078 0.850980 0.745098
1.000000 0.776471 0.607843
0.439216 0.784314 0.721569
0.450980 0.792157 0.717647
0.513725 0.792157 0.729412
0.596078 0.803922 0.725490
0.662745 0.811765 0.721569
0.741176 0.819608 0.705882
0.988235 0.913725 0.749020
1.000000 0.905882 0.764706
1.000000 0.835294 0.666667
0.439216 0.921569 0.807843
0.458824 0.933333 0.811765
0.501961 0.933333 0.796078
0.580392 0.941176 0.796078
0.662745 0.937255 0.796078
0.745098 0.925490 0.776471
0.921569 0.988235 0.784314
1.000000 0.960784 0.780392
1.000000 0.909804 0.713725
0.321569 1.000000 0.858824
0.364706 1.000000 0.847059
0.419608 0.996078 0.850980
0.552941 1.000000 0.866667
0.721569 1.000000 0.874510
0.878431 1.000000 0.913725
0.905882 1.000000 0.874510
0.992157 1.000000 0.843137
1.000000 0.937255 0.666667
0.431373 0.396078 0.713725
0.470588 0.403922 0.721569
0.549020 0.423529 0.725490
0.662745 0.454902 0.729412
0.819608 0.498039 0.749020
0.858824 0.568627 0.713725
1.000000 0.623529 0.701961
1.000000 0.674510 0.682353
0.992157 0.741176 0.701961
0.419608 0.419608 0.709804
0.474510 0.435294 0.713725
0.541176 0.454902 0.709804
0.662745 0.482353 0.737255
0.811765 0.517647 0.749020
0.854902 0.584314 0.705882
0.992157 0.635294 0.705882
1.000000 0.686275 0.690196
1.000000 0.749020 0.701961
0.388235 0.447059 0.709804
0.443137 0.462745 0.721569
0.533333 0.505882 0.717647
0.643137 0.525490 0.721569
0.784314 0.564706 0.741176
0.843137 0.607843 0.709804
0.984314 0.654902 0.713725
1.000000 0.709804 0.705882
1.000000 0.760784 0.709804
0.294118 0.466667 0.701961
0.364706 0.478431 0.701961
0.474510 0.525490 0.701961
0.607843 0.588235 0.717647
0.749020 0.611765 0.737255
0.819608 0.650980 0.717647
0.956863 0.694118 0.721569
0.996078 0.756863 0.737255
1.000000 0.792157 0.729412
0.360784 0.580392 0.717647
0.400000 0.580392 0.709804
0.435294 0.588235 0.701961
0.525490 0.592157 0.694118
0.686275 0.650980 0.725490
0.811765 0.686275 0.737255
0.933333 0.733333 0.729412
1.000000 0.811765 0.772549
1.000000 0.815686 0.760784
0.427451 0.682353 0.760784
0.443137 0.686275 0.745098
0.486275 0.690196 0.745098
0.545098 0.686275 0.733333
0.615686 0.690196 0.717647
0.768627 0.729412 0.725490
0.941176 0.811765 0.784314
1.000000 0.886275 0.831373
1.000000 0.854902 0.780392
0.454902 0.788235 0.800000
0.458824 0.788235 0.796078
0.501961 0.792157 0.796078
0.556863 0.800000 0.788235
0.643137 0.807843 0.792157
0.756863 0.819608 0.780392
0.972549 0.901961 0.847059
1.000000 0.945098 0.917647
1.000000 0.905882 0.835294
0.376471 0.933333 0.886275
0.396078 0.929412 0.874510
0.435294 0.937255 0.886275
0.545098 0.929412 0.878431
0.658824 0.952941 0.874510
0.780392 0.956863 0.866667
0.862745 0.952941 0.843137
0.996078 0.984314 0.917647
0.996078 0.952941 0.878431
0.305882 0.992157 0.956863
0.341176 1.000000 0.941176
0.427451 1.000000 0.949020
0.541176 1.000000 0.933333
0.678431 1.000000 0.913725
0.819608 1.000000 0.925490
0.972549 1.000000 0.968627
0.992157 1.000000 0.949020
0.996078 0.972549 0.847059
0.592157 0.549020 0.847059
0.611765 0.560784 0.843137
0.658824 0.568627 0.843137
0.741176 0.580392 0.854902
0.850980 0.596078 0.870588
0.996078 0.623529 0.890196
1.000000 0.682353 0.843137
1.000000 0.721569 0.835294
1.000000 0.764706 0.792157
0.580392 0.568627 0.839216
0.603922 0.576471 0.839216
0.662745 0.572549 0.847059
0.733333 0.588235 0.858824
0.850980 0.611765 0.874510
0.996078 0.635294 0.898039
0.996078 0.690196 0.847059
0.996078 0.737255 0.843137
1.000000 0.772549 0.788235
0.552941 0.572549 0.831373
0.588235 0.580392 0.843137
0.635294 0.603922 0.835294
0.717647 0.615686 0.854902
0.823529 0.627451 0.866667
0.988235 0.658824 0.894118
1.000000 0.709804 0.850980
1.000000 0.756863 0.839216
0.996078 0.796078 0.815686
0.494118 0.576471 0.831373
0.529412 0.592157 0.835294
0.580392 0.615686 0.839216
0.678431 0.647059 0.847059
0.792157 0.666667 0.862745
0.949020 0.686275 0.894118
1.000000 0.741176 0.870588
1.000000 0.788235 0.858824
1.000000 0.827451 0.831373
0.462745 0.627451 0.854902
0.470588 0.623529 0.847059
0.498039 0.627451 0.843137
0.596078 0.650980 0.843137
0.741176 0.690196 0.858824
0.890196 0.721569 0.890196
0.992157 0.780392 0.882353
0.988235 0.831373 0.866667
0.996078 0.882353 0.866667
0.450980 0.721569 0.882353
0.466667 0.721569 0.886275
0.501961 0.717647 0.878431
0.549020 0.713725 0.862745
0.615686 0.690196 0.854902
0.796078 0.760784 0.874510
0.976471 0.811765 0.898039
1.000000 0.870588 0.894118
1.000000 0.929412 0.913725
0.427451 0.823529 0.925490
0.447059 0.827451 0.933333
0.478431 0.819608 0.925490
0.533333 0.823529 0.929412
0.619608 0.819608 0.901961
0.705882 0.803922 0.882353
0.913725 0.850980 0.894118
0.996078 0.952941 0.945098
1.000000 0.976471 0.976471
0.400000 0.941176 0.984314
0.411765 0.933333 0.984314
0.450980 0.941176 0.988235
0.517647 0.941176 0.988235
0.603922 0.952941 0.976471
0.725490 0.952941 0.964706
0.882353 0.968627 0.956863
0.996078 0.996078 0.996078
1.000000 0.996078 1.000000
0.462745 1.000000 1.000000
0.482353 0.996078 1.000000
0.517647 1.000000 0.996078
0.584314 1.000000 0.992157
0.686275 1.000000 1.000000
0.835294 0.992157 0.988235
0.996078 0.996078 0.996078
1.000000 1.000000 1.000000
1.000000 0.996078 1.000000
0.745098 0.701961 1.000000
0.756863 0.701961 1.000000
0.792157 0.701961 1.000000
0.850980 0.709804 0.992157
0.925490 0.713725 1.000000
1.000000 0.737255 0.992157
0.996078 0.780392 0.996078
1.000000 0.847059 0.952941
0.996078 0.901961 0.952941
0.737255 0.713725 1.000000
0.752941 0.709804 1.000000
0.792157 0.713725 1.000000
0.843137 0.717647 1.000000
0.921569 0.725490 1.000000
0.996078 0.741176 1.000000
1.000000 0.784314 1.000000
0.996078 0.854902 0.956863
0.996078 0.905882 0.945098
0.698039 0.713725 1.000000
0.725490 0.717647 1.000000
0.776471 0.733333 1.000000
0.823529 0.733333 1.000000
0.905882 0.745098 1.000000
1.000000 0.756863 1.000000
0.996078 0.800000 1.000000
1.000000 0.874510 0.964706
1.000000 0.933333 0.956863
0.654902 0.721569 1.000000
0.674510 0.725490 0.992157
0.721569 0.733333 0.996078
0.800000 0.760784 1.000000
0.882353 0.772549 1.000000
0.980392 0.784314 1.000000
1.000000 0.827451 0.996078
1.000000 0.890196 0.976471
1.000000 0.941176 0.960784
0.568627 0.725490 1.000000
0.580392 0.725490 1.000000
0.627451 0.733333 0.996078
0.725490 0.764706 1.000000
0.843137 0.792157 1.000000
0.941176 0.815686 1.000000
1.000000 0.858824 1.000000
0.996078 0.925490 0.988235
0.996078 0.972549 0.988235
0.560784 0.784314 1.000000
0.568627 0.784314 1.000000
0.600000 0.784314 0.996078
0.635294 0.780392 0.996078
0.725490 0.784314 1.000000
0.886275 0.854902 1.000000
0.992157 0.894118 1.000000
0.992157 0.964706 0.992157
1.000000 0.996078 1.000000
0.545098 0.850980 1.000000
0.560784 0.847059 1.000000
0.592157 0.847059 1.000000
0.635294 0.843137 1.000000
0.701961 0.850980 0.996078
0.772549 0.850980 0.988235
0.956863 0.925490 1.000000
1.000000 0.996078 1.000000
1.000000 1.000000 0.992157
0.545098 0.898039 1.000000
0.549020 0.901961 0.996078
0.588235 0.909804 0.996078
0.631373 0.913725 1.000000
0.705882 0.921569 1.000000
0.803922 0.933333 1.000000
0.921569 0.960784 1.000000
1.000000 1.000000 1.000000
1.000000 1.000000 1.000000
0.494118 0.964706 0.988235
0.509804 0.972549 1.000000
0.549020 0.976471 1.000000
0.619608 0.972549 1.000000
0.709804 0.980392 1.000000
0.839216 0.988235 1.000000
0.992157 0.996078 1.000000
1.000000 1.000000 1.000000
1.000000 0.996078 1.000000
