.config/mpv/luts/FGCineTealOrange1.cube
#Generated with IWLTBAP LUT Generator
#Website: http://luts.iwltbap.com
TITLE "FGCineTealOrange1"
#LUT size
LUT_3D_SIZE 5
#LUT data points
0.050980 0.109804 0.129412
0.211765 0.129412 0.117647
0.607843 0.200000 0.054902
0.996078 0.294118 0.003922
0.992157 0.364706 0.000000
0.043137 0.168627 0.149020
0.227451 0.200000 0.121569
0.639216 0.243137 0.031373
0.996078 0.329412 0.003922
1.000000 0.376471 0.000000
0.043137 0.376471 0.243137
0.270588 0.427451 0.231373
0.717647 0.458824 0.121569
0.992157 0.439216 0.000000
0.996078 0.411765 0.003922
0.250980 0.654902 0.384314
0.396078 0.678431 0.380392
0.737255 0.717647 0.317647
1.000000 0.650980 0.196078
1.000000 0.580392 0.000000
0.682353 0.898039 0.635294
0.733333 0.898039 0.639216
0.843137 0.917647 0.607843
1.000000 0.925490 0.498039
1.000000 0.788235 0.372549
0.003922 0.145098 0.239216
0.172549 0.160784 0.243137
0.525490 0.239216 0.184314
0.972549 0.305882 0.082353
1.000000 0.368627 0.000000
0.007843 0.203922 0.247059
0.160784 0.223529 0.223529
0.533333 0.266667 0.215686
0.945098 0.325490 0.117647
1.000000 0.380392 0.000000
0.137255 0.396078 0.341176
0.211765 0.396078 0.317647
0.627451 0.435294 0.266667
0.960784 0.423529 0.188235
0.996078 0.407843 0.000000
0.278431 0.643137 0.431373
0.376471 0.643137 0.435294
0.670588 0.690196 0.376471
0.992157 0.654902 0.321569
0.996078 0.584314 0.184314
0.694118 0.886275 0.658824
0.713725 0.886275 0.647059
0.815686 0.901961 0.619608
1.000000 0.925490 0.560784
1.000000 0.796078 0.419608
0.003922 0.345098 0.513725
0.000000 0.301961 0.513725
0.658824 0.329412 0.564706
0.921569 0.411765 0.450980
0.996078 0.482353 0.403922
0.007843 0.380392 0.505882
0.003922 0.368627 0.498039
0.611765 0.400000 0.549020
0.878431 0.474510 0.454902
1.000000 0.494118 0.415686
0.000000 0.505882 0.517647
0.219608 0.509804 0.513725
0.529412 0.490196 0.486275
0.890196 0.505882 0.454902
1.000000 0.521569 0.400000
0.470588 0.729412 0.623529
0.556863 0.725490 0.619608
0.607843 0.682353 0.556863
0.945098 0.690196 0.525490
1.000000 0.643137 0.470588
0.800000 0.901961 0.764706
0.811765 0.894118 0.764706
0.800000 0.890196 0.709804
0.992157 0.929412 0.690196
0.996078 0.854902 0.619608
0.003922 0.537255 0.772549
0.003922 0.517647 0.768627
0.486275 0.513725 0.788235
0.956863 0.650980 0.807843
0.992157 0.745098 0.776471
0.003922 0.549020 0.733333
0.007843 0.549020 0.729412
0.505882 0.549020 0.760784
0.945098 0.674510 0.796078
1.000000 0.760784 0.764706
0.003922 0.627451 0.745098
0.007843 0.635294 0.737255
0.486275 0.627451 0.721569
0.905882 0.717647 0.772549
1.000000 0.780392 0.752941
0.388235 0.764706 0.760784
0.470588 0.749020 0.749020
0.654902 0.752941 0.741176
0.835294 0.741176 0.701961
1.000000 0.784314 0.713725
0.756863 0.945098 0.882353
0.780392 0.949020 0.882353
0.850980 0.933333 0.866667
0.901961 0.921569 0.803922
0.996078 0.929412 0.819608
0.003922 0.686275 0.960784
0.000000 0.701961 0.949020
0.682353 0.764706 0.941176
0.917647 0.823529 0.956863
1.000000 0.917647 0.984314
0.000000 0.705882 0.945098
0.000000 0.717647 0.945098
0.678431 0.772549 0.945098
0.913725 0.839216 0.956863
1.000000 0.913725 0.984314
0.000000 0.745098 0.956863
0.011765 0.752941 0.937255
0.588235 0.792157 0.937255
0.905882 0.850980 0.956863
0.984314 0.933333 0.968627
0.176471 0.839216 0.952941
0.372549 0.839216 0.964706
0.596078 0.850980 0.960784
0.843137 0.874510 0.952941
1.000000 0.956863 0.980392
0.678431 0.952941 0.980392
0.725490 0.956863 0.988235
0.803922 0.964706 0.980392
0.917647 0.972549 0.976471
1.000000 1.000000 1.000000
