.config/mpv/luts/FGCineWarm.cube
#Generated with IWLTBAP LUT Generator
#Website: http://luts.iwltbap.com
TITLE "FGCineWarm"
#LUT size
LUT_3D_SIZE 5
#LUT data points
0.066667 0.090196 0.090196
0.250980 0.105882 0.082353
0.745098 0.200000 0.000000
0.988235 0.286275 0.000000
0.996078 0.368627 0.196078
0.000000 0.200000 0.109804
0.290196 0.239216 0.031373
0.796078 0.368627 0.003922
1.000000 0.380392 0.000000
0.992157 0.435294 0.207843
0.000000 0.549020 0.270588
0.003922 0.572549 0.003922
0.756863 0.580392 0.011765
1.000000 0.592157 0.000000
1.000000 0.580392 0.258824
0.003922 0.768627 0.533333
0.000000 0.768627 0.447059
0.486275 0.807843 0.305882
0.992157 0.768627 0.011765
0.992157 0.772549 0.470588
0.278431 0.996078 0.772549
0.427451 0.996078 0.756863
0.403922 0.996078 0.662745
0.886275 0.996078 0.552941
1.000000 0.913725 0.647059
0.000000 0.121569 0.180392
0.250980 0.109804 0.156863
0.788235 0.305882 0.000000
0.992157 0.364706 0.003922
1.000000 0.403922 0.211765
0.000000 0.215686 0.211765
0.278431 0.250980 0.188235
0.811765 0.427451 0.000000
1.000000 0.439216 0.007843
1.000000 0.454902 0.215686
0.003922 0.556863 0.388235
0.003922 0.568627 0.266667
0.737255 0.588235 0.200000
0.996078 0.607843 0.000000
0.996078 0.596078 0.298039
0.011765 0.768627 0.592157
0.266667 0.760784 0.572549
0.505882 0.796078 0.447059
1.000000 0.784314 0.325490
1.000000 0.764706 0.478431
0.254902 1.000000 0.780392
0.407843 1.000000 0.768627
0.458824 1.000000 0.698039
0.886275 0.996078 0.596078
1.000000 0.913725 0.639216
0.000000 0.266667 0.443137
0.168627 0.184314 0.462745
0.658824 0.215686 0.388235
0.996078 0.454902 0.309804
0.996078 0.462745 0.227451
0.000000 0.360784 0.458824
0.137255 0.325490 0.474510
0.627451 0.407843 0.450980
1.000000 0.545098 0.407843
1.000000 0.501961 0.247059
0.000000 0.552941 0.556863
0.278431 0.552941 0.541176
0.658824 0.611765 0.564706
1.000000 0.709804 0.572549
1.000000 0.619608 0.333333
0.349020 0.760784 0.674510
0.396078 0.760784 0.686275
0.486275 0.788235 0.615686
0.964706 0.823529 0.619608
1.000000 0.784314 0.505882
0.019608 0.984314 0.823529
0.301961 0.996078 0.815686
0.615686 1.000000 0.831373
0.843137 1.000000 0.721569
1.000000 0.913725 0.639216
0.000000 0.443137 0.678431
0.000000 0.400000 0.682353
0.564706 0.407843 0.694118
0.847059 0.521569 0.631373
1.000000 0.678431 0.654902
0.000000 0.498039 0.674510
0.211765 0.498039 0.666667
0.556863 0.494118 0.686275
0.831373 0.576471 0.654902
1.000000 0.698039 0.670588
0.121569 0.619608 0.694118
0.278431 0.611765 0.682353
0.529412 0.600000 0.694118
0.831373 0.690196 0.705882
0.992157 0.760784 0.698039
0.313725 0.760784 0.752941
0.392157 0.760784 0.768627
0.560784 0.764706 0.756863
0.898039 0.847059 0.811765
0.996078 0.850980 0.749020
0.117647 0.992157 0.917647
0.294118 0.988235 0.909804
0.568627 0.996078 0.913725
0.807843 1.000000 0.886275
1.000000 0.937255 0.788235
0.376471 0.729412 0.956863
0.419608 0.709804 0.956863
0.588235 0.654902 0.960784
0.929412 0.654902 0.941176
1.000000 0.717647 0.862745
0.352941 0.756863 0.956863
0.435294 0.749020 0.956863
0.572549 0.694118 0.956863
0.925490 0.678431 0.952941
1.000000 0.749020 0.874510
0.211765 0.831373 0.976471
0.329412 0.819608 0.976471
0.564706 0.784314 0.972549
0.886275 0.737255 0.960784
1.000000 0.807843 0.890196
0.243137 0.898039 0.992157
0.325490 0.905882 0.992157
0.486275 0.909804 0.988235
0.772549 0.862745 0.988235
1.000000 0.921569 0.949020
0.184314 0.980392 0.988235
0.301961 0.984314 0.980392
0.533333 0.984314 0.988235
0.839216 0.996078 0.996078
1.000000 1.000000 0.992157
