.config/mpv/luts/FGCineCold.cube
#Generated with IWLTBAP LUT Generator
#Website: http://luts.iwltbap.com
TITLE "FGCineCold"
#LUT size
LUT_3D_SIZE 25
#LUT data points
0.000000 0.003922 0.000000
0.015686 0.000000 0.003922
0.062745 0.000000 0.003922
0.101961 0.000000 0.003922
0.149020 0.011765 0.003922
0.192157 0.019608 0.007843
0.227451 0.035294 0.007843
0.266667 0.054902 0.015686
0.301961 0.070588 0.007843
0.345098 0.078431 0.027451
0.388235 0.090196 0.035294
0.427451 0.105882 0.050980
0.478431 0.117647 0.066667
0.525490 0.137255 0.078431
0.580392 0.152941 0.101961
0.619608 0.156863 0.109804
0.670588 0.168627 0.117647
0.713725 0.188235 0.145098
0.756863 0.200000 0.160784
0.796078 0.215686 0.176471
0.839216 0.231373 0.184314
0.882353 0.243137 0.192157
0.925490 0.262745 0.211765
0.964706 0.278431 0.227451
0.992157 0.298039 0.239216
0.000000 0.027451 0.000000
0.007843 0.031373 0.000000
0.074510 0.031373 0.007843
0.109804 0.035294 0.011765
0.145098 0.050980 0.019608
0.196078 0.054902 0.007843
0.239216 0.066667 0.023529
0.262745 0.078431 0.015686
0.305882 0.086275 0.027451
0.349020 0.101961 0.035294
0.392157 0.113725 0.043137
0.431373 0.121569 0.054902
0.478431 0.129412 0.066667
0.525490 0.145098 0.082353
0.576471 0.152941 0.101961
0.627451 0.172549 0.113725
0.666667 0.184314 0.125490
0.713725 0.196078 0.145098
0.752941 0.215686 0.160784
0.796078 0.227451 0.176471
0.839216 0.239216 0.188235
0.886275 0.250980 0.200000
0.925490 0.270588 0.215686
0.964706 0.286275 0.231373
0.996078 0.298039 0.250980
0.003922 0.078431 0.003922
0.015686 0.086275 0.000000
0.070588 0.082353 0.000000
0.113725 0.086275 0.007843
0.160784 0.078431 0.003922
0.207843 0.082353 0.023529
0.235294 0.090196 0.015686
0.278431 0.101961 0.027451
0.317647 0.113725 0.031373
0.360784 0.121569 0.047059
0.392157 0.129412 0.054902
0.439216 0.145098 0.070588
0.490196 0.156863 0.086275
0.533333 0.156863 0.094118
0.572549 0.176471 0.105882
0.623529 0.188235 0.121569
0.670588 0.196078 0.133333
0.709804 0.203922 0.149020
0.760784 0.223529 0.168627
0.800000 0.239216 0.184314
0.847059 0.254902 0.192157
0.890196 0.266667 0.211765
0.921569 0.278431 0.211765
0.968627 0.290196 0.235294
1.000000 0.313725 0.262745
0.000000 0.129412 0.015686
0.023529 0.125490 0.019608
0.066667 0.129412 0.015686
0.117647 0.137255 0.011765
0.152941 0.133333 0.015686
0.203922 0.137255 0.035294
0.243137 0.133333 0.039216
0.286275 0.137255 0.047059
0.321569 0.141176 0.047059
0.364706 0.149020 0.066667
0.400000 0.160784 0.078431
0.443137 0.168627 0.078431
0.494118 0.176471 0.094118
0.529412 0.184314 0.105882
0.584314 0.200000 0.125490
0.631373 0.203922 0.137255
0.674510 0.215686 0.145098
0.717647 0.227451 0.156863
0.760784 0.239216 0.172549
0.796078 0.254902 0.184314
0.839216 0.262745 0.203922
0.878431 0.274510 0.211765
0.925490 0.286275 0.227451
0.964706 0.309804 0.247059
0.996078 0.325490 0.258824
0.000000 0.176471 0.023529
0.015686 0.180392 0.031373
0.054902 0.180392 0.027451
0.109804 0.176471 0.035294
0.156863 0.188235 0.035294
0.200000 0.188235 0.050980
0.247059 0.184314 0.054902
0.286275 0.180392 0.066667
0.329412 0.184314 0.078431
0.364706 0.184314 0.090196
0.407843 0.188235 0.090196
0.454902 0.196078 0.101961
0.498039 0.207843 0.109804
0.545098 0.215686 0.121569
0.596078 0.223529 0.137255
0.643137 0.231373 0.149020
0.682353 0.243137 0.164706
0.721569 0.247059 0.172549
0.760784 0.258824 0.184314
0.803922 0.266667 0.196078
0.839216 0.282353 0.203922
0.882353 0.290196 0.215686
0.921569 0.301961 0.227451
0.968627 0.313725 0.243137
1.000000 0.329412 0.262745
0.003922 0.227451 0.050980
0.000000 0.223529 0.047059
0.047059 0.227451 0.047059
0.101961 0.231373 0.054902
0.160784 0.231373 0.066667
0.207843 0.239216 0.078431
0.250980 0.243137 0.090196
0.294118 0.239216 0.094118
0.341176 0.227451 0.094118
0.384314 0.231373 0.109804
0.431373 0.231373 0.117647
0.474510 0.243137 0.129412
0.521569 0.243137 0.141176
0.568627 0.250980 0.145098
0.619608 0.262745 0.160784
0.662745 0.262745 0.172549
0.705882 0.274510 0.176471
0.737255 0.282353 0.192157
0.780392 0.286275 0.200000
0.815686 0.298039 0.211765
0.862745 0.313725 0.231373
0.905882 0.313725 0.239216
0.949020 0.329412 0.254902
0.980392 0.345098 0.266667
1.000000 0.352941 0.294118
0.000000 0.270588 0.082353
0.011765 0.262745 0.066667
0.027451 0.270588 0.078431
0.090196 0.270588 0.078431
0.141176 0.270588 0.086275
0.188235 0.290196 0.101961
0.247059 0.286275 0.090196
0.301961 0.286275 0.109804
0.341176 0.282353 0.121569
0.396078 0.278431 0.129412
0.435294 0.278431 0.141176
0.486275 0.278431 0.152941
0.533333 0.286275 0.164706
0.584314 0.290196 0.176471
0.627451 0.301961 0.184314
0.666667 0.298039 0.188235
0.713725 0.305882 0.200000
0.749020 0.313725 0.207843
0.792157 0.321569 0.219608
0.835294 0.325490 0.231373
0.874510 0.337255 0.243137
0.905882 0.345098 0.250980
0.945098 0.356863 0.262745
0.992157 0.364706 0.262745
1.000000 0.380392 0.298039
0.000000 0.305882 0.098039
0.011765 0.313725 0.109804
0.011765 0.321569 0.105882
0.086275 0.317647 0.105882
0.137255 0.317647 0.125490
0.188235 0.321569 0.121569
0.247059 0.325490 0.125490
0.294118 0.333333 0.137255
0.345098 0.337255 0.149020
0.388235 0.333333 0.156863
0.443137 0.329412 0.164706
0.498039 0.325490 0.180392
0.549020 0.329412 0.192157
0.600000 0.329412 0.200000
0.643137 0.337255 0.196078
0.686275 0.341176 0.203922
0.729412 0.341176 0.211765
0.764706 0.349020 0.223529
0.807843 0.349020 0.239216
0.839216 0.356863 0.243137
0.878431 0.364706 0.254902
0.921569 0.368627 0.262745
0.956863 0.380392 0.282353
1.000000 0.396078 0.286275
1.000000 0.407843 0.301961
0.000000 0.352941 0.113725
0.003922 0.352941 0.125490
0.027451 0.352941 0.133333
0.086275 0.356863 0.133333
0.133333 0.368627 0.133333
0.188235 0.364706 0.133333
0.239216 0.368627 0.145098
0.298039 0.380392 0.160784
0.345098 0.380392 0.164706
0.396078 0.384314 0.176471
0.450980 0.380392 0.184314
0.505882 0.380392 0.188235
0.556863 0.384314 0.200000
0.611765 0.384314 0.207843
0.662745 0.380392 0.223529
0.701961 0.380392 0.227451
0.733333 0.380392 0.239216
0.772549 0.380392 0.247059
0.815686 0.384314 0.254902
0.850980 0.388235 0.250980
0.886275 0.392157 0.262745
0.929412 0.400000 0.282353
0.964706 0.415686 0.294118
0.996078 0.423529 0.301961
1.000000 0.431373 0.325490
0.007843 0.400000 0.156863
0.000000 0.400000 0.160784
0.031373 0.400000 0.156863
0.082353 0.403922 0.152941
0.137255 0.403922 0.160784
0.192157 0.411765 0.164706
0.247059 0.411765 0.164706
0.294118 0.419608 0.172549
0.349020 0.427451 0.180392
0.400000 0.435294 0.188235
0.458824 0.435294 0.192157
0.513725 0.439216 0.203922
0.564706 0.439216 0.215686
0.611765 0.435294 0.219608
0.658824 0.435294 0.235294
0.705882 0.427451 0.247059
0.745098 0.419608 0.254902
0.784314 0.419608 0.258824
0.823529 0.415686 0.270588
0.862745 0.423529 0.278431
0.890196 0.427451 0.290196
0.925490 0.431373 0.301961
0.968627 0.443137 0.313725
0.988235 0.447059 0.313725
1.000000 0.462745 0.329412
0.000000 0.450980 0.176471
0.011765 0.454902 0.180392
0.047059 0.458824 0.188235
0.105882 0.462745 0.192157
0.141176 0.458824 0.188235
0.200000 0.462745 0.184314
0.247059 0.474510 0.184314
0.309804 0.474510 0.192157
0.364706 0.482353 0.207843
0.407843 0.486275 0.207843
0.470588 0.494118 0.219608
0.533333 0.498039 0.227451
0.592157 0.501961 0.239216
0.631373 0.494118 0.243137
0.678431 0.486275 0.254902
0.713725 0.482353 0.262745
0.772549 0.474510 0.282353
0.811765 0.470588 0.294118
0.847059 0.466667 0.298039
0.882353 0.474510 0.305882
0.913725 0.478431 0.309804
0.945098 0.478431 0.321569
0.980392 0.490196 0.333333
1.000000 0.498039 0.345098
0.992157 0.509804 0.349020
0.000000 0.498039 0.188235
0.007843 0.501961 0.211765
0.066667 0.501961 0.200000
0.113725 0.509804 0.203922
0.160784 0.498039 0.203922
0.207843 0.505882 0.211765
0.254902 0.517647 0.207843
0.305882 0.517647 0.219608
0.356863 0.521569 0.223529
0.411765 0.533333 0.227451
0.482353 0.537255 0.227451
0.533333 0.545098 0.235294
0.592157 0.545098 0.247059
0.635294 0.549020 0.254902
0.678431 0.545098 0.262745
0.721569 0.533333 0.282353
0.764706 0.529412 0.286275
0.807843 0.525490 0.298039
0.843137 0.521569 0.301961
0.890196 0.513725 0.317647
0.933333 0.517647 0.333333
0.960784 0.521569 0.341176
1.000000 0.525490 0.356863
1.000000 0.533333 0.368627
0.992157 0.541176 0.380392
0.007843 0.549020 0.211765
0.047059 0.549020 0.207843
0.094118 0.533333 0.231373
0.129412 0.552941 0.215686
0.168627 0.552941 0.219608
0.219608 0.556863 0.207843
0.266667 0.556863 0.223529
0.317647 0.560784 0.227451
0.360784 0.564706 0.231373
0.411765 0.568627 0.231373
0.470588 0.568627 0.239216
0.525490 0.580392 0.247059
0.584314 0.580392 0.254902
0.635294 0.588235 0.266667
0.690196 0.584314 0.282353
0.725490 0.576471 0.282353
0.772549 0.576471 0.298039
0.811765 0.576471 0.309804
0.854902 0.564706 0.325490
0.882353 0.560784 0.341176
0.925490 0.560784 0.356863
0.964706 0.560784 0.368627
1.000000 0.560784 0.380392
0.996078 0.572549 0.388235
0.996078 0.580392 0.396078
0.062745 0.588235 0.239216
0.094118 0.588235 0.239216
0.105882 0.588235 0.223529
0.160784 0.584314 0.239216
0.200000 0.584314 0.243137
0.227451 0.592157 0.235294
0.278431 0.592157 0.243137
0.325490 0.596078 0.243137
0.376471 0.596078 0.247059
0.427451 0.600000 0.250980
0.478431 0.607843 0.258824
0.521569 0.611765 0.258824
0.568627 0.619608 0.274510
0.627451 0.623529 0.270588
0.686275 0.631373 0.294118
0.733333 0.631373 0.301961
0.772549 0.627451 0.309804
0.815686 0.623529 0.321569
0.858824 0.615686 0.333333
0.894118 0.607843 0.341176
0.925490 0.607843 0.360784
0.964706 0.611765 0.368627
1.000000 0.603922 0.392157
1.000000 0.607843 0.403922
0.992157 0.615686 0.419608
0.113725 0.619608 0.247059
0.133333 0.623529 0.254902
0.152941 0.627451 0.247059
0.192157 0.623529 0.266667
0.219608 0.635294 0.250980
0.258824 0.631373 0.262745
0.294118 0.627451 0.262745
0.333333 0.635294 0.266667
0.376471 0.639216 0.274510
0.423529 0.639216 0.270588
0.474510 0.647059 0.274510
0.529412 0.650980 0.286275
0.580392 0.654902 0.294118
0.631373 0.658824 0.294118
0.678431 0.658824 0.298039
0.733333 0.666667 0.313725
0.784314 0.666667 0.321569
0.815686 0.666667 0.341176
0.850980 0.658824 0.349020
0.886275 0.654902 0.364706
0.921569 0.647059 0.364706
0.960784 0.654902 0.380392
0.992157 0.647059 0.396078
1.000000 0.650980 0.407843
1.000000 0.650980 0.423529
0.176471 0.678431 0.274510
0.180392 0.682353 0.278431
0.211765 0.674510 0.274510
0.227451 0.686275 0.278431
0.258824 0.674510 0.274510
0.286275 0.682353 0.282353
0.321569 0.674510 0.282353
0.352941 0.686275 0.290196
0.403922 0.686275 0.294118
0.447059 0.690196 0.294118
0.494118 0.694118 0.298039
0.545098 0.694118 0.305882
0.592157 0.694118 0.305882
0.639216 0.701961 0.313725
0.690196 0.709804 0.317647
0.737255 0.713725 0.329412
0.780392 0.717647 0.345098
0.819608 0.713725 0.356863
0.870588 0.713725 0.372549
0.905882 0.705882 0.380392
0.937255 0.709804 0.392157
0.968627 0.701961 0.407843
0.992157 0.709804 0.427451
1.000000 0.705882 0.439216
1.000000 0.713725 0.454902
0.203922 0.709804 0.286275
0.223529 0.705882 0.290196
0.243137 0.709804 0.286275
0.254902 0.713725 0.294118
0.286275 0.709804 0.301961
0.313725 0.709804 0.294118
0.341176 0.721569 0.301961
0.380392 0.713725 0.309804
0.415686 0.717647 0.309804
0.458824 0.713725 0.305882
0.494118 0.725490 0.301961
0.549020 0.725490 0.313725
0.588235 0.733333 0.317647
0.647059 0.737255 0.329412
0.690196 0.737255 0.345098
0.737255 0.749020 0.345098
0.780392 0.749020 0.352941
0.823529 0.752941 0.368627
0.870588 0.756863 0.396078
0.909804 0.752941 0.411765
0.941176 0.752941 0.423529
0.968627 0.752941 0.439216
0.996078 0.749020 0.447059
1.000000 0.749020 0.466667
1.000000 0.749020 0.482353
0.254902 0.749020 0.309804
0.278431 0.745098 0.313725
0.274510 0.752941 0.317647
0.294118 0.756863 0.325490
0.317647 0.745098 0.309804
0.337255 0.752941 0.317647
0.360784 0.752941 0.313725
0.403922 0.756863 0.313725
0.431373 0.752941 0.317647
0.470588 0.760784 0.325490
0.513725 0.760784 0.333333
0.556863 0.764706 0.341176
0.600000 0.764706 0.341176
0.643137 0.764706 0.349020
0.690196 0.772549 0.360784
0.733333 0.776471 0.368627
0.780392 0.784314 0.376471
0.827451 0.792157 0.396078
0.862745 0.792157 0.407843
0.898039 0.796078 0.423529
0.933333 0.796078 0.435294
0.968627 0.792157 0.443137
1.000000 0.788235 0.462745
0.996078 0.792157 0.466667
1.000000 0.788235 0.498039
0.298039 0.788235 0.325490
0.309804 0.792157 0.337255
0.321569 0.792157 0.341176
0.341176 0.792157 0.325490
0.352941 0.780392 0.345098
0.368627 0.788235 0.333333
0.400000 0.792157 0.337255
0.423529 0.792157 0.341176
0.450980 0.792157 0.341176
0.494118 0.796078 0.349020
0.529412 0.796078 0.352941
0.568627 0.796078 0.356863
0.603922 0.800000 0.364706
0.643137 0.807843 0.368627
0.698039 0.811765 0.388235
0.733333 0.807843 0.388235
0.772549 0.815686 0.403922
0.823529 0.815686 0.411765
0.858824 0.823529 0.419608
0.905882 0.831373 0.431373
0.933333 0.823529 0.435294
0.956863 0.839216 0.470588
1.000000 0.827451 0.478431
1.000000 0.819608 0.490196
0.996078 0.831373 0.501961
0.352941 0.819608 0.364706
0.360784 0.819608 0.360784
0.360784 0.819608 0.360784
0.376471 0.827451 0.352941
0.396078 0.831373 0.360784
0.415686 0.827451 0.360784
0.435294 0.831373 0.360784
0.458824 0.831373 0.360784
0.486275 0.831373 0.360784
0.517647 0.827451 0.360784
0.549020 0.835294 0.372549
0.576471 0.839216 0.384314
0.627451 0.835294 0.388235
0.666667 0.839216 0.396078
0.698039 0.843137 0.400000
0.733333 0.843137 0.407843
0.776471 0.847059 0.415686
0.815686 0.850980 0.431373
0.858824 0.854902 0.439216
0.905882 0.862745 0.450980
0.937255 0.862745 0.454902
0.964706 0.866667 0.474510
0.996078 0.866667 0.501961
0.996078 0.854902 0.509804
1.000000 0.866667 0.537255
0.419608 0.874510 0.392157
0.427451 0.874510 0.396078
0.435294 0.870588 0.396078
0.447059 0.870588 0.392157
0.443137 0.874510 0.384314
0.478431 0.874510 0.396078
0.482353 0.874510 0.396078
0.505882 0.874510 0.396078
0.525490 0.878431 0.396078
0.556863 0.874510 0.400000
0.584314 0.870588 0.407843
0.611765 0.878431 0.411765
0.650980 0.882353 0.427451
0.690196 0.882353 0.423529
0.729412 0.882353 0.431373
0.768627 0.878431 0.435294
0.796078 0.890196 0.443137
0.827451 0.894118 0.447059
0.874510 0.898039 0.466667
0.909804 0.898039 0.478431
0.937255 0.901961 0.490196
0.964706 0.905882 0.509804
0.992157 0.905882 0.517647
1.000000 0.909804 0.533333
0.992157 0.909804 0.560784
0.462745 0.901961 0.407843
0.470588 0.905882 0.423529
0.474510 0.905882 0.423529
0.470588 0.909804 0.415686
0.501961 0.909804 0.419608
0.498039 0.905882 0.415686
0.521569 0.909804 0.415686
0.537255 0.913725 0.423529
0.564706 0.909804 0.427451
0.584314 0.913725 0.427451
0.615686 0.909804 0.435294
0.635294 0.913725 0.443137
0.674510 0.913725 0.447059
0.701961 0.917647 0.458824
0.741176 0.913725 0.462745
0.768627 0.921569 0.462745
0.807843 0.925490 0.478431
0.839216 0.929412 0.482353
0.866667 0.933333 0.486275
0.905882 0.929412 0.505882
0.941176 0.937255 0.521569
0.972549 0.937255 0.525490
1.000000 0.941176 0.537255
0.992157 0.945098 0.560784
1.000000 0.941176 0.576471
0.509804 0.937255 0.427451
0.509804 0.945098 0.435294
0.513725 0.949020 0.439216
0.529412 0.949020 0.431373
0.537255 0.945098 0.454902
0.552941 0.945098 0.450980
0.556863 0.945098 0.450980
0.588235 0.941176 0.454902
0.607843 0.945098 0.454902
0.627451 0.949020 0.454902
0.639216 0.945098 0.458824
0.658824 0.949020 0.458824
0.694118 0.952941 0.466667
0.725490 0.952941 0.470588
0.741176 0.956863 0.486275
0.780392 0.956863 0.490196
0.811765 0.960784 0.494118
0.847059 0.960784 0.505882
0.882353 0.960784 0.517647
0.909804 0.964706 0.529412
0.941176 0.964706 0.541176
0.976471 0.964706 0.552941
0.992157 0.972549 0.564706
1.000000 0.968627 0.588235
0.992157 0.968627 0.600000
0.564706 0.976471 0.474510
0.568627 0.980392 0.474510
0.564706 0.984314 0.466667
0.568627 0.988235 0.478431
0.584314 0.988235 0.474510
0.588235 0.984314 0.482353
0.611765 0.980392 0.490196
0.623529 0.984314 0.486275
0.631373 0.988235 0.482353
0.654902 0.988235 0.490196
0.670588 0.988235 0.486275
0.694118 0.988235 0.490196
0.721569 0.992157 0.494118
0.737255 0.988235 0.505882
0.776471 0.988235 0.509804
0.811765 0.988235 0.521569
0.835294 0.996078 0.533333
0.858824 0.996078 0.541176
0.882353 0.992157 0.549020
0.909804 0.996078 0.560784
0.929412 0.992157 0.564706
0.964706 0.992157 0.588235
1.000000 0.988235 0.596078
1.000000 0.988235 0.607843
1.000000 0.996078 0.631373
0.607843 0.996078 0.490196
0.619608 0.996078 0.501961
0.607843 1.000000 0.513725
0.627451 1.000000 0.509804
0.627451 1.000000 0.521569
0.643137 1.000000 0.525490
0.654902 1.000000 0.521569
0.666667 1.000000 0.525490
0.686275 0.996078 0.525490
0.701961 0.996078 0.529412
0.709804 0.996078 0.533333
0.733333 1.000000 0.533333
0.752941 1.000000 0.541176
0.784314 0.996078 0.549020
0.803922 0.992157 0.552941
0.827451 1.000000 0.564706
0.854902 1.000000 0.576471
0.874510 1.000000 0.584314
0.898039 1.000000 0.580392
0.933333 1.000000 0.592157
0.949020 0.996078 0.603922
0.980392 1.000000 0.627451
0.992157 0.996078 0.627451
1.000000 1.000000 0.639216
1.000000 0.996078 0.654902
0.000000 0.003922 0.023529
0.011765 0.007843 0.031373
0.062745 0.000000 0.035294
0.105882 0.000000 0.035294
0.152941 0.000000 0.031373
0.188235 0.027451 0.050980
0.227451 0.054902 0.058824
0.262745 0.066667 0.062745
0.305882 0.082353 0.062745
0.345098 0.090196 0.074510
0.384314 0.109804 0.082353
0.427451 0.117647 0.098039
0.474510 0.133333 0.105882
0.513725 0.141176 0.117647
0.564706 0.156863 0.129412
0.619608 0.168627 0.149020
0.666667 0.188235 0.152941
0.698039 0.192157 0.168627
0.749020 0.207843 0.176471
0.788235 0.223529 0.188235
0.835294 0.239216 0.203922
0.886275 0.250980 0.211765
0.929412 0.262745 0.235294
0.964706 0.282353 0.250980
1.000000 0.298039 0.247059
0.000000 0.035294 0.039216
0.019608 0.023529 0.031373
0.058824 0.039216 0.027451
0.101961 0.047059 0.047059
0.141176 0.050980 0.031373
0.188235 0.062745 0.074510
0.223529 0.074510 0.062745
0.258824 0.090196 0.058824
0.298039 0.101961 0.074510
0.352941 0.105882 0.078431
0.384314 0.121569 0.090196
0.435294 0.125490 0.098039
0.470588 0.149020 0.105882
0.521569 0.160784 0.117647
0.560784 0.168627 0.129412
0.623529 0.180392 0.149020
0.670588 0.192157 0.156863
0.705882 0.203922 0.168627
0.745098 0.219608 0.176471
0.796078 0.231373 0.196078
0.843137 0.247059 0.203922
0.882353 0.254902 0.215686
0.917647 0.270588 0.227451
0.968627 0.278431 0.247059
0.988235 0.305882 0.270588
0.003922 0.078431 0.062745
0.027451 0.074510 0.058824
0.066667 0.086275 0.058824
0.109804 0.082353 0.058824
0.152941 0.082353 0.066667
0.192157 0.098039 0.066667
0.227451 0.109804 0.070588
0.266667 0.109804 0.074510
0.309804 0.121569 0.082353
0.345098 0.133333 0.094118
0.388235 0.145098 0.101961
0.427451 0.152941 0.113725
0.474510 0.160784 0.117647
0.521569 0.168627 0.133333
0.572549 0.180392 0.141176
0.619608 0.188235 0.145098
0.670588 0.200000 0.164706
0.717647 0.215686 0.172549
0.760784 0.231373 0.188235
0.800000 0.243137 0.203922
0.839216 0.250980 0.215686
0.882353 0.262745 0.227451
0.929412 0.282353 0.235294
0.952941 0.294118 0.250980
1.000000 0.313725 0.254902
0.000000 0.125490 0.047059
0.011765 0.133333 0.062745
0.066667 0.137255 0.074510
0.113725 0.133333 0.054902
0.160784 0.137255 0.074510
0.200000 0.129412 0.074510
0.239216 0.137255 0.082353
0.282353 0.141176 0.094118
0.313725 0.141176 0.090196
0.356863 0.152941 0.101961
0.396078 0.164706 0.109804
0.439216 0.172549 0.121569
0.482353 0.176471 0.129412
0.533333 0.188235 0.149020
0.584314 0.200000 0.156863
0.631373 0.207843 0.160784
0.678431 0.223529 0.172549
0.713725 0.231373 0.172549
0.756863 0.239216 0.188235
0.803922 0.258824 0.207843
0.847059 0.266667 0.219608
0.882353 0.274510 0.219608
0.913725 0.290196 0.239216
0.964706 0.309804 0.247059
0.992157 0.329412 0.270588
0.000000 0.172549 0.082353
0.003922 0.180392 0.090196
0.047059 0.172549 0.078431
0.105882 0.176471 0.090196
0.160784 0.184314 0.074510
0.200000 0.184314 0.086275
0.243137 0.184314 0.101961
0.282353 0.184314 0.113725
0.321569 0.180392 0.117647
0.360784 0.192157 0.129412
0.403922 0.196078 0.133333
0.447059 0.200000 0.141176
0.482353 0.215686 0.141176
0.537255 0.219608 0.152941
0.584314 0.227451 0.156863
0.635294 0.239216 0.176471
0.678431 0.239216 0.184314
0.717647 0.250980 0.196078
0.760784 0.262745 0.203922
0.796078 0.266667 0.219608
0.839216 0.278431 0.223529
0.874510 0.290196 0.235294
0.913725 0.309804 0.247059
0.949020 0.317647 0.247059
0.988235 0.333333 0.262745
0.000000 0.223529 0.094118
0.003922 0.219608 0.094118
0.043137 0.227451 0.094118
0.098039 0.231373 0.094118
0.141176 0.235294 0.094118
0.196078 0.239216 0.105882
0.239216 0.243137 0.117647
0.290196 0.235294 0.121569
0.345098 0.227451 0.133333
0.380392 0.231373 0.149020
0.419608 0.231373 0.145098
0.462745 0.235294 0.156863
0.513725 0.247059 0.172549
0.560784 0.254902 0.176471
0.607843 0.262745 0.184314
0.654902 0.270588 0.196078
0.698039 0.274510 0.192157
0.737255 0.278431 0.207843
0.780392 0.290196 0.219608
0.819608 0.301961 0.223529
0.854902 0.313725 0.235294
0.894118 0.321569 0.239216
0.937255 0.333333 0.254902
0.972549 0.352941 0.278431
1.000000 0.360784 0.294118
0.003922 0.262745 0.105882
0.003922 0.270588 0.117647
0.043137 0.270588 0.105882
0.082353 0.262745 0.109804
0.145098 0.270588 0.125490
0.192157 0.278431 0.125490
0.243137 0.282353 0.137255
0.290196 0.282353 0.129412
0.337255 0.282353 0.145098
0.384314 0.282353 0.160784
0.435294 0.278431 0.176471
0.482353 0.278431 0.184314
0.533333 0.282353 0.184314
0.580392 0.290196 0.192157
0.627451 0.298039 0.196078
0.670588 0.301961 0.203922
0.717647 0.309804 0.219608
0.752941 0.313725 0.227451
0.792157 0.321569 0.235294
0.827451 0.325490 0.235294
0.866667 0.333333 0.247059
0.901961 0.345098 0.258824
0.945098 0.356863 0.270588
0.984314 0.372549 0.282353
1.000000 0.388235 0.309804
0.000000 0.305882 0.121569
0.000000 0.317647 0.121569
0.023529 0.309804 0.133333
0.090196 0.313725 0.145098
0.129412 0.313725 0.133333
0.184314 0.321569 0.152941
0.239216 0.325490 0.145098
0.294118 0.329412 0.160784
0.345098 0.333333 0.164706
0.388235 0.337255 0.172549
0.439216 0.329412 0.176471
0.486275 0.329412 0.192157
0.545098 0.329412 0.207843
0.592157 0.329412 0.215686
0.631373 0.337255 0.215686
0.674510 0.341176 0.227451
0.717647 0.345098 0.235294
0.752941 0.349020 0.231373
0.788235 0.352941 0.239216
0.827451 0.360784 0.250980
0.866667 0.368627 0.262745
0.909804 0.380392 0.274510
0.952941 0.380392 0.290196
0.984314 0.392157 0.286275
1.000000 0.403922 0.321569
0.011765 0.356863 0.152941
0.003922 0.349020 0.160784
0.015686 0.356863 0.152941
0.086275 0.360784 0.164706
0.137255 0.356863 0.164706
0.188235 0.360784 0.152941
0.235294 0.368627 0.168627
0.290196 0.380392 0.176471
0.333333 0.384314 0.176471
0.392157 0.384314 0.192157
0.439216 0.384314 0.200000
0.501961 0.380392 0.200000
0.552941 0.384314 0.215686
0.607843 0.384314 0.223529
0.647059 0.380392 0.227451
0.690196 0.376471 0.239216
0.729412 0.384314 0.247059
0.768627 0.380392 0.250980
0.800000 0.384314 0.258824
0.839216 0.388235 0.266667
0.878431 0.396078 0.274510
0.917647 0.400000 0.278431
0.956863 0.407843 0.286275
0.996078 0.427451 0.305882
1.000000 0.435294 0.321569
0.011765 0.392157 0.176471
0.000000 0.392157 0.172549
0.035294 0.400000 0.176471
0.090196 0.400000 0.176471
0.141176 0.403922 0.184314
0.192157 0.407843 0.184314
0.243137 0.411765 0.192157
0.294118 0.415686 0.192157
0.345098 0.419608 0.192157
0.396078 0.427451 0.203922
0.450980 0.431373 0.211765
0.513725 0.435294 0.227451
0.556863 0.435294 0.223529
0.603922 0.435294 0.231373
0.654902 0.427451 0.243137
0.705882 0.427451 0.258824
0.745098 0.419608 0.262745
0.780392 0.419608 0.266667
0.819608 0.419608 0.270588
0.850980 0.419608 0.282353
0.890196 0.427451 0.290196
0.921569 0.435294 0.301961
0.956863 0.443137 0.301961
0.984314 0.450980 0.317647
1.000000 0.458824 0.325490
0.000000 0.450980 0.196078
0.007843 0.447059 0.196078
0.054902 0.454902 0.200000
0.094118 0.454902 0.200000
0.149020 0.458824 0.203922
0.203922 0.454902 0.207843
0.254902 0.458824 0.207843
0.305882 0.470588 0.219608
