.config/mpv/luts/FGCineBright.cube
#Generated with IWLTBAP LUT Generator
#Website: http://luts.iwltbap.com
TITLE "FGCineBright"
#LUT size
LUT_3D_SIZE 5
#LUT data points
0.074510 0.113725 0.117647
0.258824 0.125490 0.117647
0.780392 0.211765 0.050980
1.000000 0.301961 0.129412
1.000000 0.447059 0.337255
0.019608 0.203922 0.141176
0.290196 0.266667 0.062745
0.823529 0.384314 0.000000
1.000000 0.407843 0.152941
1.000000 0.521569 0.380392
0.000000 0.529412 0.278431
0.000000 0.525490 0.203922
0.811765 0.623529 0.003922
1.000000 0.631373 0.254902
0.996078 0.682353 0.490196
0.364706 0.756863 0.545098
0.400000 0.756863 0.525490
0.580392 0.788235 0.474510
0.992157 0.850980 0.000000
1.000000 0.823529 0.576471
0.552941 0.996078 0.776471
0.627451 0.996078 0.784314
0.666667 0.996078 0.752941
0.913725 1.000000 0.654902
1.000000 0.941176 0.666667
0.090196 0.141176 0.215686
0.270588 0.149020 0.180392
0.823529 0.325490 0.027451
1.000000 0.388235 0.141176
0.988235 0.494118 0.356863
0.003922 0.243137 0.250980
0.270588 0.274510 0.219608
0.835294 0.431373 0.121569
1.000000 0.458824 0.196078
1.000000 0.552941 0.407843
0.000000 0.572549 0.368627
0.149020 0.556863 0.349020
0.776471 0.635294 0.258824
1.000000 0.650980 0.235294
0.996078 0.690196 0.501961
0.415686 0.764706 0.592157
0.498039 0.760784 0.584314
0.584314 0.784314 0.552941
1.000000 0.866667 0.411765
1.000000 0.831373 0.572549
0.533333 1.000000 0.796078
0.611765 0.996078 0.796078
0.705882 1.000000 0.780392
0.917647 1.000000 0.690196
1.000000 0.933333 0.662745
0.219608 0.203922 0.505882
0.447059 0.200000 0.525490
0.772549 0.313725 0.450980
0.996078 0.525490 0.439216
1.000000 0.572549 0.419608
0.000000 0.278431 0.486275
0.364706 0.337255 0.501961
0.717647 0.454902 0.482353
0.996078 0.615686 0.509804
1.000000 0.611765 0.458824
0.003922 0.580392 0.576471
0.349020 0.588235 0.556863
0.694118 0.643137 0.572549
1.000000 0.760784 0.623529
1.000000 0.709804 0.525490
0.470588 0.796078 0.678431
0.521569 0.792157 0.670588
0.639216 0.776471 0.650980
0.996078 0.898039 0.647059
0.992157 0.827451 0.600000
0.411765 0.996078 0.815686
0.525490 1.000000 0.831373
0.772549 0.996078 0.858824
0.905882 1.000000 0.803922
1.000000 0.933333 0.674510
0.431373 0.396078 0.713725
0.549020 0.423529 0.725490
0.819608 0.498039 0.749020
1.000000 0.623529 0.701961
0.992157 0.741176 0.701961
0.388235 0.447059 0.709804
0.533333 0.505882 0.717647
0.784314 0.564706 0.741176
0.984314 0.654902 0.713725
1.000000 0.760784 0.709804
0.360784 0.580392 0.717647
0.435294 0.588235 0.701961
0.686275 0.650980 0.725490
0.933333 0.733333 0.729412
1.000000 0.815686 0.760784
0.454902 0.788235 0.800000
0.501961 0.792157 0.796078
0.643137 0.807843 0.792157
0.972549 0.901961 0.847059
1.000000 0.905882 0.835294
0.305882 0.992157 0.956863
0.427451 1.000000 0.949020
0.678431 1.000000 0.913725
0.972549 1.000000 0.968627
0.996078 0.972549 0.847059
0.745098 0.701961 1.000000
0.792157 0.701961 1.000000
0.925490 0.713725 1.000000
0.996078 0.780392 0.996078
0.996078 0.901961 0.952941
0.698039 0.713725 1.000000
0.776471 0.733333 1.000000
0.905882 0.745098 1.000000
0.996078 0.800000 1.000000
1.000000 0.933333 0.956863
0.568627 0.725490 1.000000
0.627451 0.733333 0.996078
0.843137 0.792157 1.000000
1.000000 0.858824 1.000000
0.996078 0.972549 0.988235
0.545098 0.850980 1.000000
0.592157 0.847059 1.000000
0.701961 0.850980 0.996078
0.956863 0.925490 1.000000
1.000000 1.000000 0.992157
0.494118 0.964706 0.988235
0.549020 0.976471 1.000000
0.709804 0.980392 1.000000
0.992157 0.996078 1.000000
1.000000 0.996078 1.000000
