.config/mpv/luts/FGCineCold.cube
#Generated with IWLTBAP LUT Generator
#Website: http://luts.iwltbap.com
TITLE "FGCineCold"
#LUT size
LUT_3D_SIZE 5
#LUT data points
0.000000 0.003922 0.000000
0.227451 0.035294 0.007843
0.478431 0.117647 0.066667
0.756863 0.200000 0.160784
0.992157 0.298039 0.239216
0.000000 0.270588 0.082353
0.247059 0.286275 0.090196
0.533333 0.286275 0.164706
0.792157 0.321569 0.219608
1.000000 0.380392 0.298039
0.007843 0.549020 0.211765
0.266667 0.556863 0.223529
0.584314 0.580392 0.254902
0.854902 0.564706 0.325490
0.996078 0.580392 0.396078
0.298039 0.788235 0.325490
0.400000 0.792157 0.337255
0.603922 0.800000 0.364706
0.858824 0.823529 0.419608
0.996078 0.831373 0.501961
0.607843 0.996078 0.490196
0.654902 1.000000 0.521569
0.752941 1.000000 0.541176
0.898039 1.000000 0.580392
1.000000 0.996078 0.654902
0.000000 0.003922 0.266667
0.215686 0.023529 0.278431
0.454902 0.109804 0.274510
0.713725 0.239216 0.305882
0.980392 0.329412 0.352941
0.007843 0.262745 0.286275
0.211765 0.270588 0.282353
0.474510 0.298039 0.309804
0.745098 0.341176 0.325490
0.996078 0.407843 0.372549
0.003922 0.529412 0.329412
0.254902 0.541176 0.325490
0.564706 0.564706 0.352941
0.831373 0.564706 0.411765
0.992157 0.603922 0.450980
0.325490 0.780392 0.392157
0.415686 0.784314 0.400000
0.615686 0.784314 0.431373
0.854902 0.815686 0.474510
1.000000 0.831373 0.552941
0.607843 0.996078 0.529412
0.650980 1.000000 0.545098
0.745098 1.000000 0.564706
0.898039 1.000000 0.619608
1.000000 0.996078 0.670588
0.000000 0.043137 0.474510
0.156863 0.066667 0.474510
0.466667 0.109804 0.490196
0.721569 0.160784 0.490196
0.984314 0.215686 0.466667
0.000000 0.290196 0.474510
0.184314 0.270588 0.494118
0.478431 0.282353 0.490196
0.729412 0.301961 0.494118
0.992157 0.345098 0.482353
0.000000 0.525490 0.501961
0.243137 0.529412 0.501961
0.501961 0.521569 0.494118
0.764706 0.552941 0.513725
0.996078 0.611765 0.537255
0.349020 0.760784 0.529412
0.431373 0.768627 0.529412
0.615686 0.776471 0.549020
0.843137 0.807843 0.584314
1.000000 0.831373 0.662745
0.584314 1.000000 0.607843
0.631373 1.000000 0.623529
0.741176 0.992157 0.643137
0.890196 0.996078 0.678431
1.000000 1.000000 0.741176
0.003922 0.101961 0.666667
0.094118 0.113725 0.674510
0.466667 0.137255 0.682353
0.741176 0.152941 0.674510
0.988235 0.219608 0.674510
0.003922 0.274510 0.686275
0.113725 0.278431 0.670588
0.466667 0.286275 0.674510
0.741176 0.294118 0.670588
0.984314 0.341176 0.682353
0.027451 0.537255 0.670588
0.266667 0.537255 0.666667
0.494118 0.513725 0.670588
0.752941 0.513725 0.674510
1.000000 0.537255 0.694118
0.305882 0.756863 0.674510
0.388235 0.756863 0.686275
0.564706 0.745098 0.694118
0.776471 0.745098 0.694118
1.000000 0.796078 0.749020
0.513725 1.000000 0.756863
0.560784 1.000000 0.749020
0.682353 1.000000 0.760784
0.866667 0.992157 0.796078
1.000000 0.996078 0.858824
0.007843 0.152941 0.976471
0.000000 0.160784 0.968627
0.419608 0.172549 0.968627
0.745098 0.180392 0.968627
0.996078 0.243137 0.976471
0.007843 0.286275 0.984314
0.000000 0.298039 0.976471
0.427451 0.301961 0.972549
0.752941 0.309804 0.976471
1.000000 0.352941 0.980392
0.000000 0.560784 0.968627
0.000000 0.533333 0.980392
0.423529 0.509804 0.988235
0.749020 0.513725 0.992157
0.996078 0.537255 0.988235
0.109804 0.815686 0.992157
0.270588 0.803922 1.000000
0.486275 0.800000 1.000000
0.733333 0.749020 1.000000
1.000000 0.760784 1.000000
0.450980 1.000000 0.996078
0.509804 0.996078 0.996078
0.631373 1.000000 1.000000
0.819608 1.000000 0.992157
1.000000 1.000000 1.000000
