.config/mpv/luts/FGCineWarm.cube
#Generated with IWLTBAP LUT Generator
#Website: http://luts.iwltbap.com
TITLE "FGCineWarm"
#LUT size
LUT_3D_SIZE 25
#LUT data points
0.066667 0.090196 0.090196
0.066667 0.086275 0.098039
0.058824 0.090196 0.098039
0.090196 0.094118 0.074510
0.137255 0.094118 0.086275
0.196078 0.098039 0.082353
0.250980 0.105882 0.082353
0.325490 0.113725 0.074510
0.415686 0.129412 0.062745
0.521569 0.141176 0.027451
0.611765 0.168627 0.000000
0.682353 0.180392 0.000000
0.745098 0.200000 0.000000
0.796078 0.215686 0.003922
0.835294 0.231373 0.000000
0.870588 0.239216 0.000000
0.909804 0.258824 0.000000
0.952941 0.270588 0.003922
0.988235 0.286275 0.000000
0.996078 0.294118 0.000000
0.996078 0.309804 0.023529
1.000000 0.317647 0.078431
0.992157 0.333333 0.117647
1.000000 0.349020 0.152941
0.996078 0.368627 0.196078
0.066667 0.090196 0.090196
0.070588 0.086275 0.090196
0.070588 0.094118 0.086275
0.101961 0.094118 0.098039
0.156863 0.101961 0.090196
0.196078 0.105882 0.082353
0.266667 0.121569 0.082353
0.333333 0.133333 0.066667
0.427451 0.145098 0.050980
0.541176 0.164706 0.027451
0.619608 0.184314 0.003922
0.694118 0.203922 0.000000
0.749020 0.215686 0.000000
0.803922 0.223529 0.000000
0.847059 0.243137 0.000000
0.874510 0.262745 0.003922
0.913725 0.262745 0.000000
0.952941 0.278431 0.000000
0.988235 0.290196 0.007843
1.000000 0.301961 0.000000
1.000000 0.313725 0.027451
0.996078 0.325490 0.074510
0.996078 0.337255 0.113725
0.996078 0.356863 0.156863
1.000000 0.380392 0.196078
0.066667 0.090196 0.090196
0.070588 0.086275 0.090196
0.062745 0.105882 0.090196
0.117647 0.105882 0.078431
0.152941 0.121569 0.082353
0.211765 0.117647 0.078431
0.266667 0.137255 0.078431
0.356863 0.152941 0.070588
0.447059 0.180392 0.035294
0.541176 0.200000 0.000000
0.635294 0.203922 0.003922
0.701961 0.223529 0.000000
0.764706 0.239216 0.000000
0.807843 0.243137 0.000000
0.835294 0.262745 0.000000
0.878431 0.266667 0.003922
0.921569 0.278431 0.000000
0.960784 0.286275 0.011765
0.992157 0.298039 0.000000
0.996078 0.313725 0.007843
1.000000 0.325490 0.011765
0.996078 0.329412 0.066667
0.996078 0.341176 0.105882
0.996078 0.364706 0.152941
1.000000 0.380392 0.203922
0.050980 0.109804 0.090196
0.062745 0.098039 0.086275
0.078431 0.117647 0.086275
0.113725 0.109804 0.090196
0.160784 0.129412 0.086275
0.223529 0.149020 0.082353
0.298039 0.160784 0.074510
0.380392 0.184314 0.047059
0.466667 0.203922 0.000000
0.568627 0.231373 0.000000
0.650980 0.243137 0.003922
0.709804 0.250980 0.000000
0.756863 0.270588 0.000000
0.807843 0.274510 0.000000
0.847059 0.286275 0.000000
0.878431 0.294118 0.000000
0.921569 0.298039 0.000000
0.964706 0.301961 0.007843
0.992157 0.317647 0.003922
1.000000 0.325490 0.003922
1.000000 0.333333 0.007843
0.992157 0.345098 0.054902
1.000000 0.356863 0.109804
1.000000 0.376471 0.149020
0.996078 0.396078 0.203922
0.023529 0.125490 0.090196
0.015686 0.133333 0.086275
0.058824 0.137255 0.090196
0.113725 0.137255 0.082353
0.152941 0.141176 0.066667
0.223529 0.168627 0.066667
0.298039 0.200000 0.050980
0.407843 0.223529 0.019608
0.498039 0.247059 0.000000
0.600000 0.270588 0.000000
0.662745 0.282353 0.003922
0.721569 0.294118 0.000000
0.764706 0.298039 0.000000
0.811765 0.305882 0.000000
0.850980 0.309804 0.000000
0.898039 0.313725 0.011765
0.937255 0.317647 0.007843
0.964706 0.321569 0.011765
0.996078 0.337255 0.011765
1.000000 0.337255 0.000000
1.000000 0.352941 0.003922
1.000000 0.356863 0.058824
1.000000 0.372549 0.105882
0.996078 0.388235 0.145098
0.996078 0.396078 0.200000
0.000000 0.160784 0.098039
0.000000 0.156863 0.070588
0.000000 0.164706 0.070588
0.078431 0.172549 0.070588
0.156863 0.180392 0.078431
0.203922 0.184314 0.058824
0.286275 0.223529 0.031373
0.411765 0.266667 0.000000
0.513725 0.305882 0.007843
0.615686 0.321569 0.003922
0.674510 0.329412 0.000000
0.749020 0.333333 0.003922
0.788235 0.333333 0.000000
0.819608 0.341176 0.000000
0.858824 0.345098 0.000000
0.905882 0.345098 0.000000
0.941176 0.349020 0.007843
0.968627 0.356863 0.000000
1.000000 0.356863 0.003922
1.000000 0.360784 0.007843
1.000000 0.368627 0.015686
0.996078 0.380392 0.047059
1.000000 0.392157 0.101961
1.000000 0.396078 0.152941
0.996078 0.415686 0.203922
0.000000 0.200000 0.109804
0.003922 0.192157 0.098039
0.000000 0.207843 0.082353
0.015686 0.203922 0.050980
0.121569 0.211765 0.047059
0.203922 0.235294 0.050980
0.290196 0.239216 0.031373
0.403922 0.286275 0.003922
0.517647 0.329412 0.000000
0.615686 0.356863 0.000000
0.690196 0.384314 0.007843
0.745098 0.376471 0.000000
0.796078 0.368627 0.003922
0.831373 0.376471 0.003922
0.866667 0.380392 0.003922
0.913725 0.372549 0.000000
0.945098 0.380392 0.003922
0.972549 0.380392 0.000000
1.000000 0.380392 0.000000
0.996078 0.388235 0.003922
1.000000 0.392157 0.000000
1.000000 0.396078 0.031373
1.000000 0.407843 0.105882
1.000000 0.411765 0.156863
0.992157 0.435294 0.207843
0.000000 0.243137 0.129412
0.007843 0.243137 0.101961
0.003922 0.243137 0.074510
0.003922 0.250980 0.074510
0.078431 0.250980 0.050980
0.188235 0.274510 0.031373
0.282353 0.290196 0.000000
0.384314 0.317647 0.003922
0.513725 0.372549 0.003922
0.603922 0.400000 0.003922
0.682353 0.411765 0.003922
0.756863 0.415686 0.000000
0.800000 0.419608 0.007843
0.839216 0.423529 0.000000
0.882353 0.419608 0.003922
0.921569 0.419608 0.000000
0.952941 0.407843 0.003922
0.992157 0.411765 0.000000
0.996078 0.411765 0.003922
0.992157 0.419608 0.000000
1.000000 0.419608 0.000000
0.996078 0.431373 0.023529
0.996078 0.435294 0.105882
0.996078 0.439216 0.149020
0.992157 0.454902 0.211765
0.000000 0.286275 0.149020
0.003922 0.298039 0.137255
0.000000 0.298039 0.094118
0.000000 0.313725 0.074510
0.000000 0.321569 0.047059
0.141176 0.325490 0.019608
0.270588 0.349020 0.000000
0.376471 0.364706 0.000000
0.498039 0.403922 0.011765
0.596078 0.427451 0.000000
0.682353 0.447059 0.007843
0.741176 0.454902 0.003922
0.800000 0.450980 0.000000
0.854902 0.458824 0.000000
0.894118 0.450980 0.003922
0.929412 0.447059 0.000000
0.968627 0.447059 0.000000
1.000000 0.447059 0.000000
0.992157 0.447059 0.003922
0.996078 0.443137 0.000000
1.000000 0.447059 0.000000
0.992157 0.450980 0.000000
1.000000 0.447059 0.094118
0.992157 0.462745 0.172549
1.000000 0.470588 0.215686
0.000000 0.352941 0.160784
0.003922 0.356863 0.145098
0.000000 0.364706 0.117647
0.000000 0.364706 0.086275
0.000000 0.384314 0.062745
0.007843 0.388235 0.015686
0.219608 0.411765 0.000000
0.364706 0.427451 0.007843
0.470588 0.447059 0.015686
0.584314 0.466667 0.000000
0.666667 0.478431 0.000000
0.729412 0.490196 0.000000
0.803922 0.482353 0.011765
0.843137 0.490196 0.003922
0.901961 0.498039 0.000000
0.945098 0.494118 0.003922
0.968627 0.482353 0.000000
0.992157 0.486275 0.000000
1.000000 0.486275 0.000000
0.996078 0.482353 0.000000
0.996078 0.482353 0.000000
0.992157 0.482353 0.003922
0.992157 0.478431 0.086275
1.000000 0.490196 0.160784
1.000000 0.501961 0.223529
0.000000 0.419608 0.207843
0.000000 0.427451 0.172549
0.000000 0.435294 0.145098
0.011765 0.435294 0.098039
0.000000 0.439216 0.047059
0.000000 0.450980 0.003922
0.129412 0.474510 0.003922
0.329412 0.486275 0.000000
0.466667 0.509804 0.000000
0.560784 0.501961 0.000000
0.658824 0.505882 0.000000
0.705882 0.517647 0.000000
0.784314 0.525490 0.000000
0.827451 0.525490 0.007843
0.886275 0.525490 0.000000
0.929412 0.529412 0.000000
0.980392 0.529412 0.000000
0.996078 0.525490 0.003922
1.000000 0.513725 0.000000
1.000000 0.513725 0.000000
1.000000 0.513725 0.000000
0.996078 0.517647 0.000000
0.996078 0.517647 0.090196
0.996078 0.521569 0.180392
1.000000 0.525490 0.231373
0.000000 0.498039 0.227451
0.000000 0.490196 0.211765
0.000000 0.498039 0.164706
0.007843 0.505882 0.125490
0.007843 0.505882 0.054902
0.000000 0.513725 0.000000
0.007843 0.529412 0.015686
0.235294 0.533333 0.000000
0.407843 0.552941 0.003922
0.533333 0.564706 0.000000
0.615686 0.556863 0.000000
0.709804 0.549020 0.000000
0.768627 0.552941 0.000000
0.823529 0.564706 0.000000
0.874510 0.556863 0.011765
0.929412 0.556863 0.003922
0.976471 0.556863 0.000000
0.996078 0.556863 0.000000
1.000000 0.556863 0.000000
0.992157 0.556863 0.000000
0.992157 0.549020 0.000000
1.000000 0.549020 0.023529
0.992157 0.545098 0.125490
0.996078 0.549020 0.172549
1.000000 0.552941 0.250980
0.000000 0.549020 0.270588
0.003922 0.545098 0.243137
0.000000 0.552941 0.223529
0.000000 0.560784 0.180392
0.003922 0.568627 0.086275
0.000000 0.568627 0.031373
0.003922 0.572549 0.003922
0.000000 0.580392 0.000000
0.337255 0.588235 0.003922
0.466667 0.596078 0.000000
0.588235 0.611765 0.000000
0.662745 0.596078 0.007843
0.756863 0.580392 0.011765
0.807843 0.584314 0.000000
0.866667 0.588235 0.000000
0.921569 0.584314 0.007843
0.968627 0.596078 0.000000
1.000000 0.592157 0.007843
1.000000 0.592157 0.000000
1.000000 0.596078 0.000000
1.000000 0.592157 0.007843
1.000000 0.580392 0.101961
0.996078 0.576471 0.160784
0.996078 0.584314 0.223529
1.000000 0.580392 0.258824
0.000000 0.592157 0.298039
0.000000 0.600000 0.286275
0.000000 0.596078 0.270588
0.000000 0.600000 0.223529
0.003922 0.607843 0.168627
0.000000 0.603922 0.109804
0.000000 0.615686 0.062745
0.000000 0.615686 0.000000
0.211765 0.627451 0.000000
0.403922 0.639216 0.011765
0.533333 0.643137 0.000000
0.639216 0.643137 0.000000
0.733333 0.615686 0.003922
0.788235 0.611765 0.003922
0.858824 0.611765 0.000000
0.905882 0.615686 0.000000
0.964706 0.615686 0.003922
0.996078 0.619608 0.003922
0.996078 0.623529 0.000000
1.000000 0.623529 0.000000
1.000000 0.619608 0.090196
1.000000 0.623529 0.152941
0.996078 0.615686 0.207843
0.996078 0.619608 0.258824
1.000000 0.623529 0.313725
0.000000 0.623529 0.341176
0.003922 0.631373 0.325490
0.007843 0.631373 0.309804
0.000000 0.639216 0.298039
0.000000 0.643137 0.243137
0.000000 0.643137 0.164706
0.011765 0.647059 0.149020
0.000000 0.654902 0.094118
0.000000 0.654902 0.039216
0.313725 0.654902 0.000000
0.478431 0.674510 0.000000
0.596078 0.670588 0.003922
0.698039 0.686275 0.007843
0.764706 0.658824 0.000000
0.847059 0.643137 0.011765
0.890196 0.650980 0.000000
0.941176 0.654902 0.000000
0.996078 0.654902 0.000000
1.000000 0.643137 0.000000
0.996078 0.654902 0.007843
0.996078 0.647059 0.098039
1.000000 0.650980 0.192157
1.000000 0.654902 0.262745
0.996078 0.654902 0.305882
0.996078 0.650980 0.360784
0.003922 0.666667 0.380392
0.007843 0.666667 0.372549
0.000000 0.666667 0.360784
0.003922 0.674510 0.345098
0.003922 0.670588 0.313725
0.000000 0.670588 0.254902
0.000000 0.678431 0.211765
0.007843 0.682353 0.180392
0.000000 0.686275 0.141176
0.172549 0.690196 0.117647
0.396078 0.690196 0.074510
0.533333 0.709804 0.007843
0.650980 0.713725 0.000000
0.760784 0.709804 0.015686
0.811765 0.686275 0.007843
0.894118 0.674510 0.000000
0.941176 0.674510 0.003922
0.984314 0.686275 0.015686
1.000000 0.686275 0.007843
0.996078 0.682353 0.007843
1.000000 0.678431 0.117647
1.000000 0.682353 0.219608
1.000000 0.690196 0.286275
0.996078 0.694118 0.356863
1.000000 0.686275 0.400000
0.003922 0.694118 0.431373
0.003922 0.694118 0.431373
0.007843 0.701961 0.427451
0.000000 0.690196 0.403922
0.000000 0.705882 0.376471
0.000000 0.705882 0.333333
0.000000 0.709804 0.290196
0.011765 0.709804 0.270588
0.003922 0.717647 0.223529
0.000000 0.729412 0.215686
0.317647 0.725490 0.188235
0.470588 0.745098 0.156863
0.592157 0.737255 0.117647
0.713725 0.752941 0.000000
0.819608 0.752941 0.003922
0.858824 0.729412 0.000000
0.929412 0.717647 0.000000
0.984314 0.705882 0.007843
1.000000 0.705882 0.000000
1.000000 0.709804 0.007843
1.000000 0.705882 0.137255
1.000000 0.713725 0.239216
1.000000 0.717647 0.313725
1.000000 0.721569 0.368627
1.000000 0.729412 0.427451
0.003922 0.725490 0.482353
0.003922 0.733333 0.486275
0.003922 0.733333 0.470588
0.000000 0.725490 0.462745
0.000000 0.733333 0.447059
0.011765 0.733333 0.427451
0.000000 0.741176 0.372549
0.003922 0.737255 0.349020
0.000000 0.752941 0.309804
0.007843 0.756863 0.270588
0.200000 0.756863 0.262745
0.411765 0.764706 0.247059
0.541176 0.780392 0.231373
0.650980 0.780392 0.180392
0.760784 0.784314 0.109804
0.858824 0.784314 0.000000
0.909804 0.752941 0.000000
0.960784 0.752941 0.007843
1.000000 0.737255 0.011765
1.000000 0.733333 0.023529
1.000000 0.741176 0.168627
0.992157 0.741176 0.258824
1.000000 0.737255 0.341176
1.000000 0.745098 0.392157
1.000000 0.745098 0.454902
0.003922 0.768627 0.533333
0.000000 0.760784 0.525490
0.003922 0.760784 0.529412
0.000000 0.756863 0.525490
0.007843 0.760784 0.498039
0.000000 0.768627 0.486275
0.000000 0.768627 0.447059
0.003922 0.780392 0.431373
0.000000 0.780392 0.396078
0.007843 0.788235 0.368627
0.007843 0.796078 0.317647
0.345098 0.796078 0.329412
0.486275 0.807843 0.305882
0.607843 0.811765 0.286275
0.721569 0.819608 0.250980
0.819608 0.823529 0.172549
0.898039 0.823529 0.039216
0.960784 0.792157 0.000000
0.992157 0.768627 0.011765
1.000000 0.768627 0.094118
0.988235 0.768627 0.184314
0.996078 0.768627 0.286275
1.000000 0.772549 0.352941
0.992157 0.772549 0.407843
0.992157 0.772549 0.470588
0.011765 0.800000 0.564706
0.003922 0.800000 0.580392
0.000000 0.796078 0.576471
0.000000 0.800000 0.560784
0.003922 0.807843 0.576471
0.000000 0.800000 0.549020
0.000000 0.807843 0.517647
0.003922 0.815686 0.494118
0.000000 0.815686 0.462745
0.007843 0.819608 0.435294
0.007843 0.823529 0.407843
0.282353 0.827451 0.400000
0.439216 0.843137 0.384314
0.568627 0.839216 0.372549
0.686275 0.850980 0.356863
0.772549 0.854902 0.309804
0.870588 0.858824 0.243137
0.949020 0.850980 0.141176
1.000000 0.831373 0.007843
1.000000 0.800000 0.160784
0.996078 0.800000 0.227451
1.000000 0.800000 0.309804
1.000000 0.796078 0.396078
0.996078 0.796078 0.431373
1.000000 0.796078 0.482353
0.000000 0.835294 0.623529
0.000000 0.843137 0.611765
0.035294 0.839216 0.607843
0.113725 0.831373 0.607843
0.156863 0.835294 0.615686
0.145098 0.839216 0.588235
0.066667 0.843137 0.572549
0.007843 0.843137 0.560784
0.007843 0.850980 0.517647
0.000000 0.858824 0.490196
0.090196 0.862745 0.478431
0.196078 0.866667 0.458824
0.396078 0.874510 0.447059
0.521569 0.882353 0.439216
0.631373 0.886275 0.415686
0.741176 0.890196 0.407843
0.827451 0.894118 0.352941
0.917647 0.894118 0.305882
0.988235 0.886275 0.200000
1.000000 0.850980 0.196078
1.000000 0.835294 0.294118
0.996078 0.831373 0.360784
0.992157 0.819608 0.400000
1.000000 0.823529 0.447059
1.000000 0.815686 0.509804
0.035294 0.878431 0.643137
0.082353 0.886275 0.647059
0.125490 0.874510 0.639216
0.172549 0.882353 0.650980
0.219608 0.874510 0.635294
0.227451 0.882353 0.643137
0.192157 0.882353 0.619608
0.137255 0.890196 0.588235
0.054902 0.886275 0.576471
0.062745 0.901961 0.556863
0.156863 0.898039 0.525490
0.231373 0.901961 0.521569
0.337255 0.909804 0.505882
0.478431 0.917647 0.478431
0.596078 0.917647 0.482353
0.705882 0.917647 0.470588
0.788235 0.921569 0.450980
0.882353 0.929412 0.396078
0.956863 0.925490 0.349020
0.996078 0.913725 0.258824
0.996078 0.878431 0.352941
1.000000 0.862745 0.392157
1.000000 0.854902 0.435294
1.000000 0.847059 0.474510
1.000000 0.850980 0.517647
0.125490 0.913725 0.678431
0.156863 0.921569 0.694118
0.176471 0.921569 0.678431
0.215686 0.917647 0.682353
0.250980 0.921569 0.686275
0.282353 0.925490 0.686275
0.274510 0.921569 0.682353
0.247059 0.925490 0.643137
0.203922 0.925490 0.611765
0.152941 0.933333 0.600000
0.200000 0.941176 0.580392
0.270588 0.941176 0.572549
0.305882 0.941176 0.537255
0.431373 0.952941 0.541176
0.549020 0.952941 0.533333
0.662745 0.952941 0.501961
0.752941 0.960784 0.505882
0.831373 0.952941 0.478431
0.937255 0.949020 0.427451
1.000000 0.956863 0.376471
1.000000 0.933333 0.388235
1.000000 0.901961 0.447059
0.992157 0.886275 0.482353
0.996078 0.878431 0.509804
1.000000 0.874510 0.549020
0.200000 0.956863 0.725490
0.215686 0.956863 0.725490
0.231373 0.964706 0.717647
0.266667 0.960784 0.725490
0.282353 0.964706 0.717647
0.337255 0.952941 0.721569
0.356863 0.960784 0.717647
0.333333 0.960784 0.709804
0.305882 0.968627 0.682353
0.278431 0.972549 0.650980
0.262745 0.972549 0.639216
0.301961 0.976471 0.615686
0.345098 0.980392 0.611765
0.384314 0.980392 0.576471
0.509804 0.984314 0.580392
0.635294 0.984314 0.552941
0.733333 0.980392 0.552941
0.823529 0.984314 0.521569
0.905882 0.984314 0.509804
0.976471 0.984314 0.454902
1.000000 0.976471 0.435294
1.000000 0.945098 0.478431
0.996078 0.917647 0.529412
1.000000 0.905882 0.560784
1.000000 0.890196 0.576471
0.278431 0.996078 0.772549
0.286275 0.996078 0.756863
0.305882 1.000000 0.764706
0.329412 1.000000 0.756863
0.349020 0.996078 0.756863
0.392157 0.996078 0.760784
0.427451 0.996078 0.756863
0.435294 0.988235 0.760784
0.419608 1.000000 0.733333
0.388235 1.000000 0.717647
0.360784 0.996078 0.701961
0.372549 1.000000 0.666667
0.403922 0.996078 0.662745
0.427451 1.000000 0.627451
0.525490 0.992157 0.623529
0.627451 1.000000 0.603922
0.725490 1.000000 0.611765
0.811765 0.996078 0.572549
0.886275 0.996078 0.552941
0.976471 1.000000 0.513725
1.000000 0.996078 0.533333
1.000000 0.976471 0.560784
1.000000 0.945098 0.600000
1.000000 0.925490 0.623529
1.000000 0.913725 0.647059
0.070588 0.090196 0.101961
0.058824 0.094118 0.090196
0.058824 0.090196 0.098039
0.101961 0.098039 0.090196
0.145098 0.101961 0.086275
0.196078 0.105882 0.082353
0.262745 0.117647 0.086275
0.337255 0.137255 0.062745
0.423529 0.149020 0.050980
0.541176 0.172549 0.023529
0.627451 0.196078 0.003922
0.698039 0.207843 0.000000
0.745098 0.215686 0.000000
0.792157 0.239216 0.000000
0.835294 0.250980 0.000000
0.878431 0.254902 0.000000
0.917647 0.274510 0.000000
0.945098 0.278431 0.007843
0.988235 0.290196 0.007843
0.996078 0.301961 0.000000
0.996078 0.313725 0.007843
1.000000 0.325490 0.066667
0.996078 0.341176 0.098039
1.000000 0.360784 0.160784
0.992157 0.372549 0.188235
0.066667 0.090196 0.074510
0.058824 0.094118 0.090196
0.074510 0.090196 0.094118
0.113725 0.098039 0.086275
0.156863 0.105882 0.082353
0.211765 0.117647 0.086275
0.270588 0.129412 0.074510
0.356863 0.141176 0.058824
0.443137 0.164706 0.047059
0.541176 0.184314 0.007843
0.631373 0.219608 0.003922
0.705882 0.219608 0.000000
0.764706 0.239216 0.000000
0.811765 0.247059 0.003922
0.835294 0.262745 0.000000
0.890196 0.266667 0.011765
0.917647 0.282353 0.000000
0.956863 0.294118 0.007843
0.996078 0.301961 0.000000
1.000000 0.305882 0.000000
0.992157 0.321569 0.011765
1.000000 0.333333 0.062745
0.992157 0.349020 0.117647
1.000000 0.360784 0.152941
1.000000 0.372549 0.192157
0.062745 0.094118 0.101961
0.058824 0.094118 0.082353
0.070588 0.105882 0.086275
0.109804 0.117647 0.074510
0.168627 0.113725 0.078431
0.211765 0.137255 0.082353
0.294118 0.149020 0.074510
0.368627 0.168627 0.054902
0.450980 0.196078 0.039216
0.568627 0.211765 0.000000
0.643137 0.231373 0.007843
0.705882 0.243137 0.000000
0.756863 0.262745 0.003922
0.800000 0.266667 0.000000
0.839216 0.266667 0.000000
0.886275 0.282353 0.000000
0.913725 0.290196 0.003922
0.960784 0.305882 0.000000
0.988235 0.313725 0.000000
0.992157 0.317647 0.000000
1.000000 0.333333 0.019608
1.000000 0.341176 0.062745
1.000000 0.349020 0.113725
1.000000 0.360784 0.152941
0.988235 0.388235 0.196078
0.047059 0.113725 0.090196
0.058824 0.105882 0.090196
0.078431 0.117647 0.086275
0.109804 0.113725 0.090196
0.172549 0.133333 0.086275
0.227451 0.152941 0.086275
0.305882 0.176471 0.054902
0.384314 0.200000 0.035294
0.490196 0.215686 0.011765
0.580392 0.247059 0.000000
0.654902 0.258824 0.000000
0.717647 0.270588 0.000000
0.756863 0.278431 0.000000
0.811765 0.282353 0.000000
0.854902 0.294118 0.003922
0.882353 0.301961 0.011765
0.913725 0.309804 0.003922
0.964706 0.309804 0.003922
0.992157 0.325490 0.000000
1.000000 0.329412 0.007843
1.000000 0.337255 0.000000
1.000000 0.345098 0.066667
0.992157 0.360784 0.105882
0.996078 0.380392 0.141176
1.000000 0.403922 0.211765
0.003922 0.133333 0.090196
0.011765 0.137255 0.086275
0.050980 0.133333 0.074510
0.109804 0.145098 0.078431
0.160784 0.149020 0.074510
0.231373 0.168627 0.070588
0.309804 0.203922 0.035294
0.411765 0.239216 0.000000
0.505882 0.270588 0.003922
0.603922 0.282353 0.000000
0.682353 0.305882 0.007843
0.721569 0.301961 0.000000
0.772549 0.309804 0.000000
0.815686 0.309804 0.003922
0.858824 0.317647 0.000000
0.901961 0.321569 0.000000
0.937255 0.325490 0.000000
0.968627 0.337255 0.000000
1.000000 0.345098 0.000000
0.996078 0.349020 0.000000
1.000000 0.352941 0.003922
1.000000 0.360784 0.050980
0.996078 0.376471 0.105882
0.992157 0.388235 0.152941
0.996078 0.403922 0.196078
0.000000 0.168627 0.109804
0.000000 0.164706 0.086275
0.003922 0.168627 0.082353
0.074510 0.176471 0.070588
0.156863 0.180392 0.070588
0.231373 0.192157 0.062745
0.305882 0.227451 0.031373
0.411765 0.266667 0.000000
0.533333 0.309804 0.007843
0.619608 0.325490 0.000000
0.682353 0.341176 0.000000
0.737255 0.337255 0.007843
0.796078 0.341176 0.000000
0.819608 0.345098 0.000000
0.870588 0.352941 0.000000
0.901961 0.356863 0.003922
0.941176 0.356863 0.003922
0.968627 0.352941 0.003922
0.996078 0.360784 0.003922
0.996078 0.368627 0.000000
1.000000 0.380392 0.007843
0.996078 0.388235 0.043137
0.996078 0.400000 0.113725
0.992157 0.407843 0.156863
0.992157 0.423529 0.200000
0.003922 0.196078 0.121569
0.003922 0.200000 0.101961
0.000000 0.203922 0.086275
0.015686 0.207843 0.090196
0.117647 0.215686 0.062745
0.215686 0.227451 0.050980
0.290196 0.250980 0.019608
0.407843 0.298039 0.007843
0.513725 0.337255 0.000000
0.623529 0.372549 0.000000
0.690196 0.376471 0.000000
0.749020 0.388235 0.000000
0.792157 0.384314 0.003922
0.827451 0.384314 0.000000
0.878431 0.388235 0.003922
0.913725 0.384314 0.000000
0.941176 0.388235 0.003922
0.972549 0.392157 0.000000
1.000000 0.392157 0.007843
1.000000 0.392157 0.000000
1.000000 0.400000 0.003922
1.000000 0.403922 0.035294
0.992157 0.415686 0.101961
1.000000 0.419608 0.152941
0.996078 0.443137 0.203922
0.000000 0.239216 0.133333
0.000000 0.250980 0.117647
0.003922 0.247059 0.094118
0.000000 0.250980 0.086275
0.062745 0.266667 0.074510
0.188235 0.282353 0.047059
0.282353 0.286275 0.019608
0.392157 0.317647 0.015686
0.525490 0.372549 0.007843
0.607843 0.403922 0.007843
0.682353 0.415686 0.000000
0.756863 0.427451 0.000000
0.800000 0.423529 0.000000
0.858824 0.419608 0.000000
0.882353 0.419608 0.003922
0.913725 0.419608 0.000000
0.952941 0.415686 0.000000
0.988235 0.415686 0.000000
1.000000 0.415686 0.003922
0.996078 0.423529 0.003922
0.996078 0.415686 0.000000
0.996078 0.431373 0.015686
0.988235 0.435294 0.094118
1.000000 0.443137 0.145098
1.000000 0.458824 0.207843
0.007843 0.286275 0.152941
0.000000 0.301961 0.145098
0.000000 0.305882 0.105882
0.003922 0.313725 0.090196
0.000000 0.317647 0.066667
0.133333 0.333333 0.031373
0.262745 0.352941 0.000000
0.380392 0.360784 0.000000
0.486275 0.400000 0.003922
0.596078 0.439216 0.000000
0.674510 0.450980 0.007843
0.745098 0.447059 0.007843
0.800000 0.462745 0.000000
0.850980 0.462745 0.003922
0.894118 0.458824 0.000000
0.929412 0.454902 0.003922
0.972549 0.454902 0.000000
0.996078 0.450980 0.007843
0.996078 0.454902 0.000000
1.000000 0.447059 0.000000
1.000000 0.443137 0.003922
1.000000 0.450980 0.000000
1.000000 0.454902 0.090196
0.996078 0.470588 0.160784
0.988235 0.478431 0.211765
0.000000 0.360784 0.176471
0.000000 0.364706 0.168627
0.000000 0.364706 0.129412
0.007843 0.364706 0.094118
0.000000 0.384314 0.062745
0.000000 0.392157 0.039216
0.231373 0.407843 0.003922
0.360784 0.431373 0.000000
0.474510 0.443137 0.007843
0.584314 0.458824 0.000000
0.670588 0.482353 0.003922
0.737255 0.486275 0.003922
0.796078 0.490196 0.003922
0.839216 0.494118 0.003922
0.886275 0.498039 0.000000
0.941176 0.494118 0.007843
0.976471 0.494118 0.000000
0.996078 0.490196 0.000000
1.000000 0.486275 0.007843
0.996078 0.478431 0.011765
1.000000 0.478431 0.003922
1.000000 0.486275 0.007843
0.996078 0.482353 0.090196
1.000000 0.486275 0.164706
1.000000 0.501961 0.223529
0.000000 0.423529 0.200000
0.011765 0.423529 0.192157
0.000000 0.431373 0.164706
0.000000 0.439216 0.109804
0.000000 0.447059 0.074510
0.000000 0.454902 0.019608
0.117647 0.474510 0.000000
0.325490 0.486275 0.007843
